/* XPM */
static char *door[] = {
/* columns rows colors chars-per-pixel */
"275 275 146 2 ",
"   c #0E171E",
".  c #0F181F",
"X  c #11171F",
"o  c #11191F",
"O  c #1F2214",
"+  c #212316",
"@  c #24261C",
"#  c #2B261D",
"$  c #27281D",
"%  c #2B2A1E",
"&  c #312C1F",
"*  c #2C301F",
"=  c #0E1720",
"-  c #0F1920",
";  c #121720",
":  c #131B22",
">  c #181F26",
",  c #161F28",
"<  c #181F28",
"1  c #172026",
"2  c #192226",
"3  c #1E2827",
"4  c #172128",
"5  c #1B252B",
"6  c #1E292D",
"7  c #1E2730",
"8  c #1F2931",
"9  c #232624",
"0  c #2A2720",
"q  c #252926",
"w  c #2C2C23",
"e  c #22272A",
"r  c #232B2C",
"t  c #2B2D2A",
"y  c #322E23",
"u  c #332F29",
"i  c #2E3023",
"p  c #26302F",
"a  c #2E312C",
"s  c #353126",
"d  c #383327",
"f  c #35322A",
"g  c #3A352B",
"h  c #3D392E",
"j  c #202730",
"k  c #232D32",
"l  c #282F32",
"z  c #252F38",
"x  c #292F38",
"c  c #263134",
"v  c #2A3435",
"b  c #2D3936",
"n  c #263239",
"m  c #2B353A",
"M  c #2E3A3B",
"N  c #373630",
"B  c #3C3730",
"V  c #303B37",
"C  c #3E3A31",
"Z  c #30363C",
"A  c #313C3D",
"S  c #413A2E",
"D  c #423C32",
"F  c #32403E",
"G  c #464034",
"H  c #494134",
"J  c #2C3740",
"K  c #2E3B42",
"L  c #2F3E48",
"P  c #323E42",
"I  c #383F42",
"U  c #343F49",
"Y  c #393F49",
"T  c #2F4043",
"R  c #344245",
"E  c #384446",
"W  c #36444A",
"Q  c #39464B",
"!  c #37484C",
"~  c #3A494E",
"^  c #364651",
"/  c #3B4750",
"(  c #374851",
")  c #3C4B51",
"_  c #3B4D59",
"`  c #3F5055",
"'  c #3F515A",
"]  c #3F5461",
"[  c #40474F",
"{  c #404B4E",
"}  c #404751",
"|  c #424C54",
" . c #454F58",
".. c #484F59",
"X. c #435255",
"o. c #495556",
"O. c #4A5857",
"+. c #44535A",
"@. c #4A555C",
"#. c #46595C",
"$. c #4B5A5D",
"%. c #505C5E",
"&. c #435561",
"*. c #4D5761",
"=. c #475962",
"-. c #4C5B62",
";. c #4D5F69",
":. c #525C64",
">. c #555E69",
",. c #585F6A",
"<. c #4E6066",
"1. c #4F6269",
"2. c #536265",
"3. c #596567",
"4. c #54636A",
"5. c #5A646C",
"6. c #55696D",
"7. c #5B6A6C",
"8. c #566770",
"9. c #5D6671",
"0. c #566B71",
"q. c #5B6B73",
"w. c #5C7175",
"e. c #5C7379",
"r. c #60656F",
"t. c #626E6F",
"y. c #626B75",
"u. c #656E79",
"i. c #637173",
"p. c #697376",
"a. c #64727B",
"s. c #6A737C",
"d. c #65797E",
"f. c #6E787A",
"g. c #6D7681",
"h. c #637A81",
"j. c #6C7B84",
"k. c #737C84",
"l. c #767E88",
"z. c #797E88",
"x. c #678087",
"c. c #6E8387",
"v. c #72848B",
"b. c #7C838C",
"n. c #778C91",
"m. c #818A8F",
/* pixels */
"h S B h g B g g g g f g g g S S S S S B D B g B g g B N g B g h C D S S S d S d u S y u S S g u y y d y & y y y S y d d d S u S h C G C D C h S S S S S S S C h h h h g g g h h S B S D D D D D D S S S S d S S d S u S y y u S d d y y & & y y # & & y y y d d d d d d d d d y d y y d y y d & y y d d d d B B B S d S S S S S S S S h g S S S S D D D d h S d G S S S D D D D D D G G I D G D D D D D D G D G G I D D D D G I G D D C h h h g h h g S d S B d S B B S S S S S g g f d f f B g g B S B B B B B g g S S u S u S B B u B B d B d B B S S S H H H H H H ",
"B h S g d B g g g d f f d g S g g S B S h B B B B g g g g C C C C h h S S S h S S S S d g d g d d y y d S u S y S y y S S u S S C D C D D D D S S S S S h S h D h h g g g h g h S S S D D D H D D D S S S S S d S y S y y S y y d d d y y & # y y y y y y y d y d d d d d d d d d y d y y d y y y d y d u B d B d B B S S S S S S S h S S g g S D D D C G S h S h S S S S D D D D D G G D D D D Y D D D D D D D D D I G D D G D D G C C h h h h h g S g B B S B B B B S S S S B B d f B f B u B g S S S B B B g g S S u S u S u u B B u d B B d B S S S B H B H H H H ",
"g B B B d B B B g f f f d g g S S B S S C h h B g g g N g g h h S C S S S d S d S u S S g g d d y & y u y y y y y u S d u S u S h C S S h D h h S S S S S S S S h h h g d S g g d S S S D H D D S S S S S S S B S S y S S y y S y d d d y & & # # y & & y y y d y d d d d d y d d y y d d y d y y y d d d d B d S S S S S S S S S S S S S g S S D D D D S d S S S d S S D D S D D D G G G D D D G D D D D I D D D G D D I G D D F S G h h g h h B S g S d S S g B S S S S S S S B u g u B u B B u B B B S B B S B g g B S S u B u B d B B B d B d S S S S H H H B H B ",
"S S S g B B d d f g g g g g S g g S B g h h g g N g g g g g g h h h h S S S S g y S y u g g u d y S y y u y S y y y y y S u u S h h h S h S h D S d S B h D h h h h g g d g d g S d S S D D D D S S S S d S d B y d S & y S y y S y d y & y & y y & & y d # d d d d d d d d d d d y d y y y y d d d y d d d d B S d B B B S B S d S S S g S S S S D D S S S S d S S S S D D D D D D I D D D D D D D D D D D D D D D D D D D D D G C C C C C h h S d S d B S g S B B B B S S S S S d B g f B u B S B S S B S B S B S S B u u B u B u B u d B B d S B S S H S B B H H H ",
"B B g S u g u B g f f g g g S g S g S S g B g g g g g g g g g h h h h h S S d S d S u S d S d d y y y u S y u S d d d d u S y S S g S h S h S S S g h h h h D D S S S d d d d d S d S S S S S S S S g S d g d d S u S y y d d d S y y y y & y & y # # y u u y u d d d d d d u d d d y y y y u d y d y d d d B d B B d B B B B S S S S S d S S S S G G h h h S S S S S D S D D D D D D D D D D D I D D D D D D D D C D D D D D D F S S h C C h h d d S u S S S d g B B S S S S S B B d g d B B B B S S B D B I S B B B B B B u u B u B B d B d B B d S S S S H H H H H ",
"d S S g g g g g g g g g g S g S d S d d g g g g N g d g d f g h h g h h S g S d d S S y u d u u y y y y y u y y y y y y y u d d d S g S h h h h S g h h h h S D S S y S d d s s y & d d S S S S D S S S S g B u y y y & d d d y y y y y y y # # y y y y y d y d d d d d d d d d d y y d d y y u d d d y d d d d g d B B B B B B S y y S S S S S S G G h h G S S h C S h D D D D I D D D D D I D D D D D D D D S D D D C D D B D C G S G C C h h g S S S S S d S g g g g B S S B S B S B B B u f B B D D D D D D S B B u B u B u u u u B B d B B d B B S S S S S B B H ",
"S S g g u S u u f g B d B S S g g g g g g g g g g g s d f g d f g g h h S g d g d u d d d u u y y # y y u y u S y y y d d y y d d d d h h h g S g h h g h S D D S y y & d & & & # S S y S S S S S S S S d d d d y y y S y u u y S y u y & & # # # # y y y y u d u d d d d d d d d y d y y d d d d d d u u d d d d B B B d B d B S S & S S S S S S G G G S h h S D S h D C G D D D D D D D D D D D Y D D D D D D D D D C D B D B h C F C D C C h g S d u u S u S B u S S u S S S S S S S B B B B B Z S D Z D D D S B B B B u u u u B u B d B B d B S S S S S S H H B B ",
"g g g g S u g g g g f d B g d S S g g g f g g g g g g g g g g h g h h h h S S g S u S d d d d u S # S & u S u y y y y y d d S d S d g g g g S g h h g g h h h D S S S d y d d d S y y S d d S S S S g g d d d d u y y & S & S y y y y y & # # # # y y # y y d y d y d d d d d d d d y y y d d d d d d d d u d B d d d B d B d d y S S S S y S S S G S S G h F S D h D C h D C D D B D D D D D D D D D D I D D S D B D B D D B D D S S C D C C g g d g S S S S u B B u S S S S S S B S B S d u B B S S D D D D D S S B B B B u u u u d u B u d u B d B B S S S S H S B ",
"g g h g g N g N g g g g g C h h g S B g g g f h g g d S g g h h h S S S S g S S g d d d d u d d y u y u d u d u d d d d d d S d g S d g g d g S u S u S g S g S d S y y d d y y d d d d d d g g B B B B d B d y S & u y d y y y y u y u # # # # # & # & & y & & y d d y d d d u d d d u y d d d d g u d d B B d B d u d d u B d d d S d S S d S S S S S D h B D S h D S D S C D C D D C C D D D D D G D C C D D B D D C D C C C C C C C F S C g B d d B g B g N B S S d h S S S S S S B B d B B B H B H B H H B B S B d d u u u u u u B u u B B d B B B S B S B B S B ",
"h B g g g g g g g N g B C g B B B g d g g g h h g g S d h h h h F S S g g S S g S B d B d d d u S y S u u u y d y d d d S S S S g g d g d g g g S d S S g g g S S y y S s d d d d y d y d d d g d d d d d d d d y y y y y y y y y u # # y # # # # # # & & y & S y y d y d d u d u d y u y u d d d d d g d d d d d B B d d d d B d S d S d d S S h S h D h S C D C D D C S h h S C C C D D D I D D D D D G G h C B D C D C C C C g B C C S S h B d B f f g g g g d S S S S B h h D h S S S B B S B B S S H S B H S B B d d B u u B u u u u B d B B d d B d B d B B B B ",
"g B N g h g h g h g g g g B g B S g g h h g h h S S g S S S S S D S S S S S S S S d S d d d d d u S d u y u u y d d d d B S S S g g f d d d d d d S S u S d f g & S S & d s s s d d d u d d d f d d d d d d d y y y y y y y y y u # & # # # # # # # # # & & y y y y y y y d d y d d y d u d d d u S g u B d d B d S d d d d d d d d d d S d S S h h h S S C B D h D D h D h h h C C C C D D D D D G G S C C C h C D C C C C C B B C C B S h h g f d B d f N N g B B S S h h S S S S D S S B g B B S B H B S S S S B B B B d u u u u u u u B u u B u d d d B d B B S B ",
"g g h g g h N h g B g B S g B B g B g g h h h h S g S g S h h S C S S S S S g g S S B d d d u d S y d u d y u u d B g S S S S B S g g d g g g d S u g S d d g s S y S y d s g g d d d y y d y f d u d d d u y u u y y y & y y # # y & # # # # # # & # # # S & & y & d y y d y d d d d y d d d d S u g d g B u B d d u d u d u d d d S S d S d d g g h h h h S B G S D D S h S h C C C C D D D D D D S H S F D h C C C D C C C h g B C D G h g g f f N f f f g B u S S u S g g S h S S h S B S S H S B H B H S S B B d d u u B u u u u u u u B B B d B d B d B d B B B ",
"B g h g g h g h g N g h B g B g g S g g h h h h h h S g h S h S h S h h S h S g u d S y y S S y y S u u d u d d B B B B S S S S S S B g g g g g u S y S g f s f & y u d d y g s d d d d y d d y d d d u d d u y y u y y y y y y y y & # # # # # # & & & & S & & y d & d & d d d u d d d d d u d u u S S B d B u d d d u d u d d S d d d d g g h g g g S S B S S C C D D B B h h h C C C C C C C C D D G D D h h D C D B F C C B B B B B D C h h g d f f g N g g B u S S u S S g B S S h S h h h B S S H S S S B B B d d d u u d u B u u u B d d B B d B B B d B B B B ",
"h g g C h g h N h h C B g h h B h g g g h h h h S h S S h h h h h h h h S d f d d y d y S y u u y u S u d d d B B B H B S S S S S S S g B S g g S u S y s g f s y u d d d d s s d u f y u y f y d u d y y d y y y u 0 y # # # y # # S # # # # # # & y y y & & S d y d y y d d d u d u d d d d d y S S y d d d d d d d d d u B g d d S d S h d g g g d g g g B S C G D D D C B B C g C C C C C C D D C G G D h S B D B D D D C C S B S S C B B g f B f g g g g f u S u S g d d B h h h C S h h S B S S B S B B B B B u u u B u d d u u d u d B B B B B B B B B B d B B ",
"h h h h g h h N h N B g g g h g g g g g g h B D S S g S h h h h h g h h g g d d y y y S & y y y u u y y d d B B S S B H H S S H D D D D S S g g S d u u f s a f d u u d u s f g f u f u u f y d u d y y u y y u y # 0 0 y # y y & S S y # # # # & # S & S & y & d d y d d & d d y d d d d d d d S u y S d B B d u u d d d B d d d S d S d g g d d g f g d g B S C D D D B B B B B g B g B C B C D D G G D D S h S C D B B D S B B S B D C C B g f f B g g g N g S S u u d g g B h h h h h S S S B S S B B B B B d u B u u u B d u B B u d B d S S S S B B B B B B B B ",
"h h h h h h h h h h B g B h g g g B g g g h h D B g S g g g g g h g g g g d d s y y y y y S u S S y y S d d B B D D H H S B H B D D D S S B S S u u S d f s s i y d u y u d d d d d d u y f f d d d d d y y u # y y # y # # y # # S # & # # # # & # S y y & S S d & d & y d d & d y d d u d d d u y S y B d u d u d d d d g g d d S d d S g g g d f d d B d d S h D D D C B B B g B g C B B B B C D D F D D S S S B B B D B D S S B D C C C B B f d d B g h g g u u u S u S g g g h h h S h C S S S B S B B B B u B u u u B u d d d B d d B d S S d B S B B B B B B B ",
"h h g B h h g h B d S B d B u S g g g g g B B B B g g g g g N g g g g g f d y y y y y u d f u f y u S u B d g g D D D D D D D D D D G D C C C N g f f f f s f s f a f i f s f s u d y d y u y u u d y y y y y # 0 y w y 0 y y y y u y y # # # # w y y y y y y y y & S y s s y s d d f f f d f s S S y u d d d B u d g u S u S S g g S d S g g g s s s g g g g g g h C h C g g g N g C N B B B B C C C D C C C C h C B C B B B h h B B C C C N g f f f g g g g g g f g g g g N h g h C h h D D C S S S S B B B d B d u u B u B d u S u S u S S S D Z S S S S S S C S h ",
"h h h h h S h h B S B B d B B B S g g S g g f B B f N g f g f g f g f f d u y y w w y y u f f f u u g u d d g S B D C D D D D D D D C D C C C h g g f g f f f f f f f f i s f s y d u u d y d d d y u y u y y u y 0 y 0 y w w y y y y w 0 # # # # y y y y s S y S S & y s s d s y d f g f f f s & u y S B f f f u g g u d d d d g g d g d g g s s s d s d f d g g h g h g g f g g B g C B B N B B C C C C C C C B B g B h B B g h h C h C g g f s f s f g g g g g h g g h h g g h h h h C C C D S B S S B B d B d B u u u d B d S u S u u S S S S S D S S S S B C h h ",
"N h B h B S S g B d g g S S g B B S g g g g B f f f f f f f f N f f u u u y y w # y y u u f u f u B B B B B B B B B D C C D D C D D D C C C N g f f f f f f f g f f i f f a u a u y y y y y y f u d u u u # # u 0 y w y w y t y u y w y % # # # # & # y y s s d & y d y s s s s d d g u f f s f y S y S d f f g B B g g u S S d h g g g g g g f s s s d d d d d g g g s g f f g g C B C C N B B Z C B B B C C C B B g B g g g B g g B C C B g s y y u f f g B B h F F h N h g C h h h h C C C C B S B B B d d B B B u B u d d d u S B B S B S D B B D S D D S S h D h ",
"h B h B g g S S B S g g g g S B B u g g g N u N f f f y a s a f N f u u u w w w w 0 y u u u u N u u u u f d B B h h g C C C C D D C D C C h g N N f f f f f f f f i f f a f u u y u y y y u y u d u u u u u u # y % w t y u y u y u w w 0 # # # # y # y y y y y & S s d d s s s u u u u d d u s u y y & d d f N g u g g y d S u g g g B g g g s s y d y y d d d f f g s s s d f g N C N B C g B B B B N N B B V B B B g g g g f g g g B B f f i y t y s N N N g g h N C h h B B h N h h C C C C S B B B B d B d d u d u B u B d u B B B S S B Z Y B D D D D D S h C h ",
"B g h h S B S g g g g g g h g N g f g f f f a f a i a t t t a a p a a t t t w 0 0 t w w u a u u x u u l u u u N N f N f N N N N N N N N N N a N f v u l u f f f f a i a u t u t t u 0 u w y w y u u t u u u j 0 0 w t w t t i p t w t 0 0 $ $ 0 0 0 0 w w w a i y u u y y s t s u u u u s u t y 0 y y u y u u u u x u u d u u u u f f f f u u u y y y y y u y u s a f i y u y u f N N N N N N g N f f f N N N N N N f f g f f f f N N f N g f a y t s f f f f f g F d F B B g g g g g N B B B B B B B u B d B B d B d B d u d B u S S B B D B D D D D D D D S D D C h ",
"g h g h B g S g g g g f g f g N g f g f f f a t a a t t t t t a a r t t t t t t t t q t t p t r j t t u t u a t p a a a v f a a f v v f v a a p t t t t t t t i a a a a t t t t q t q q t t t t t t t t 0 0 j 0 q q q q 0 t r i t t t t e t 9 9 q 9 q q q t q i 0 0 t t t t w t t w t t t t t t w t t u w t t t a u u u u t u u u t t u t u t w t y t y y t t t i i a i u u t u a f N N N f u v f v f f N a N N N N N t u u N N N f f f f a f i y t t u f a N f f f d d f B f B N g g g g B f B B d B B B B u B B d B d B B B d S B B S D B D D D D D D D D D S h h C ",
"g g f h h g g g g g g f s f N d f f f u u u t t t r t r r t r r r r q r e r t e e t r r r r r r j e t e j e e e r r r r r r p r r t t r p r c 8 l r t r t p t a t a a p t r r r t e r q r t e e e e e t t 0 0 j e e e e e r p 3 q r t e e e q q 9 9 9 9 q q 3 3 q q q e e t q t t t q e q r r q e t t 0 t t t t t t w t t t t e q t r t t t t t q t q t q t t t t t t t u t t u t f a a N l f l t t t t t N t N a f a f f t N u f v f a f u t t s t t u a t u f a f d f N f f g f f s f g f f g d B u u u u B u B u B d B B B B S S Z S S D D D D D D D D D D D C C h ",
"g g h g g h g g g g s s f d f i f s y y t t t r q r q e e e e e e e r e r r r r r k r j r r 6 6 e j j < j < e e 3 e 6 3 3 3 3 3 6 6 6 6 r r 8 c r k r r r r t t r t t r t r e e e e e e e e r r e j e j j j j j 3 3 e e 3 e 3 6 e r r r r e r e e e e e 3 3 3 3 e e e e 9 e e q e q e e e r 3 q e e 9 e 9 e 9 e e e e e e e e e q e e q e q t e q r e q q q q q 9 9 t 9 r q t t t t v a t l t t t t t t t t u t N a a a t f a u v f a t t t i t t t y t u t y t a a i f u f N f f y t f u u u u d d u B u B B B B B d B d B B B S S S S D S D D D D D D D D S S h h h ",
"g g g g g g g g f d f f d d i d i t y y u t t e e r t e r r r r r r r r r r c k k k k k r k 6 8 8 k k 8 7 6 6 k r 6 8 6 6 6 6 6 6 8 8 8 8 8 8 8 k 8 k 8 p p p p a p t l r r r r r 6 r 6 p 6 r k j e k k 8 p 6 p 3 6 3 6 6 6 6 6 r r p r p 6 p 6 6 6 3 6 6 6 6 6 e 5 3 6 e e r e 3 r q e r 3 3 r q r 3 r q q r r j e e e e e r q 3 6 3 q r e e e e r e r r r r q 9 e q q r t e u a t p t t c p t k e t t a i p p a a a t t u t t u t u t 0 t t w t t t t t t t t a i t t s f u t y u t y w t u t t u t u a f N f u u B B B B B B B S S D S S D S D S S D D C h h h h C ",
"g g s f f h g g g s s f i d f f f f f t t w t 9 t e t j r r r k r r r k c r t c l k c v l l z z c c k k k l k k c c c k c k k c k n c c c c c c c c c n c c n n p c c k v k t k 8 8 p 8 p r r k l l k k c 8 8 8 8 p p 8 6 p p p c r k c 8 p p 6 p r 6 r p 6 6 6 r r 6 r r r r q p 3 p 6 r r r r 3 3 r 3 3 r 3 r r e r e r e e e 6 3 6 6 e r r e r e r e e r e r e t r e r t r j r r a l k t r p t r e q q r t t t t t t t t t u t t t t t t t t t t t t q t t t p q t t t t u t t w t t t t t t t t t t t t r a u u u B u B B B S B B S S S S S h D h C h h h h g g g ",
"s f s g f g g f f f s d s d d d s f a t t t t t t j j l t k k k c p c t k l v c l m m v m n m m n m m m m m n m m m m n n n n n n n n n n n n n n n n n c c n n v c c n v c c k p p p p r k c c c c k v c c c p c 8 8 p 8 8 8 p c p c c c c k p p r p 8 8 8 8 8 r 6 r 6 r r r r 6 6 8 p r r r 6 p 3 r 6 r r 6 3 e e e e 6 r k 6 6 8 6 6 3 r 6 r 6 r 6 r r e 6 e r r e r r r t r p p 8 p l r c r r r e q r q q t e t t 0 t t t t w t t t t q t t t t t t t t e t q q q t q t t q t q q t q q r e e t r t r r e t u u u u B d B B S S S S B S S S h h C h g g N g g g N ",
"s f g s f f f g d d d i g s f f f s a y t t e r e t t l c k l l c c c c v c v m m m m m m J J J J J J J M J M M M J M m M M n m n K n n n n M n n b n M M n n J m m m m n v c v c c c c c c c c n c c n n n n n n 8 c c c c c c c c c c c c c c c c c c c 8 c c k k k r r r r r p 8 p 6 p 6 p 6 r p 6 r 3 6 r 6 r r j r 6 8 e 6 8 c 6 6 6 r 6 6 6 6 r 6 k 8 r k k e k j e r r j p 8 c p k p r p r r 3 e q 3 r r t t e q q q 9 t t q t q t e t t l l t k r r r q q q q q q q 9 9 e q e e q e q e e e e 5 e e e e u u u B d B d B g B B g S B B B h h g g f g f g g B g ",
"s s s s f g f s f d d d d d d f f a f t t t r q r l l l c v v v v v m v v m m M J P P U R W R W W W W R R U U P L L K L K m K J n n T n n n T n T n n T n K J n J n K n m m c c c n b c n c n b c m n n M n n n c n c c c c c c v v c n c n b n n c n n c c z c c c c p c p k r p p c p c p 8 p r 8 8 r p 6 6 r 8 8 8 8 r 6 r 8 8 8 8 6 8 8 c 8 k 8 k k k k k k k k k k l t k k p c c c c c p p p p 6 3 r p p r r t t q t r t t t e t t t t t l l l t l r t r r q q r q e q e r e e r r e 3 r 6 6 6 6 3 e e 5 e j u u u d B d B S S B S B S g B g f B f f f g g g g g ",
"s f s s s s f g F f d d d d f f s s y t t t t r e t t c v v m m m m m m m M Z P I R W ~ _ ) ) ) ) ) ) / / Q W W W W T T T K K J T L n T T T n n n T T n K J J J K M J n m m m m n b c n n b n n m m n n n M n M b c n n b n n n n b F n c F n b m v n n n n n c k c c n c c c n c p c c c c p p p p p p 6 8 p 8 p p p p k k c c c c n c c c z c c c m c n c n c m l v v x x c l c c c c c c c b c c p 8 p p p p c t l t u l t c t v c a t l t v v N v c v l c t p r p t k l t k p r t r p p r r r r r r e e 5 5 0 u u B B d d B u S u S g g g g B d B f g f g f g g N ",
"s s s s g g g g d F d d d f f s t f t t w q q e j k l l v m m M J M M M M P U R Q ~ X.X.+.-.=.=.=.+.+.+._ ) ) ) ^ Q ^ W T L K K L n L L T n n L T n T n K n K J K J J K K n m m n n n b n b b n n n b F n n M n T b n n n n b n M n n n F F b n m n n n b n b n b n n n v n c v c n c c c c c c c c p p p c p c c c c c c c n n b n n n n n n n n m m m m M m m m m m m m m b v c n b c F c v v v v v p c p v v v b v v x v N b V m V b v b m V m Z b b m v v v v v v c c c v l c c c c c p c c r p k k e e < e 0 u u u u B d d S u u S g u d g B f u d f g g f g g g ",
"s & s s s g f g d d d d d i f s y y y y t t q e t k l c v m M P P U P P J I W Q ~ X.#.-.4.6.4.4.4.>.;.=.+.+. ._ ) _ ( ^ T T K K n L n n L T L n L T J T L J K L K K K K T K M M F n b n b b n b M b b n T n M n n b b b b b b T F b T F b n n F M M T M n F n F F n b M M M b m c F n b b n c c c c c c c c z c z z c n n n m v n n F n b F M M F K M T P M P P P P A A A M M M F b b F b F F F M b F b v F b b b m V m Z Z M M A b Z b M M A A A A Z Z M m Z m b b m v m m m m v b v v v c b c c c c c j j e e e j u d d u B u u S u u g g B u u f u d f f f g g N N ",
"s y s s s g g g g h g g d u y u y y y u 0 t r e r r c v m M T R W W R R W Q / ) X.#.=.1.0.q.q.0.8.8.;.;.=.&.+.+. ._ _ ^ W T L L K K K K J T J L J J K K K K L L K L J L K K K M M M M m m M M m M M M m M M M M M M M M M M M M K M T M M M M M M K K M M M M M F F n T M M M M M M M M m n b n c m c c v v n m n n n M m m m M K M K M M K T M T R U R T R R R R U P P P R M F F M M F F F F F F A A A V A A A M A M A M P A A M R R A P F R A A P P A A A A A A A F M M M M M M M m m m b m v v n c c 8 6 3 3 3 t f f f f f f u B u u B u u u d u d d f f g g g g g ",
"y u y s s d g g g g h g B d B d u u t y t t t e r c c c M K W ! ) ) ` ' +.) X.) ) ` #.$.;.4.;.1.;.-.=.&.+. ._ _ / _ ^ ^ W L K L K L K K J L T J L T K L L K L K T K U L K K K K M K K M M M M M M K M K K M J A M M M M M M K M K F K K T K T K T K K K K P M K n T M T T M T M M K M M M M M M m m m m v m n M M M n M M M K M K T T T P P R R T R R R R R R R I R R I R P R M F F F F F F F F F F F A F A A A A A A A A M A R F F M F A A A P I A I A P P I E Q Q Q E R R T M M M b M M b M m M n v c p 6 3 6 q t i f f f g f u S B u u g d u B u u g d f g g g g g ",
"u y s s g g d g g h g g S d g d d d d y t 0 q e r k c c M W ( #.-.=.-.<.1.=.+.` / ) ) _ #.=.+.=.+.+. . ._ / ( ( / ^ ^ ^ W R T L K K T K L T T K T T L T L L L ^ T L L L L U R L K K K M T K M K T K M K L K P J P P K K K F K K T K R M T P M R T K K T T P P M K K T T K K M K T M K K K M F b M M M M M m M n M M F M M M M K L T T T R R R R R R R R E R R R E I R R R R R R F F F F F F F F F F F F F A A A A F A M P M A F R F A F F F R A P P P P P I E { X.o.X.~ Q R R K M M M M M M m m b b b c p 8 6 3 r q f f g N f g u u u u g u B B B d S g d f B d N g B ",
"u u t f g s g g g g S d B S h g d B u u t t r e r r c m K ! ` <.6.0.0.w.w.6.=.+.Q ! / _ / / ) ) ) _ / ^ ^ ^ ^ ^ ! ! ! R ^ T R L L L L K T J L T J L T L T L L T T L R L P T U R R L R L K T T T T T R L R K P U P P K K T K T K K R K U P P L L R T T R K U T R T T K T T K R L T L T T T T M T M K M M M M M F M K M F A P R P R R R T R W R R W W W W ! R E R W W R Y R R R R R R R R ! F ! F R R F R F F F A R A K F M R A F F F R A F P A F P I U U I I ~ #.%.2.$.O.) ! R R P A M M M M M m n n b c c 8 3 6 q a a g u f g f B u S S g B B B S S B B B d d B g h g ",
"u u u u f g d g g h h h S S B S B B u y t w t e r k v v M ` #.6.e.e.h.x.x.e.1.+.T L T U L U L U U U U U L U L W L ^ T R L R ^ L L T L L P K P K T T U L R T L T ^ U U U U U U W U U U U K L R L T T ^ L U U U U U U P P L L K U R U P U U U L R R T W T R R R T R T T T R T U R U R L ^ T T T T K T M M F M F K T T A P F I P R R R W W W W E Q W W W E R Q E ! E W W W Q R W R R R ! R R ! F ! R R F E R R A F F A A K M R F A F F F A F F R P P U R P W W } $.2.t.6.<.O.~ E E R A M M M K n K T n n b k 6 6 3 r t u g g g g g u S u u u S D D S S S S S u B B B g C ",
"u u u g f f g g h h h h C S D S B d d u t t q e k l c m R ` =.6.e.e.e.e.e.1.=.' ^ ^ W L ^ L ^ U U R U U ^ L U R L W W L L R T L L T U L R L R L T T R R W W ^ W L R R I R W U W W W R W R ^ R W R W R R U U W U R W W U W R R R R W R I R U R R R R W W R R R R R R W T R W U U R T R T T T R R R K T K K K P P T T R P A R I R R W R E W E W W W W W W ! R W R W W W W R W E E E E R E ! F E F R R R E I R R R R P R R K P F R R F F R R R R P R I I R U W ) o.#.6.%.O.` E E E R R R A T M T M F n b n k k 6 3 r t u f u g f f S u S u S D D D D S S S S S g g h h h ",
"N u g u g g g g h h C h S h S S g g d u u t e r r k m m T ) =.0.e.0.0.0.1.<.' ` W L L L U ^ ^ U W U U U U U U L U R U ^ W T R W L U T L R L U R T ^ L L U ^ L T R U U U U W W W ! W W W W W W W W W W ^ Y Q Q U Q W W W ! W W ! W Q W W W W W W W W W W R ! E R W R W R W ^ L W W W R W U W R U U P R K K R P K K R A F R F R I U R R W E R W W E W W W R W R Q W W W E W W R W R E E E F E E ! E R E F I R R I R R R P U R R R E R E E R R R R R U R W W W / ` #.#.O.` ! E R E R R R T T K M M n n n n c 8 3 6 r t u u u d f f u S D B S S D H D D D D S B S g C C C ",
"f u g g f g h h h h D D D S S h h g u u t t t r r k m m R ` <.0.e.0.1.<.' ` _ ( T ^ W ^ W L U U U U U U L U U U L U R L W R L ^ W R R R R R T R ^ T R R R R R R R R R U W U Q ^ ! ^ ( W ^ W ! ! ^ W W ^ / Q ^ ^ Q W ^ W ! ^ ^ ( ^ Q ^ ^ ! ^ ^ ! ^ ! ! W ! E Q E W W W W W W W W W W W W R W R R R R P P R K P P R A R P A R I R U R R R E E Y R R Y R W W W R R U W I W U E E R Q R E E E E E E E E R E E R R E E R R R U I W I R R R R W R W R R R R R R R ! ( ` ` ~ ! ! R R W R ! W R T T T M F n n n k k 8 6 q t u d u d d f u B S B B B D D D D D D S B B S C C C ",
"g g g g g h g S D h D S D S S S g g f u u q r e k k m M I _ <.0.h.0.<.' ^ ^ T ^ ^ ^ T ^ ^ U ^ ^ W U U U R L U R R U U L R W W ^ R W R R W U R R R R R W W R W R W R W R W W W ^ / ~ ^ / ! ( ( ! ^ ^ / / / ) ^ / ~ ! / / ( _ ) ( / / / ^ ) ^ / / ) ! ~ ~ ~ ! Q Q Q W ! ! W ! ^ ! ^ W ! W W W W E R I U U P U U P U P R A A R F P P I R P I W R R I R R R W R R U U R R W U W E Y E E R E E E E E E E R W R E E R E W Y W E W E R R Q W ! ! W R ! R R R R W W R T T ! ! T R A R R ! Q ~ E R R M K m m n c c r 6 3 r u u u u u y d u S S S B Y Y D D D G D D B D D D C C ",
"g f f g g B h h h S D D D h S S B g f f u l t k k l m Z W | <.6.e.1.] _ ^ T ^ T ^ T ^ ^ U ^ U U U U U R R U R L U R W T W R R L R R W R R R R R R U W R R W R R R W W W W ! ^ Q ^ ~ / / / ( / / / / / / / ) / / / ( _ ( _ / / _ _ ) _ / ) _ ) / / ) ) ~ ~ ~ ~ ~ ~ Q ! ! Q ^ ! ! W ^ ! ! W ! W W Y Y W U U R P U I I I I R F R I R R I U U U U I U R U R U U W R U W R U I Y Y W R W E E E E E W E R E R R E R ! W W E E E Y W W W W W W W ! ! R W W W R W L L ^ T T T T R P R R ~ X.X.) Q R M M m m m c c k 6 r q t t u y d d d u S S S D D G G H D I D D D D D C G F ",
"g g g g g g S S h D D h h h h S g g f u N t t e k l m M R | =.6.0.<.#.` T ^ ^ T L ^ ^ L U ^ ^ U W U R U U K U R T U R U R T R R R U R R T R U R R R W U W R W R U W W W ! Q ! Q / ~ ~ ( / ( / Q / / / / / / ) ^ / ( / _ ( ) ) ) _ ) / ) ) ) _ ) _ ) ) ) ~ ) ~ ~ ~ ~ ~ ! / / ! ! ^ ( / ! ^ Q Q Q Q Q W W R R R U R R I R R F I R R R R R R I R R R U W R I W U R W U I W W W I U W E E R E E W R E E E W W R R R W R E R E W U W W W W W ! R W R W W U W W ^ U L ! T W T I P R { o.O.$.o.~ R T M J m m c c 6 6 e e t u u y u u d u S D D D H G G H H D D D B D D D D D ",
"u g g g g B S S S S D S S h g g g g N N f t r j k l m A E ) $.4.0.<.] ! L T L ^ ^ ^ ^ ^ ^ W ^ ^ ^ U R L R R T R U R R R R ^ R R R R U R U R U R U R R R R W R W W W W ^ Q Q ^ ! ! ! ~ ~ ( / / ) / / / / / ( ) ) ) ( ) ( / _ _ / / ) _ ) _ ) _ ) ) )  .) ) ) ) ~ ) / ) ) ~ _ ` ( ( ( ( ( / Q / ~ / Q Q Q R W W W W R R E E E E R I R U R R R R U W U I U U U W U U R R U W U W W W E E E W R W R R R R R R R R R I R R R I W W Y W W W W W ! W ! W W W W ^ U W W ! T W R R F E { O.2.3.$.o.Q K M K m m c c k 3 e e t t u u y S u B S D B D H G G G G D D D D D D G D G ",
"g g d S S S S S S S D S S h g g f g g N v t t k r v m A F ~ ` <.1.#.` ! T T ^ L L ^ ^ ^ ^ ^ ^ U W U W L R K R R U W R U R R R R R I P U U P P P U R R R R W W W W W Q Q Q ^ ~ ~ ~ ~ / / ~ ! / / / ( ~ _ _ ^ / / _ ) / ) ) / _ ) _ / | _ ) ) _ | )  ._ _ _ ) ) | ) ) ` ) ) ` ( ) ) ) ) ( ) ) ( ) / ^ ~ Q Q Q W W R E R Q E E E R R R R R R R R R I W I Y W Y R Y W I U I U W R W I I W U W I R R R R R R R R R F R R R I I W U W W W W W W W W W W W W W ^ W ^ W W R R R R U E o.%.t.t.3.o.[ M K m M n n k r e e e t u 0 u S u S S S S D D D D D G D D D D D D D D G G ",
"d d f g g S S S S S S S g g d s g g N N f l t r p c b A ! ` ` <.1.#.` ! T T T ^ ^ ^ ^ ^ ^ ^ ^ ^ W W R U R K K R U U R R R R T R R R P I P I R R R R R R R W R W W W ~ ^ / ~ Q ~ ~ ! ~ Q ( / ~ ^ / / / ( ^ _ _ ) / / ) ) ) | / ) | _ / } ) ) | _ _ |  .) | | _ ) ` ) _ ` ` ` ` ) ) ) _ ` _ ) ) ) ) ) / Q / Q E W W Q Q E E W E Y R R R R R I W U U I R Y Y W W E Y W W W R W R R W U W Y U U U R R R R R R R R T P R R R W U W W W R W W W W W W W ! ^ W ^ ^ W W W ! ! R R R Q o.2.t.p.3.O.[ R M M m n n l l 6 5 e e t u u u g u u B D D D D D D I D D D D D D D D D G ",
"g s f g h B S S S S S S S g g g g B N N f a k r c v b F F ~ O.#.<.#.` ! T T W T L ^ L ^ ^ ^ ^ ^ U W T R T P K R U R R R R R R U R A P A P R P P R K L R R R R W W W Q ^ Q / ! Q Q Q Q ^ Q ^ ~ / / ) / ( / ( ! / ) ~ ) / / ) / / / / / / / / ) ) } } ) ) ) ) | / ) ) ) _ ) ) ! ` ) ( ( ( ) ) ! ) ) Q ^ ^ Q Q Q Q Q W Q E W W W W W R R W W R W R W W Y W W Y W W W U W W W W W W W W U W W I W R R R R R R F F R R P R Y I W W U ^ W W W ! R W W W W W W W W W W W W W R U R Q o.2.t.t.3.O.{ F A M M m n l j e e e u u u u u u S S S S D D D S B S S S S S S S S C G F ",
"g d f g g B B B h S S S S g g g N N g N N v t r p v b F F ~ ` #.<.#.` T T T W ^ ^ ^ ^ ^ ^ ^ L ^ W W W T R K P K U U U R P U R P R A R R P P P R P R P R R T W R W ! W ^ Q Q Q ! W ~ Q Q Q ^ / ~ / ~ ) ( / ( / / / ) / ) / ^ / Q / ^ / Q ~ ~ ^ / / ~ ~ } ) / / } / ) ) ~ ) ) ! ) ( ( ( ! ! ! ! ~ Q Q Q Q ^ Y Q W W Q Q W Q W W W E W R W R W E U W W W W Q Q E W W W W W ^ W W W U W U W W R W W R R R T R R R K P I R R U W W W ^ W ! W W ! ! ! W W ^ W W ^ ! W W W T W R R ~ o.2.t.t.3.O.[ A b M M v c j j j < e t u y S u g u u S S Z D D S B B B S S u S S S C C S ",
"s f f g g g C h h C S h h h g g d g g N f f p r l v m A F ` O.O.$.#.) ! U L U ^ U ^ U ^ ^ ^ ^ W ^ W L U U K K L P R U U R R P P I A P A R P P R U R M R T R R W W W W W W ! Q Q Q ^ Q W / ^ ^ Q ( ( / ~ ) / ~ ~ ~ ~ ~ ~ ~ ~ Q Q W E Q W W Y W W Q Q E Q Q Q } / ~ / ^ / ~ ~ ~ ~ Q Q Q Q ! Q Q Q ! Q W W W W ^ Y Q ^ Q Y ^ W W W W W W Q W W W W W Q W Q Q Q ! W ^ ! ! ! W ! W ! ^ ^ L ^ T W R R W W R R R M R R F R R R W W Q Q ^ ! ! Q ! ! Q ! W ! W ! ! ! W ! W W W R E R ! o.%.t.t.2.O.Q R M M M n n c 6 3 5 e t u u u d d d S u S S B u u S u S u S S B S S S d h ",
"g f d f f g h h h h S D h B g B h d g N f p c r k v m A F ! ` O.$.#.) ! L U L L ^ ^ ^ ^ ^ ^ W W T T R L T P P P P U U I P P I R I A A R R K P K K R F R R R R R W W W ! ! ! ! W Y Q Y Y Y Y Q Q Q / ~ ^ ^ Q ~ ~ Q [ Q Q E ~ Q Y W U Y Y W Y W Y Y Y E E W Q Q Q ~ ~ Q ! Q Q Q Q Q Q W W R W Q E Q R W W W ^ Q ^ Q Q Q Q ^ W W ! E W W W W W E W W Q ~ Q Q Q Q ! ! ^ ^ ^ W ^ ! ^ W ^ ^ T ^ W W W R R R T R R R K R K R R Y W Q Q / / ^ Q Q Q Q Q W W ! W ! T T ! W W W R E E ~ o.%.3.t.2.o.Q A M m m v c k k 6 6 t t u f B u g d d u u S u S S u u S y S S d g S d F d ",
"d f s d g g g g h h h h h B B g g F F f N p p r k m b A ! ! ` #.-.#.) ! L U U ^ U ^ Y ^ Y ^ ^ U W R L T K K P K P U P P P R P P P P A P A P U U R P T R P R U U T W R ! W W W U U Y Y Y Y U W U W W W W W W Q E W E W E E W W Y W U R I Y W I W I R R E R W W U W R W R W E E R R E R R R R R R R R R W R U Y U W U U I R W R R E U R I I R Y R R W I W W R W W W R W R W R R W R W U U L T R R R R R L P P R P P R R R W W Q ^ ^ Q Q Q ! W W W W W W W ! ! W R W W W W R ! ~ o.O.%.2.O.X.E F M M m m n k 6 6 3 q t u u y S u g u S u g S S u S u u S u B B B S G d d ",
"i i i d g g g d g g h g g g g g g d d d f p p p k v b A F ! O.#.#.#.) W U U W L ^ U ^ W ^ ^ W ^ W T R U K U K P P P P P P P A R P P P P P P P P P P T F R P U P T W R R R U I P U I P P P U U R U R I R I R R R Y I E Y E W R Y R I U R I U U R I I I I U I I I U R U R I I I A R A R R R R R R R R P R U I U I U U I U U R U U I P I P U A U I P P U P U P U P U U R R T U U U U R L I L R R L R P P P R A A F P P R R Y W Q Q ! ~ Q Q W W W E W W W R ! T ! W R W W R W R ! ~ X.O.O.{ { E T M M m v c c k 3 3 q t u u u u u d S u S g B u S u d S u S B B S S G H G ",
"f i y s f f d B g g f g g g h f g g d s a a p r c v m F R ) ` #.#.' ` ! U U W ^ ^ ^ U ^ ^ U W W L T R L L K L P P P P P R R F P P P J P P P T T P P K R R K P P U P U U U P P A M A A Z T M K P P P F A R A A F A F P R Y R I R R P R R R R P R U P R P P P P P A P P J J A A A A A A A A P A F A P P I L P P A A P P P P P P P P A M P M A A M K A A P M M M F P P P P U R P U P P P U L T T T M K K A A P A A F R R R R R Q Q ^ Q W R R E E W W R W W ! W ! W W W R R ! F ! ! ! O.{ F E R F M M m v n p 6 6 3 e 0 u u u u u S g u S g S d B d d g d B B S S D G S G ",
"w i t y y d B d d g f g g f g g N f f F f p p r c v M A R ) #.#.<.#.` ( L U L W U ^ U ^ ^ W W U W W R L P P P K P A P A A P R P P P U P I U R T P R R R R P P P P U U P U J Z Z m Z m m n M b M Z Z Z Z A A A A A A A P I P U P P R R K T K R R R P P M A A A M M A M M b A Z m V Z Z Z b b A M A A M A A A Z Z A A Z P J P M M M M M b m b M b b M b M M M m M b A A A K M K M J P P J M M M M M M P M A A A A A F F F R E E ! ! ! W Q E Y R R R R R R W W R ! W W W W ! F F R F F { F T T M M M n n n c 8 6 3 e t u y d u u y u g g S B B d d u g B B B S D D G G G ",
"s y y y f f g d f f g f g f g g g d f i f p i r p v b F E ~ O.#.<.#.` ! L W U W ^ U ^ ^ ^ W W W U ^ L L U K U P P U K R P P R A P P J P P P T K P R P P M K K P P K J P P M Z m b m m b b b b b V Z m m V Z M A A b M P P R P R K R R R P R U K P R P P A M M M M M M M b Z b m b m Z m M Z b M m m Z b b Z M m Z m Z A Z J M A M M M A Z m A M m M M M m m b b m b m Z M m b M M M m M M M M M M M m b b A Z A A F R R E E ! ! Q Q W E Y I I R R W W W W W W W W W R W F ! F ! ! F F F F M M M M n n n 8 r 6 3 t t u d u u u u u g d B d B B u u u B d B S S D S G G ",
"y y s s f f g g g g f g g g g d N f f a a i p r c v M R ! ~ O.#.<.#.` ~ U L W U ^ ^ ^ ^ ! ^ ^ W ^ U U R R U R P R P P R R T R P P P P A P J F T P J M K K M M J M J J M P b m m v m v b c b c F b v V b b m b M b A A A A A P R R P R K R U R L P K K F M P M M M b M M M b m b m b b b m b b v b b b Z m b Z m m m M Z Z A M A A J A P A P P P F F M M b m b p b m v b v v m m v m m c m m v v m c m b m Z Z A A F R R R R R ! Q W W W E W E W R E R W T W W R R R R R ! F ! F F F F F F F T T m m M z c 8 6 3 e t 0 y S u y S g g g S S d d B B d B B d S B S S S S ",
"y y u d u g g g g g g B d g d f f f i f a p r r p v F R ! ~ #.#.=.#.` ! R T ^ W ^ W ^ ^ Q ^ Q ^ ^ U Q Y W Y R U R U R T U R K T T b T T b T T M T T T T T n n n m m M n M b b n b c n c b c b c v b v v v b b V M A A A P R P R P R U U R R T R T T T T T M F M M M M M M b n m v m v v v v v v v b v v b v m m v m m m M J M K P K P R R R R R R F F M b n c F v v c c c c c c c v k v c c c c v c c v v m b A A I I R R W W W W ^ Q Y Q Y W U ! R F ! R R R R R T R T R T ! T R F T F F M M M m m n c k 8 r 5 e t u y u d d f g g g g S g B g d S d F S S d F S S G ",
"d u d d g u g g g S S g g g g g f s a i i q t r p v F F ! ~ O.$.=.#.` ! W R W ^ ^ ! ^ ^ / / ^ ! Q Q Y Q W W W U R R L ^ R U R P T T n T b n b M c n n n n T n T n m n b b n n b n b b c p b c p v v a v v v b Z M M A P A R F P U U R I R U U R T T T T T T M M J M m M M M M b M v v v v v v v v c v v c v v v x m m m m M K K U P R W W W W E R R T F F b c c l t r p p p r r t r r r r 8 8 8 r k r l c b Z M A I R W W W W ! W Q Y Q Q W Q Y R ! ! R ! ! R R R T R T T R T R F R F F T F F M m m m c k k 6 6 t t u d f f d f g d h h B B g g d d d d d S d h d h h ",
"y d d u g g g S g S g g g g d d f a f t a t q r p b F F ! ~ X.#.<.#.` ! ^ R W ^ ^ ^ ( ( ( ( ! Q ^ Y Q Y E E Q Q W R W R R U R K T n T c b b n n c n n n n n n n n n c n n c n n c c c c c c p b p v c v v v b v b m A b M K A P P P U U L U L L T K T F M F F M M M m m b n v v v v v n c c v p p c l l c c c c l m v v m m M K L T U R W W R R R T F M b n c p p p a r r r r r r r r r r r 6 r r k r r l v b A P I U R W W W Q Q Q Q Q Q Y Q W ! R R ! F ! R R P M R T R T R T R M F F M F M M M m m c k k 6 r e t u d u d B d g g g h g g g g d S F d d d F d h h d ",
"d u d u d u g g g g S g g g g f s f s y a r p 6 p b F F F ` ` #.#.#.` ! L W W ^ ~ ( ( ) ( / ( ~ / Q Q Y Q Q W U W R R W R R R K T T c T n n n c n c n n n n 8 n z z c c n c c c c c c p c p c p c p l c l l c v m m m m b M m M M M m M M J M M M n b M n n b v n n n n c n n c c c c c c p p p p l c k c k c c l l x l c m m m m M M K T K T T F F M m b c c c p p r p r k k k k r c k p 8 6 6 6 r r r k v m M A P P R Y W W W Q ^ Q Q ^ Q Q Q E ! ! F ! R R R R K T R T W T R T F R T T M T M m m v c k r 6 6 t t u y d B d B h g g d B g g g h d d d d h g g h d h ",
"u d d f u d g g d S g g g g d d d u s t i t p r c m M R E { X.#.#.#.` / R W ^ ^ ( _ ( ( ( / ^ ) ^ Q Y Q W W U W W W W T L U K K T c n n n n 8 8 p p 8 n c 8 n c 8 c p n p c c c c 8 c c p k r k r c t c k k k c c n l c n v m v v m n v m v v n n n c c n c c c p c c c k c p c c 8 p p 8 p p 8 r k c k p c c c k k k k c c l n n m m m n M m m v v b c c c p p p r 8 p p p k k c c k c r r r 6 6 r 6 r p v m M A R A R E W E E Q ^ Q Q Q ~ ! ! ! ! W R R ! T R R F R T R T R F T R F M T M T M M m n c r 8 6 e r a f f d g g h S S d h h h F g d d d g g g g g g g h ",
"f d d f d d u d f g g g g g d d f s u f t a r r c v M R ! ) X.#.#.` _ ! W W W ^ ( ( / ( ( / / ^ Q / ^ Q ^ W W W R R W W R T R M T n c c 8 p 8 6 8 8 8 8 8 8 8 8 c 8 c p p p 8 8 8 p 6 8 8 k k k r k k k k k k k k k k k k c k k k c k k c 8 c p k k 8 p r p p 6 8 8 p 8 8 8 p 8 p 8 6 p r 8 r 8 k r r k c 6 6 c k k k k k k k k k k c c c z c c c c p p p p p p p p c r c k l l c c n c c k r 6 3 r r k c c b M A A R R E W E ~ Q / ~ ^ ~ ~ Q E E E R ! ! T R R R T R R R R R R F R R F T F T M m v n p c 6 3 6 q i i f f g h S S d d S d d d g h d g g f f f g h N g ",
"f f f d u d u d d g S g B d B y f f u f a t p r c m A R E ) ` #.#.` / ( U ^ ^ ( ) ) ( _ _ ( ^ / / ^ Q Y W U W W W ^ R T T R T M T p n c p 6 6 6 6 8 8 8 8 6 8 8 8 8 p 8 8 p 8 8 p 8 p 8 6 6 8 r e k r k j k e k k r e k k k k r r 8 p 6 6 6 6 6 6 r 6 r 6 r 6 6 r r 6 6 6 8 6 6 6 6 6 r 6 r 6 6 r 6 k r 6 c 6 6 6 6 6 k r k 6 k 6 8 8 p 6 6 c p 8 6 p 6 6 8 p 8 k p c c c c c l c c n c c c 6 6 6 6 6 r c c m M F I R R E E Q ~ Q Q ~ ~ ! Q ! ! ! R ! R W ! W ! T R R R R R F R R F R F F T F b M v c p p 6 3 e r i f f g g h h F d F d d h g g d F d g f f f N f h f ",
"d s d f d u d f g g g g d B d d s f u f a t r r c m A R ! ! ` ` ` ` _ ^ W W ^ ( ( _ ) ( ( ) / ^ Q ^ W Q W U W W R T R R R R K M T n c c p 8 8 6 6 6 6 6 6 8 6 6 8 8 8 6 8 8 6 8 6 8 8 8 8 8 6 k 7 r 8 7 k 8 8 7 k 6 k j 6 e k j 6 6 6 8 6 6 r 6 r 6 6 6 6 6 p r 6 6 8 r 8 6 6 8 r 8 r 6 r 8 8 r r k r k r 6 8 p 8 k k r k 6 k 6 k 8 8 8 6 8 6 6 8 p 6 p 6 c 6 p 6 c 6 c r c l l l l c k 6 r 6 3 6 6 r 6 c c M M A I I Y E E ~ E ~ Q ~ ^ Q ! E ! E ! R ! ! T W T R R T R F T R F R T F T T M F M M b c p c 6 3 e r a f g h g g h h h d g d d g g d d d s f d f f f f s ",
"s s f d f u d f g g g g g g d d f d u u t t r l l m A R Q Q ~ X.X.) ) ! W ^ ^ _ ^ _ _ / / ( ~ / ! ! W Q W W W W R W R R R P P M m m c c 8 8 k 8 8 8 6 5 8 5 7 5 7 8 5 8 8 8 8 8 8 6 8 5 8 8 8 8 8 8 8 6 8 8 6 8 8 6 k 8 8 8 8 8 8 8 8 8 8 8 p 6 6 r 8 6 k 6 6 6 k 6 8 8 k 8 8 8 8 8 8 6 p 8 6 k k 6 k r p 8 6 k 8 8 8 p 8 8 8 c 8 k 8 k 7 k j k k r k 7 k 6 8 r 6 c 6 p p c 8 c k c k c k r 6 6 6 r 3 r c c m M F R R R E E E E ~ ~ ! ! ~ ! W ! R R ! W T W W W T R T R R T R R R R F T M R F M v v c p p r 3 3 p a N h g h h h g g g f g f g g f f d d u y u u u u f ",
"y f y f d d f f g g h g g g f g d u f s u l r j k m A R Q Q ~ ) ) ) / ! W ^ ^ ^ _ ^ _ ^ _ / / ! ! ! Q W W U U W W W R R U K J M m c n 8 c z k k 8 6 6 6 5 7 5 7 4 7 5 5 5 7 5 5 5 5 8 8 5 8 5 8 8 8 6 7 7 6 8 6 8 8 8 8 8 8 8 8 8 8 8 8 p 8 8 8 8 8 r 8 k 6 8 6 6 8 6 8 8 8 8 8 8 p 8 8 8 8 8 6 8 k 6 k 8 k k 6 p p 8 8 c k 8 8 8 8 8 8 k k k 8 8 6 k k 6 k 8 k 6 6 8 8 8 8 c c k 8 k 8 6 6 6 6 r 6 6 r c c b A A R R F E E E ~ ! Q ! E ! E ! W ! W W W ^ W T W W T R U R R R L R M F F R M M M M c c p 8 r 6 3 t a g C h h h g g g g f f f f f f d s s y u u y y u y ",
"f u d s y d d g g g h h g g d d d d y f t t r l l m J R ! E ~ ~ ~ Q ^ W W U ^ _ _ _ ^ _ / / / / W W W W R W W W W R R R P P M M m c c c c k z k z 8 8 5 5 5 5 4 4 5 4 5 5 5 5 5 5 7 7 7 8 5 8 5 8 7 7 8 6 5 8 8 8 8 8 8 8 8 8 8 8 8 8 8 8 8 p 8 8 8 8 8 8 8 8 c k 8 8 8 8 8 8 8 8 8 8 p 8 p 8 8 8 p k 6 p 8 8 c 8 8 c 8 6 k 8 8 8 8 8 k k k k k k 7 k 7 j 7 7 j 8 6 8 8 8 8 8 6 8 6 8 6 6 6 6 3 3 6 r 6 p c m M A R F R R E ! ! ! Q Q W R E ! W ! W ! W W W W T ^ T R R T R R R T R R T M K M M n b p p 6 r 3 6 p a g C d G N g g f g f f f f f f f s i y y u 0 t t y ",
"y f y f f d g f g g g g g f d d d f u y u u r j l m K R E ! ~ ~ ) ) ^ ! W ^ ^ ^ Y / _ / _ / ~ Q ! W W W W Y W W R W R R R M K M m c k c n n n n k 8 8 7 5 5 4 5 5 4 4 4 4 4 4 4 4 5 5 5 5 8 8 8 8 8 8 8 8 6 8 6 6 5 6 6 8 8 8 8 8 8 8 8 6 8 6 8 8 6 8 8 6 6 6 8 8 k k z z x z 8 8 p 8 8 8 3 8 8 6 6 6 6 6 6 6 6 6 6 6 6 6 8 k 8 8 J z z k k k 8 j 6 5 6 7 6 6 6 6 8 3 3 6 6 8 8 6 6 6 6 6 6 6 6 r 6 6 r p c M M A R R R ! E E ! ! ~ ! ! ! W R ! W W W W W ^ W T T R W T R R R R R F F T F F F M F c p p p 6 3 q t f g D G d F g g g d f f f f f f s i s y u 0 u w w w ",
"u y u d f d g g g g g g g d d g d u d u u t r j c m F F E ~ ~ ~ ) / / ! Y ^ / ^ _ _ _ ^ _ / ~ ~ Q W W W W W W E R W R U R T K M b c k n n n n n n z 6 5 5 5 4 4 4 4 4 4 4 4 4 4 4 4 4 4 5 5 8 k x k k 8 8 8 6 6 5 5 5 5 4 5 5 5 4 6 5 5 6 5 5 5 7 4 7 4 5 5 5 7 k c n m m m x x c 8 6 5 5 5 5 5 5 5 3 5 5 5 5 4 3 3 6 6 e j k x J n n n n x k 8 7 5 5 5 5 1 5 2 1 1 3 4 3 3 4 5 6 6 5 6 5 6 6 7 6 r 6 p p p b F A F F R R E ! ! ~ Q Q Q W Q W W W W W W W W W ^ U W R R R R R T T T F M F n F M c p p p p 6 3 r t f d S h h h d d d f d g f f f f s d y y y y 0 w y w ",
"d d y u d d f d f g g g g g g d d d u y w t r l c M F F E ~ ~ X. ./ / ^ ^ Y ^ / Y _ ^ _ ( / / ^ Q W W W W W W R W R R U P K K M n n c n n F T T n z 8 5 5 5 4 4 4 4 : 4 : : 4 4 1 4 4 4 4 5 8 z n n z k 8 8 6 5 4 4 4 4 4 4 4 4 4 4 4 4 1 1 1 1 , , , , , 2 < 5 k n J J J J m x z 6 5 4 5 2 , , 4 4 4 4 4 4 4 4 4 4 4 4 5 j x n J L J m n x z 7 6 , , , 1 1 : 1 : 1 1 1 1 4 4 3 4 5 5 3 6 6 7 r 8 6 r 6 p c v M A A R R R ! E ! ^ Q Q Q Q ^ W W W W ^ W W ^ W W R R R R R R R R T T F F F F F b b b c p p 6 6 3 t f g S h d F d B d f f d f f f f s y u y y y 0 0 0 0 ",
"y u d d g d B f g g g g g g d g d u u u t t j j c m F ! F ~ ~ X._ / _ ^ U ^ ^ / _ _ _ ^ / ^ / Q ! W W W W W W U W U R K K R T M n n 8 n n J T L J n 8 7 5 5 4 4 4 4 4 4 : : : : : : - 4 4 5 8 n m n n c k 6 6 4 1 : : : 4 4 : 4 1 1 1 : - 1 - - : : : , , : < 5 k m U I P J J m n 8 5 , : : , , 1 1 1 : 1 O , : : , 4 4 5 j z m Z U P J J x z 8 7 , : , : : : : : : - : O : : 1 1 1 1 3 6 6 6 k 8 8 r 6 8 c b M A I R R E E E ~ / Q ^ ^ W W W W W W W W W W W R W W W U R R R T T F F F F F F b b c c c p r 3 p t a d F h h d S B d d u d d g u f y u y 0 y 0 0 0 0 0 ",
"y u y u u d B d f g f g d g g d d u d y u t t j c n F F ~ ! ) ` | _ / ^ ^ U ^ ( Y _ Y _ _ ( ^ ~ ! W W W W W I W R R R R R K K M n b z n J T T L J z 8 5 5 5 4 4 4 - - - : : : : : : 1 : 1 5 8 n M m m n c k 5 5 : : : : - : : : : - 1 - : - 1 - : : : : , : : 5 z J U W I U L M n 8 4 : : : : : - : : 1 : : : : : : 1 5 < j x m U U U P J J z 7 , : : : : o o o . : - - : : : 1 1 1 4 3 5 6 6 k r r 6 r p c b M A I R E E Q Q Q ~ ^ Q Y Q ^ ^ W W W W W T ^ ^ T R I R R W T ^ R T T n F b F T b b c p p r 6 6 3 t a d h h S d d d B d B f f u d f s d y u y y y y y w ",
"S u y S f f g g d g d g h g d d f f f u f t r k c b F T T ! ) ` | ) / ^ W ^ ^ ^ ( / _ ( ) ( ~ ^ Q W W W R R W W U R U R P K R K F n c n M L T L J n 8 7 7 4 4 4 4 : , : - : , - : : : , , 5 k m Z J m m x k 7 4 , : - : : : : : - : : - - : - : : : : , , : < 6 x J Y [ W Y P Z l 8 5 : : , : > 1 : : , : o 1 o > : 1 2 e j l M U Y U K J m x j 4 , - - : : o o . . : : : , : 1 1 1 2 3 5 6 6 8 6 k r r r c b Z A A R R E W W Q Q W ^ Q W Q W W W W W W W W R R R R U R W U R T R K R M b T b b v v c 8 r p 6 q t a g F d S d d d B d u d B f g g f f f s y s i y 0 y ",
"& y y y s f d f d f d d d d S S g g f f a t p r c n M T T ! ~ ) | ) / ( W W ^ ^ / / ( ) ( / / Q Q Q W W R R R R U U I U U P K M n n c F J L W T J n 8 7 4 5 4 4 , , : : , : - - : , : , : 7 k m P J J x x k 7 4 : - : ; - : : : 1 - - : - - - : : : : , : , 1 e x U ~  .~ Y U m x k 4 : : : : > 1 1 1 : 1 1 : 1 : < 2 5 5 k m J Y E U P J J x j 5 , , - : ; : - o : - : ; : : , < 2 2 5 6 6 6 k 8 r 6 r p c v m A A I R E E W Q ! Q Q Q Q W Q W W W W ! T W R L W L W R R R T U L P R M T b b b b v p p 8 6 3 r p i d d S d d d y B g g g d g g g f f g f s s f u u u ",
"d u y d d d f d d d d g d S S g S g g N a t p r p c F T R E ~ ~ | ) ^ ^ U U ^ ( ( ) ) ( / / / ~ Q Q W W R R R R U R U U U R R J F n c n J T W L L n 8 5 4 4 4 - - , - : : : : , - : , : , 7 z x P P J J x z 7 5 : - = : - : : - : - - : - - - - o 2 1 , , < < 7 m U } | } Q P Z x 8 2 : : : < : : 1 o 1 o 2 2 > : 1 1 5 e r m P Y ~ Y P K J z 8 5 : : : : - : : o o O : o : : 1 < 2 2 2 5 6 6 8 r 6 r r c c v V A A I Y E E W Q Q ! W Q Q Q ! ! W W W R W T R ^ R U L U L R R L R R F M b T b n b c p p p 6 6 3 p a g F h d d d d d d d B d B g g g g f f f f f f s u ",
"y y u d s d d d d d d d d S d S h g g f f c r r c c b F R E ~ { | ) ^ ! ^ ^ ^ ( ( ( ( / ( ) ~ ^ Q Q W W R R U R R U I U U R R J K b c n J L ^ U J n 8 5 5 4 4 , , : , - , : : : , : : , , 7 x J Y Y U J m x 8 5 , - = : - : - ; - : - - - - - - : : : 1 < , 5 k Z Y ..o.| E Y J l k 6 : : : : > 1 1 2 O 2 2 o > < < 3 5 5 k m I E } W Y K J n 8 5 4 : - - : - : : o - - > : > < 2 2 2 3 5 6 8 8 6 k r r p c v Z V P I E E W E W W W Q ! Q W Q W ^ W R ! R R R R ^ T T U R R R R K T T K T b T b c c c p r 3 3 6 q a f N d d d d u d f B f B d g g g g g g g f g g g g ",
"u y y d d d d f d d d d g g d S h g g f a t k r p v F F R E ) ~ ~ ) ! ^ ^ ^ ^ ^ ( ( _ ( ( ~ ~ ! Q Q Q U W I U P P I R R U R R L n n c m L U ! W L n 8 7 5 4 , : - , - : : : : : : : : > < k J Y } } Q J m z 8 5 : - - ; - : - : - - - o o . . O o 2 2 2 2 2 5 k J / *.:...[ Y Z x 8 2 : o : : , : O 2 o O , : , : < 2 5 e k M Y }  ./ Y L J z 7 5 : : : : : ; : o : o : o : > > 1 1 2 5 6 6 6 8 c 6 r r k c v V A A A R E E W W W ! W W ! E W ! ! W W W R R R T L L T U R U R R R M T F M M b b c p p p 8 r 6 3 r a f s d d d d d d f B g N g g h g g g g g g g g g h ",
"u y y u u d g f d f f d g h S g g g g N f c r r p v V F R ! ~ { ` ` ~ ! L W ^ ^ ( ( ( / ) / / ~ ~ ^ W W R U R R P U K R R R R P K M n M L R _ ! T n 8 7 5 4 4 4 4 : , : : : : : : : < < 2 l P / @.o./ U J z 8 2 , - - : : : : - - - . . . . . . > o o 2 2 2 5 l U  .>.5.:. .Q J x k 5 : : : : : : > o > , : : : , , 2 5 6 l J Q  ... .Q P m x 7 5 : : : : : ; o > o > o > : : : 1 2 2 5 3 6 6 6 6 r k r l k v V V V R R E W W W ^ ! Q ! ! ! W W W W ! R R R R R T R R L R T K R P T M F M M b n b c c k p 6 3 6 q a f g d d d d u d u d s g h g h g g s s s f g h h d ",
"y u y u d d g f f g d g g h S S g g g f f t r 6 c c F F F ~ ~ ~ ` ! ( W W ^ ^ ^ ( ( ( / ) ( ( ~ ~ Q Q Q W U I P P P U R U W ^ K K m n M L ! _ ^ T J 8 7 7 4 4 : 4 : : : : : : ; : < < > e x Y ..:.*. .Q M z 8 5 , - - ; : - : - - - - . . . . . o , 1 2 2 2 1 l Q *.9.9.>...Q P m 7 5 : : o ; : : : : : : : : : : , 2 2 6 l P / ..*. ./ U m x 8 5 : : : o ; : : : : : > : : : 2 1 1 4 3 5 6 6 k k r r r t v v b Z A F R R W W Q ! ! Q W ! E W ! ! R W R W W R R R R R R K R T P M M T M b n b b p b p p p 6 6 e r a f g d d d s d u d d f g g h h h g f s s d h F h F ",
"u y u y u g g f g f f g g g g S g g B f f p p 6 c b F F ~ F ~ X.` ) ! ^ T ^ ^ ( ( ( ( / / / ~ ~ Q ^ Q W U I U U R P K R T R L L K m c K U ^ _ _ ^ J z 7 4 4 4 4 : : 4 : : : : ; : : < > e Z [ :.y.,...~ J k 6 5 : - - : - : - - - - . . . . O . o O : 2 2 2 3 v / *.9.g.5.@.} J x k 2 : ; : : ; : : : : : : , : : , 2 2 5 x I | *.>.@.} Y J l 8 5 : - : : - o : : > > : > > o o 1 4 4 4 5 6 8 6 r k r r t l l b V A A R R W W ! ^ ! ! ! W ! W W ! ! W ! W W W I R K K R R M T A T M M M b F b c b c c c c 6 6 e r i s d d d s g d d u y s d g h h g s s y s g S S G G ",
"y y u u u d d B y S y d d S g S h g g f N t k k k v M R R E ~ ) ` ~ ! ! W W ^ ^ ^ ( ( ( / ~ / ( ~ ^ Q W W I I U P R K R R R R U J m m M U ^ ' _ W J k 6 e 2 1 1 , 1 : : : : : - : , , 2 7 J } :.y.,.@.Q J l 7 2 , - ; - - : = - : ; X X X o o o o o : , > 2 5 x [ *.u.g.9.*./ J x k < : : : - : ; = : : : : : : : , , 5 5 x U | :.,.*.} U m x k 5 : : - : : = : : 1 : : : 2 o 2 O 1 5 5 5 6 6 8 r r 6 r p c v b b A R R E E W ! ! ! Q Q Q Q Q ! ! W W ! W W R R R T R L K R P T F b T b T b b b c c c p p 8 6 6 6 p s d d d s d u d d y u S S S g g u d y f g g d G F ",
"u u y u d g d d u u d S B d d g g g g g f t r r k m M T R Q ! ) ) ! ! ! T W W ^ ^ ( ( ( / ~ ~ ~ ~ Q Q W W R P R A P P R L T U P M m v P W _ &._ ^ L z 6 5 5 1 : : : : - - : : : : , 4 5 e J [ :.y.,.@.[ J l 7 5 : ; ; - : - - : : ; o X X X X o O > 1 O 2 > 5 m / :.u.u.5.*./ J x k 5 : - : : - : ; : = , = : : : , , 5 5 m Y  .>.5.:.| Y J x j 5 : : : : - : : : o 1 : : o > o < 1 2 5 6 6 8 6 k r p q r p v v Z A A R Q R Q W ! Q Q ^ Q ^ ! W ! W W W W W W W R U R R R U R T F T T T b b b b b c c c p 6 6 3 3 p i * d d d s d d d d S u u S g g S u y d g g F S S ",
"u y u d u B g u S u y y y d d g g g g g N p r 6 c c M R R ! ! ) ~ ! ! W W W W ^ ( ( ( ( ~ ~ ~ ~ ~ ~ Q W Y I I P P P R A P R P J M M v J W _ +._ ^ K x 7 6 2 2 : : : : : - : : - : , , 4 e J } :.y.,.@.[ J k j 5 , - - - - : - - ; : > X o X X o , : > > 2 > 5 x / :.s.g.r.*.} J x j 5 : = : = ; : = : - = : - = : : , 5 j x W ..,.9.:. .U J x 8 5 : : : , = : : 1 1 > : > > o o 1 2 5 5 4 6 6 6 6 6 r r r c a b b A I R E E Q Q Q Q Q Q ~ ^ Q ! Q ! ! W W W Y R R R R R R R W R F T T b T b b b b n c p p 6 3 3 3 * p * s s s d d g d u u S u u S d d u d d g g d d d ",
"d u u u d u d d S y S y u d d f g g g g f a t k k m M T R E E ! ! ! ! ! W W W ^ ! / ~ ~ ~ ~ ~ ~ / ~ Q W W I P P R A A M R K P P J b v P R _ &.] ^ L n 7 5 5 2 > : , : : , - : : : , , 4 j J } :.y.r.@.[ P l j 5 : - - : - : : - ; ; o > X X X : : 1 2 > 2 2 < m } >.s.g.r.*.} J x k < : : : = ; : = - - = : : : ; , , 5 j x E @.5.y.:. .W J x 8 < , : : : : = , o 1 o > o o o 2 2 1 5 3 6 6 8 8 6 3 r 6 p p c b m A I E E Q Q Q Q ^ ^ Q Q ^ W Q W ! ! Q W W W R W R W R R W R R T T T T T b b b b b c 8 p 6 p 3 p * * F s s s s d d d S S u S d f B d d g d g d d S d ",
"u d u d u d d d y y y y s y d f f f g g f t t 6 k m b R ! R ! ! ! ! R R W T ! ! ~ ~ ^ ~ Q ~ ~ ~ ~ Q Q Y R I U R A A I A P A P A M M m K ! _ +.' ^ L z 8 7 4 4 : < : : : o ; : : : , < 5 j J } *.r.,.@.Q J z 7 5 : : - - : - - , : : : ; ; ; o o o o 2 2 < 1 5 x Q :.a.s.5.@.} J x z < : : : = = = ; - = : - - : : , < < j x Y ..>.5.*. .W m x 8 5 : 1 : = : : : : > : o > o o o : 1 2 5 5 r 5 8 6 3 3 6 p p v v Z A I R E Q Q Q Q Q ^ Q ^ Q ^ Q ! ! W W Q Q E E W R W W E W W R T T F F F b b b c c c c p 6 3 6 q t u s s s d d d d B d g g g g B f g g d g B d S h d ",
"y u y u y y u d y S d u s y y d d f f g f p r 6 c m M R F ! E E ! W E W R W W ! ( ! Q ^ Q Q Q Q Q Q E W W I P P P A A P P P P A M M b K W _ ] ' ^ J z 7 7 4 1 , > : : : : ; : : : , , 2 e x Q @.5.:...W J l 7 5 , - ; - - - - : : , : : ; o o : > > o 2 < 2 < l E *.q.u.5.@.} J x 7 7 : = : ; : : = - : - - : : ; : > 5 6 x U } *.:.@.} Y J x 7 5 4 - - : : - : o > : > o 2 o > 1 2 5 5 5 6 6 8 6 6 p r r p v b Z A I R Q E Q Q Q Q Q ! ~ Q Q Q ! Q ~ Q ! ~ E ! W W W R E R W R ! F T F F * b b b c c 8 8 6 6 6 q t t u s d d y d d u d f f g g d B g d d g d B d d h ",
"d u u u u S u d d u u d s s s s s s f f a t r r 8 m M R R R ! R ! W W W T W T ! ! Q ! Q ~ Q Q Q Q W Q Y R I R P A R F P A P P A M m m T W ( ' _ ^ L z 7 7 4 4 : o : : o : ; : - : , < 2 5 m Y ..:.@.| W M x k 2 : ; : - : - : : : : : : : o o o o > 2 2 < < , x Y @.5.9.>.+.Q K x 8 < : : : = : - : - - - : - : , , , < 5 l Z W +.@.| ~ I J z k 5 : : : - : - - o 9 > o > o o 2 2 1 2 5 5 6 6 6 6 6 6 r r p p b V A I W Y Q Y ^ ^ Q ~ Q ! ~ ^ Q Q Q Q ~ E ~ E E ! E R Q F ! R W R R F F F F F F b b p p p 6 3 6 q a u u u u y u d u d d f g g g g g g g S S d d g g g ",
"u u y u u u y u y d u y s s s s y s s f t t r r k m F F E ! E R R W T W T W W W ! ! W ! Q W R Q W W W I R R P R F M R M P P P P K M m M W ( ' _ L K z 7 7 4 , , : : : : : - - : : : < < 5 v Y } *.o.) I J k 8 5 : ; ; : : : : : , : : : ; o o o > : > > < < < l Y  .>.9.*. .Q K J 8 < : = - : = - - : ; - : : - : : : < < k m U ) | Q W P J x j 7 , : : : - : : o o > > o > o 2 > 1 2 5 2 5 5 6 6 r r r t p v v Z A I Y E Q Q Q Q ^ ^ ! ! / Q Q Q Q Q Q Q ~ ~ ~ Q ! E Q ! ! ! R F F F F F F F * b c p p 6 6 6 3 q t u d f d u d u u f d d f f g g g g d d d B B h h h ",
"u u u u u u y u s f f s s s s i s i i s t t r e c c J R W R R R R R R W W T W W Q W ! W W E W W U W U R R U R P A A A A I P P J M M m T T ( ' ( ^ J 8 7 7 , , - : : : : : : : = : : 4 4 5 n J ~ o.| ~ P m x 8 2 : - = : : : - , : : = : = - : : : 2 < 1 1 < < k U | :.4.*. .Y J x 7 5 - : : = ; . . : . ; ; - : : : > > > j x P Q / Q U P m x k 4 : : : - : : : > o > > o > > o , , < < 2 6 5 5 6 6 r r r c v b V A I E Q Q Y Q Q Q Q ~ ! ! / ! Q Q Q Q ~ ~ ! ! ~ E ! E E E F E ! F F F F F F F b c c p p r 6 3 r a u f f u f y f u f d d d g g g g h g g g g B g C B ",
"y u d u u u y d s g g s s s s y s s s a t t r r k m M R E E R R R R R T R W W W W ! W ! R Q R W W U W R I I I P P I A I A P P A K M m K T ( ( ( L J z 7 7 , , , : - : - - = : : : : : 4 5 l A Q | } E U M l k 2 , - : : - : - - : : , : : - - ; : : : 1 < 5 < x U  .9.9.*...} P n 8 , : - - ; - . : ; : : : : : : : > > e e m U / / Q Y J J x j 7 : - : : - . : o : > o > o o > , , 5 5 5 5 5 6 6 6 6 r r c v v V A I I E E Q Q Q ^ Q ! ! ( ! ! Q Q ~ / ~ ~ E ~ ! ! ! E ! ! E E F F F F F F F F b b p p p r 6 3 r t u f f y s u y s f f f g g g g g g g h g B g B B B ",
"d d d d d y y d s s d g f s i y t s s f t t r r k m M R R E R R R T T R T R W W W W Q E Q R Q R W W U U I R P P A A A I I A P A M M M M L T ( ( L n 8 7 7 , 4 - : : : : : - = : : , , , 5 k m U [ Q Y P m x 8 5 : - = = , = , - : : : : : o - : : : , , < < < x Y *.9.y.>. .Q J m 8 7 : : ; - - o ; : o ; : - - ; : < > < j x U / | } Y U m x j 4 : : : : - : : : : : : o > o : : 1 2 5 2 6 6 6 6 3 6 r r v v b b A P R E W Y Q Q Q ^ Q Q ! W ! Q ^ Q ~ ~ Q Q ~ ! ! E ~ E ~ ! F F F F F F F F * b c b p p 6 6 r q a a f f y s y s f f g f g g g h h g C h g C B g B B ",
"d d d u d y d u s g g d g s f u u s s f a t r j c m M R E R R R F R R R R W R W R ! R ! R W W R W W W I R I R A I A A A A P I A M M m K L ^ W W L n z 7 , , 4 , : : : : = : : : : , , , 5 k x P E Y U P m x 8 5 , : , - - = - - : : = : . . . : : 1 : , < < < l Y *.9.u.>.@.[ J x 7 , : - - ; - . : ; : : : : ; ; : < < < k m Y }  .} Y K m k j 7 - : : - : . : : : : : : : o > < 1 < 5 5 5 6 3 6 3 r 6 r c v b A M P I Y W Q E Q Q ^ ! ! ^ ^ ! ! ! Q Q ~ ~ Q Q ~ ~ ~ E ! ~ ! E ! F F F F F F F b b c p p 6 r 3 r i i s s s s y y s f g B B B S h h g C C C g B B g N ",
"B d B d d d y d g d g g f f u f y f f u t t r r c m M R E R R R F R R R R R R ! ! E ! R R R W Q W W U W P P P A A A I A A P P A M M m K K R T L J n 8 7 5 4 , : : - : : : : - = : : : , < j x J U P P J m n k 5 : = ; - - - - - : : : : - . o o : 1 , 1 , 5 , x Y *.y.u.,.@./ J x 8 5 - : : - - ; : : : o o o : ; : , 1 < j Z Y }  .} Y P m z j 2 : : : : : - : : : 1 : 2 o o : < 3 2 2 5 5 5 5 6 3 6 6 p c v b M A A R R E Q Q Q Q ~ Q Q ^ ! ! ! ^ ~ ! Q / Q Q ~ E ! ~ ~ ~ E E F F F F F F T b b c c c p 6 6 6 r t a s s w s y s s g N B g C h C h C C h h h g N h g ",
"d d d d d u u d d d g g f f f g f f f f f t l r c m K T E E R R R R K R R R R R R W ! R Q R W R W W R R R I I I A I Z I P A P A M M M K J K L L n z 8 8 7 4 , - , : : - - : : : : : , , 7 7 x J Y U J Z m c 8 2 , = - : - : - 4 : : - - : . . 1 : 1 : 1 , , , z Y @.,.y.:. .Y J n 8 4 : - - - - ; : : o 2 1 o o ; : : 1 5 j m Y | ..} Y P m x j 2 : : . : . - : o 1 o : o o 1 : : 1 2 5 2 5 5 e 6 6 6 r r c m b A A P U I W E E ~ Q W ~ ! ! ! ! ! Q Q ^ ~ ~ ~ ~ ~ { ! ~ ~ E ! E ! F F F F F F b b b b p p p 8 p r t i s s s s s s f g g B C h C h C C C h S h h g g g ",
"d d d d d d d u f g d g g g f g f g g f f p r r k c F R E R R F R F R T R R R W W W R W Y R E W R R W U I U U P P A P Z A P P A M M M m m J J J J z 8 8 4 4 , , : : : : : - - : : : , , 2 7 x J U U P J m n 8 5 : - - : - : : - : : - : : o . . ; : : , , , 2 x U  .>.,.*.| Y J x 8 5 : - ; : - : o o 2 o o o : o : , , 5 j x U }  ./ Y J m n 8 5 : : : : : o : o o : : o 1 : > , < 5 2 5 5 5 5 5 6 e 3 p c v b A A P I I I W W W ~ Q Q Q W W W W Q ^ Q ! ~ ~ ~ ! { ~ ~ ~ ! ! E ! F F F F b b T b n c p p 8 6 r t i i s s s s y f f g h C h h h S S C C S S h h h g h ",
"B u d d u u u d d f d g d g g g g g B g f a p 6 c m F W E E R R R R R R R R R Q R Q R Q W W R W R W R R R R I P P P A P P A P Z T M M M m J J n n 8 8 8 7 4 , : : - : : : - : : : : , , < k x J U U J J m x 7 5 , - ; = - - - : - : : : o o . : ; , : : : , 2 k J } *.*.@.} U M x 8 4 : : : - : o : o o o > o : o o 1 : < j m Y /  .} Y L m c 6 4 : . : . o o . o o o o o o o : , 2 < 5 5 2 5 5 5 3 6 r r c m b A A P I W W W Q ~ E Q W Q Q Q Q Q Q Q Q ~ ~ ~ ~ ~ ~ ~ ~ ~ ! ! E F F F F T F T T b b c p p 6 p 6 r a i s s s s s f g h h C C S S S S S F F C C h g h g ",
"d B d d f f f f f f d f g g g S S h h F d f p e c m F R E R R E F R R R R R W W W W E Y E E R W W R R W U U I U K P K A P A P P M M M m n n n z z 8 8 6 5 4 4 : : 1 - : : : - : : : : 1 2 e x J U I L J J z j 5 : - - ; - : - : : : : : - - - - : : : 1 1 1 4 8 J Y  .@.| / U Z n k , : : - : - : : : : 1 - : o o 1 O 4 1 6 m U /  .Y Y J J x 7 4 : - ; : o o o o o o o 1 O - 1 1 2 2 3 2 3 3 2 6 3 3 r r c m M Z A P P Y E W Q Q ~ E ~ E E E Q Q ! Q ~ ~ ~ ~ ) ~ { ) ~ ! ! E ! R R R T F F F M v v c p p 8 8 6 p i a s s s s g g g h S S S S S S h h G H S S S d S S ",
"d d g d d u f f f s d g B d g g d F d g f a p 6 c c K R ! E E F F E F R R R R W W W W W W Y R E W R W I W Y U P P K M P P A P M K M M M m n n z z 8 8 8 5 4 4 : : : : - : - : - : : O 1 > j m J Y U P J J x j 5 , = - ; - : : - : 1 : - - - - - - : - : : : 4 8 Z Y  ...} Q U M x j 2 : : ; - : - : : : : : : : - O 1 4 4 8 M I |  . .Y K J l 7 4 : - : o o o o o o . o . o : - 2 1 2 1 5 2 5 5 5 6 6 6 r l x M A P P I I E E W Q E ~ E Q Q Q Q Q Q W Q ~ ~ ~ ~ ~ ) ~ ) ~ ! ! E W R R F T M M M M n c p p p p 6 r i i s s s f s f g h F h G S F S G h h S F S d d h d ",
"u S d g d d u u f d d d d g g g g N F f f a p 6 c m F R E E E R F R R R R R R W W W Y W W W W R W R W R I U I U P A R M P P P Z K M M n m n z 8 8 z 6 5 5 4 1 : - : : : : - : : : : : 4 2 k x U / Y U J J x j 7 : = ; - - : ; - 1 - - - - - 1 - : - : 1 1 1 1 8 Z Y }  .} Y K J n 8 5 : - ; - ; o o o : O - 1 o - 1 1 4 5 k J Q  .*. .Q Y x x j 4 : : - : o o : o - - - 1 o 1 - : 1 2 2 5 5 5 5 5 5 3 r k c b m P Z P I R R W W Q Q Q Q Q Q Q W W W Q Q W ~ ~ / ~ ! ) ! ~ Q E E R R R F T K M M F c c p p 8 6 r p a i g f g s g g g g C h h h h S S h F S h h h S h d ",
"S u S u u B d g d f y d g g g g g g d N f p p 3 c m K R E ! F E E F R R I E R W W W E R Y R W E W I E U W I U P P P M R A P A P M M M M n n z z 8 8 8 6 5 4 4 : 1 : : - - : - : : : : 1 < k Z Y } / Y U J x k < , = - ; : - - : - - 1 1 - - - - - : : : 1 1 1 c m U }  .} Y Y J x 8 4 : : - : - : 1 o : o 1 o : - 4 4 2 e k U } *.:.../ K J x j 4 : ; : o o o o O - - : . o . 1 1 1 5 5 5 1 2 e 3 e r e r c m A Z P P P I E E R Q Q Q Q Q Q Q Q Q R W Q W ~ Q ~ ! ) ! ) ! Q ! ! R R R R A A A M c c c c p 8 p r p a f N f s f s s N g g h h h h S S d S h S h d d h h ",
"u S u u S y u u u d y d d g g g g f f f f p r r r m M R Q R R F F R R R R E E R E E R E E R E W E W Y R R I I P P M A P A A A A K M J m n c 8 k 8 8 8 8 5 5 4 : 1 - - : : - - : : 1 1 1 4 c J Q | } Y U J J k 7 1 . . : - : : . : 1 - - - - . : : : 1 : 1 1 1 8 x Y /  .[ Y U Z x 8 5 : : - : ; o : : : 1 o : : : , 2 5 5 x U  .:.>.*.| W J n 8 5 : ; - o o o o - - o o o - - 1 1 1 2 5 5 5 6 5 5 3 6 r r v m b A A A I R R E Y E Q Q Q Q ! Q W Q R Q ! Q W Q ^ ! ~ ! / ! ( ! W W R R P T M M M c c c p 8 8 p 8 l f f g g g f s f g g g B g g B S h h g h h g h g g d ",
"u y S u g u d g d d u f d f g g g f f f a t r 3 k m P R E E E R R F R R R R R E E E W Q R E Q R U E E I R R P P F P A A A P P M M M m m n n z 8 8 8 8 5 5 4 1 : : : : - - - : - : : 1 1 2 c J Q  .| / U J x j 7 : : . . - - - : - : : - : : - : - : : : : 1 1 6 x K [ } ~ Y U J x 6 4 : : : - - . : : : - O 1 : : < 2 5 e m E  .>.5.*.| W m k 8 4 : : - o : o o - O o o o O - - 2 1 2 3 5 5 5 5 6 5 6 3 r c v Z A A A P P I E E Q Q Q Q Q Q ! W R ! E W Q Q Q Q ~ ! ( Q ~ ! ! W R R T P T M M M b c 8 c 8 p 8 8 r p N g f f f s d f s g g B g B h d h h h d h g g g g ",
"S S u u u u d u u u y f s s g g g f f f t t r r c m K R E E R F F E F F R R E R R W E R E W R R Y E W E R I R P P P A P P P Z P M M m m m c z z k 7 8 8 5 4 : : : : : : 1 - : - - : 1 1 5 c L / *. .| ^ U m l 5 1 : : - . . : . : : : : - - - - : : 1 1 1 1 1 6 m U [ } Q U P Z m k 2 1 : : : - - - : : 1 1 - 1 : 1 2 5 e x W @.5.y.>...W m k 8 5 : - : : : o o - - o : . : 1 1 : 1 2 5 5 5 5 5 6 6 6 6 k c v Z A A P A P R Y E Q Q Q Q ~ Q Q ! ! R W ! W W Q W ! ! Q ^ Q Q W W R T R K M M M m n c p 8 p p 6 p t t a f s f i s s f f f g g g g d g h g d g h g F d h ",
"u u u S u S u u d y s s f g g s f f a i a r r r p c M R E E R R E F R R F R E E W W R Q R R R Q W R Y U R R I P I A P M A M A M M M m m n n z 8 z k 8 8 5 4 4 : : : : : - - - - : 1 1 4 5 m I ) *. . .Y U m z j 1 - - : : : - : - : : : : - - - - : - : : 1 3 3 x P Q } [ Y U J n 6 5 : : : - : ; : : : - : 1 - : 2 2 2 6 m [ @.9.u.>...Q m x 8 4 : : - : : : : : - . : o - - - 1 1 5 5 5 5 5 5 6 3 5 5 r c b Z A A I A P I I W Y E W Q Q Q R Q R Q R W Q ^ W Q ! ! ! ! ! W Q W R R F R P M M m c c 8 p 8 8 6 p r t t y i i s i s u u g u d g g g g d g d h d h h d d ",
"f f g f f f g s u u u y f f g g f a t t t t r 6 l v A R [ F E F F R F R R R R R E Y W E R W R W W E Y R R I R I P P P P P Z J M M m m M n n n z z 7 j 7 5 < , : : : : : : - - : : ; < 2 5 J U  .:.*...~ P M x 6 4 : . : ; - : : : - , - - , - 1 o : : : , 1 < j x P Q } E Y U Z x k 5 : : : : - = : : : : , : : : : 1 5 5 m ~ :.u.s.5.@.Q M x 7 7 = : : : : : : - : - : o ; : : 1 1 5 5 5 5 7 5 5 6 e 6 k c m A A A A I I I I E Q E Q Q Q Q Q W W W W W W W ^ Q ! Q W Q W Q W W U P M T F M m m n k k k j r 7 r r t 0 y 0 y y t u d y d u d u g s g f g g f g g h g h ",
"g g f f f f f s u u y y f d g f f s y t t q p 6 k V A E F E E E R F R F T R R R W R W W R R I E U W E I R R R P P A P J M A P M m M m n n n n n z 7 7 5 < < , , : - : : : : : : : , < 2 7 J Y @.,.:.../ U J k 7 4 : : : - : : - - : - - - - - - : : : o : : < e x Y } } [ W P Z x k 5 > : : : ; : : : : : : : : : 1 1 5 e m [ :.u.g.9.*./ m l j 4 , = = : = , : : - - : : : - : 1 1 2 5 5 6 5 7 6 5 5 6 j l b Z P A A A I P Y E Y Q Y Q Q E W W R E W W W Q W W W W Q W W W W I R P R A T n M n v l e r k 6 k e q q q q 0 y y y y y u u y u d u f s d d f g g g g g g ",
"g g g g g f g f d u u s s g g g f f s t t t r r c b A R [ F E F F R R R R R R R W W E R R R R R R R R R Y R I P I P P A P Z Z M M m n b n n n z z 8 7 7 5 < : : : 1 : : : - : - : , < 5 5 J / *.9.,.*.| Y M l 8 1 : : : : - - : : : : - - - - - ; : : > > > < e Z Y | ..} Q Y J l r 2 : : : ; - = : : : : : : : , , 1 2 5 x ~ :.s.f.9.*.Q m x j 4 - : : : , : : : - : - : o o : 1 4 5 5 5 5 5 6 5 5 e 5 r c m A A A I A A I R W E Q Q Q E W W E E W W Q W W W W W W W U W W R R R R M M n F n n n k k 6 e 8 k e e q t y y y y u u u u d f d f d f f f g g g g h h N N ",
"g h g g g g g f d u d f g d g g g s t t t q r r c m F E E [ E R R F F R M R R R R R R R I R R I I R I P R I I I P P P P P M M A M v M M n n n z z 7 7 7 5 2 < : : : : - : : : : : , < 5 j J ) :.h.9.*. .Y J x 7 1 : : ; : : : - = : : = - - - : : : : : : > < e Z [ *.*...~ Y Z m k 2 > : : : - = : : : : : , : : : < 1 < l [ :.u.g.5.@.[ Z x j 5 4 = , = = : : : : : : : : o o 1 4 4 5 5 7 5 7 5 6 5 e k c m A P A A I P I R R Q E E Q Q Q E W W W W U W W ^ W W W W W W W R R K P T T F F F F c l k 8 r r 6 e e t y 0 t y u u f u d f d f f u g d d d g g g g h h h ",
"C h h h h h g g g g s s g g h g f f f t a t r r c b I R Q E E F R F R F R F R R R R R R U R A I P R I R R I I R I U P A P M M b m v m n n n z z k 8 7 5 5 , , ; : : : : : : : - : 4 2 5 7 P  .>.g.9.>. .Y J l e , : : : ; : - : : : : : o o o : o : : : o 2 9 l U } :.>.@.} Y J x k 5 : : o : . = : : , : , : : ; > > > < x Y :.u.k.r.%.^ M c 8 5 , - - - : - - : ; : - : o o 1 : 1 5 5 5 5 6 5 5 6 e 5 k l M P A I A A A R R E Q ! R ! Q W Q E W W Y W ^ W U W Q W W W U W R L R M T M M F n n m c 8 r k e e r e t u u u u d u f B d f u B u d d g d S d d S g h h h ",
"D S S S S S h h g g g g g g h h f f f i t t p r c m P W Q E E R F R F R F R R R R R R R R P R P I A P I I I R I I I P P A Z Z m m m v n n n z z k k 7 5 5 , 1 : : : : - : : : , : 4 2 5 e U  .9.g.h.,. .Q Z x k , : ; : : : : : : : = : o o o o ; : : < > > > l Y ..5.5.:.| E J l 7 5 ; : : : o : : : = : , : , , ; > > > l [ :.u.f.r.@.Q M n 8 5 - - , : : : : : ; ; : o : o 1 1 1 2 5 5 5 5 5 5 6 6 5 r v m P P P P A A R R E R E Q E Q W E W W Y W W U U ^ W W W W W W I R U R R T M T M F b c c c 8 e k 6 r t t t u d g u S g g f d d d d B g d g d S d g S h h h ",
"S S S h S h F h g g g g g h g h g g s a a r r k l m P E Q E E R F R F R A R R R R E R P R A A I P P I P U I U U I I P A P Z A b M m m n n n n z 8 8 8 6 5 1 1 : - : : - : : : : : , 5 5 j U  .9.g.h.,.&.Q J x 6 , ; : - : : - : - : : - ; . o o o > : > > > > x E @.r.y.>.o.Q Z n k 2 , o o o - : = : : : : : : ; , ; > > x Y :.u.g.r.*.[ Z n 8 5 : : : : : : : - ; : ; o o : o 2 2 1 5 5 6 5 6 6 5 5 e k x m P P P I A I R R R E ! E Q E Q Q E W Q W W W W W W Y Q W R I R U R K T M F M M M b n c 6 8 e r j e e u u u u g S S B g g f g g g g g d S g S S S S F S S ",
"h h h h S d S g N f d s g g g g g f a a i a r r l m P W E E R F R F R F R P I R R R R R I R A P P P P U R U I U I P P P A A M Z v b v n n n n z 8 z 6 5 5 1 1 : , : - - : = : : : 4 4 5 7 U  .9.g.g.,...W J x 6 , = ; : = : : = : : - ; ; . X X o o : : > > > x [ *.u.s.5.@.} J m j 2 : : : : . - : : : : : : : : , > ; > x Y *.u.s.9.@.} m n 8 5 4 - : : ; o : : ; ; : : o o 1 1 1 2 5 5 5 6 6 5 e e 5 k l m P P I A A I A R E R E Q E Q E W Q W W W W L W W W W Y Y W U R R L R M K K M M M n c c 8 p k j e e j u u g g g g g S g B g B S g g S S S S S S S S S S S ",
"h h h h g h h g g g s g g g h g N f f a p c t k c M P Y E E R R F R R F P I R R R R E P F I P P I P P R U U R U I U P A A A A m M v v n n n n c z 8 7 7 4 4 4 = 4 - : - - - : : : 1 2 5 8 U  .9.g.g.,. .Y J J 7 , . o o ; ; : - : - : - - : = ; o > X o > 2 > v } :.s.k.r.%.[ J n k 5 : : - : - : - : : : : : 1 o : : 1 , k Q *.u.g.5.%.Q Z l j < : ; : : o : o : o . : . : . 1 4 5 5 5 5 5 5 8 5 5 6 e k l m P I P I A P I I R E Q E E Q Q W E Q W W W W ^ W W Y W W U R R R T T M M K m M M c c c 6 6 8 p 6 6 p i f g h N h h h h h C C C C C C C D D S S H S S S S ",
"h h h g h g N g d g s s f g g g N N N f a t r r l M P W Q E R R R A A R A R P I R R I U P A P R L R U U R I I R P I R A P A A m M m v n n n n n z 8 7 7 4 4 4 = 4 - : : : : : - : : 2 5 j P  .5.g.9.,...Y J j 7 :     o - : - : - , : - - - = ; o o o > > > > m | 5.k.b.u.>.} Z m 8 4 : : : - : - : : : , : o o o o : : , l Q *.y.g.9.@.Y Z z j < : ; ; o : o : o o o - O . . . : 4 4 4 5 5 5 5 j e 5 6 k v Z P I P A P I P I W E Y Q Q E [ Q Q Q Q W W T W W R W U U W R R P R K T K M J M M m c c k 8 6 r 6 q p a N g h h F h h C C C C C D D D D D G H S S D S S S ",
"g g B h g h h f f f d d s g N g f N f a f t t k k b I W E E R R F P A A P A R P R R R R R A I P P U P I I I U R U P P P P A Z A v v n v n n n n z 8 4 7 7 4 , , - - 4 - : - - : ; , < 5 k J  .,.g.h.*. .Y J z 7 ,   . ; - ; - - - - : : ; ; ; ; X o X > o 2 2 v | 5.z.z.u.>.} P m 6 5 : : - - - ; : ; : o O : o O : : : : z Y *.y.g.9.@./ Z x 7 2 ; ; ; : o o : o o - : - - : 1 4 4 5 6 5 8 5 8 6 6 6 e k v b P P I P A P I I W Q W E Q Q E ~ E W W W W W W W T U U U U R L U M T K M K M M m m v c 8 8 6 6 6 q a a g h d F S d C C D D G G D D D G G G H G S G S S S ",
"h g h g h h h h g f d g g g g g g f f a t p r k v m A E Q E R F F I R A A P R R R R R F A R P P P R P R R R R U R U R P A A A m M v v n n n n n z 8 8 7 4 4 , = , - - - - : - : : , 1 5 7 P | >.g.,.*._ Y J j 7 ,   . - - : : : : : - : : = ; = X > X > 2 > 2 Z | r.z.b.p.:.} P x k 5 : ; : ; : - ; : ; : : o o : : , , , l Y *.y.s.,.@.} m x e 5 : : : o o : : o : - - - - . : 1 4 4 5 5 5 8 4 6 e 5 5 k n M P P P P P P P U W E Y Q Q [ E E Q W W W W W W R ^ W W W R R R R T T M K M J M M m n p 8 r r 6 6 6 t a f g d h d G C D D D F S D D D D D G G G G S S H H ",
"h h h h N d S d g g d d g g h B g f u u t t k k l m P R E F R R R F F R F P R R R R R R R A P R P I P I U R W I R U U P A A A Z F c c n n n n n n 8 8 7 4 , 4 - : : : - : : : : : , 1 5 j J } :.y.9.*.} Y J j < : X o o ; . - : : : : : - - ; ; ; > ; ; > < < x ..r.z.b.p.:.} P x 7 2 ; : - : - : : : o O - : : : : : , , k U *.y.s.9.*.Q J l 8 4 : - - - - : - : : - : : : - : : 1 3 3 5 5 8 8 5 6 6 3 8 m M P P P U P P I R W W W W E Q Q W W W Y E Q Q W W W W W U Y W U U P K K M M J M m n c p 8 6 8 p 6 p p a f g S S S S D D D D G D G D G G G G G G G S S S H ",
"h h h h h F h S g g S d h g C B N u t t t l t r m b P R ! ! R R F R M M P F F R F R R F F R A A I P I R R R R U U R P P P A Z b c b c c b n K n n 8 8 7 4 , 4 4 : : : : - : : : : , 1 5 e J } *.9.,.*.} L J j j , o ; - - . : - : - : : ; - - : ; ; > > > < < Z ..r.z.m.u.>.} Z n k 5 : : - - : - : o : : : : : : , : : , k U *.9.u.>.@.Q M n 8 5 : - O 1 - : : ; - - : - : : 1 1 1 3 5 6 5 4 8 5 5 6 5 6 n m P U P P P U P U W W Y E E E Q E Y E W W W W W W W Y W W W R U L P T M K M M M m m c c p 6 6 6 6 6 r a f g d S d S D D D D G G D D D D G G H G G G H S S ",
"C C h h h h h h g S g h h h h g f u u t t k k k v b F E E F R F T P M R T M F R F R R F R F A R P I I U Y R W I U U U P P A Z Z b c n n n n n n n 8 8 7 4 4 , - : : : - - : - : : , < 5 7 m / *.r.>.*.} J x j 7 ,   ; . - : - : : : : - : ; - ; ; > ; > > < < Z | r.z.z.p.>.} J n k 4 : - : : - : ; : o : : : : : : , : , k U @.9.u.,.../ Z x 8 5 1 . o - - : - : - - : : : : : 1 1 4 5 5 5 5 8 7 6 5 3 k c M K P P P P U U I R W W Y Q Q Y Y Q E Q W W R W W W W W W U U R U P P M M K m J m m c c 8 6 6 p 6 r a a f f d h S S D D D G G D G D G S G G G G F G D S S ",
"h N h h h h h S h S g g h h g g g f u 0 t t t r v b F F ~ E R R R F R P F T F R R R R R P R I I P I I I R W I W U U I P P A Z m b c b n n n n n n 8 8 7 7 4 , - : : : - : : : : : , < < < J Y *.r.>...Y Y J z < , o - . . : : . - : : : - - - : ; ; > > > > < M | 5.z.z.u.:.} M v 8 5 : ; : - ; . : : o : : : : : : : , : k U  .5.y.,...Q J l k 2 : o . - : - : - : - - - : - 1 1 1 1 8 5 8 5 6 5 8 5 6 k n M T P U U P R R R W Q Q Q E Q Q Q Y E Y Q W ! W W ^ W W W W W R U P P P A M M M M v n p 6 p 6 6 6 r r a f g g d h S D D D G D G H D F H G G H G H H H S S ",
"g h h B h D h h h h g h g g g g f u u t t t r r c m A R ! R R F P M R T R M R R R R T R R R A I I I U R R R R R U I U U P Z Z Z v v c c n n n J z z 8 5 4 4 4 4 4 : - : : - : : : 1 1 4 e m Q @.9.>.&.} U x j 7 : ; = ; - : - : : : : - : - - - : : : : : 4 5 m ..,.j.l.y.:.[ M l k 5 : : : - : o : : o : : : : : : : : , 8 U  .2.9.:...W Z x 8 5 : ; ; : - - : , - - : - : : : 1 1 4 6 5 6 3 6 6 5 7 5 8 n M R R P T R R R W W ! ! W Q W W Q Q Y Q W W W W ! W W W ^ W W T ^ L J P M J M M m m c p 8 r r r r r t t a f B B B h S D D H D H D H H H S H H H H H D H H ",
"C N N h B h h S h h S g g g g g f f f y a r r r c b F R ! E R R R R R P P U R R T R R R A R R I P I P I R R I R U W U P P A A m b n c c n n m n z 8 8 7 7 4 , , : : : : : : : - : : : 1 < m [ *.9.>.&.} J J j 7 : = = = : - : : : - : : - - - - : : : , 1 1 5 m } ,.g.k.y.$.Q M l k 4 : : : : - o : ; : : : o : = : - , : 8 P ) :.5.:.| W Z l k 1 : ; ; : : - - : - : ; : - . 1 1 4 4 3 5 5 6 6 6 8 5 5 k n M K R R R F R R W ! Q ! ! W U Q U Q W W Q Q ^ W ! W W W T W ^ T R J P P M M J M m m c p 6 8 k r r r t t a f f g g C D S G D H D H D S S H H H H H H H D S ",
"N h N h h S S h S h h h g g d f f i f i i r r r c b F R E E R R R P R P P I I E T R R P R I R I U I R I R R R U U U I P P A A A v v p v n n J 8 z z 8 7 4 4 , = : 4 : : : : : - : : : 1 < Z ~ *.g.,...} U x x < : . = ; : : : : ; : - : = : = : : - = : 1 4 5 m { 5.s.j.r.*.[ Z m 7 5 : : - : ; ; : : : : : : : ; : : - : 7 J | *.5.%.| Y M l j 2 o ; ; : ; - : - - : - - - . O : 4 5 5 6 6 6 8 8 6 5 7 k n J R R R R R R R ! ! ~ ! Q ^ Q W W U Q W W ^ ! ! ^ ! W ! W W W R U U P J A M Z M m m c c 6 6 6 r k r t u f f g h C F S G D D D H D H H H H H H H H H H H H ",
"N g N h g g S S h h B g g s g s f s s a a i r r c b A R E E E R R R R P P P I R R R R P P I R P R I U R R U R R U I I P P A Z b b v c c z z J J z 8 8 7 7 4 , , : : : : : : - : : : : 1 < m Q *.,.,.*.} J x x < 1 . - ; ; : : : - - : - : = : = : ; ; , 4 4 5 m } 2.s.j.9.*.Q M x j 5 , : : - - - ; : ; : ; - ; ; - : : : 7 P } %.,.%.| E Z x j 2 > ; ; ; : , = : : - : : - - - 4 4 5 5 5 6 6 6 6 6 6 7 k n M R R R F R F R R ! ~ ^ ! W ^ U Q Q Q W Q W W ^ W ! W W W W ^ R R U P P P J M m Z x c p p 6 6 6 r r p t f f f g g S D D D G H D H H H H H H H H H H H D H ",
"g g F d d S d S h h h g g f d d s s f t t t r r k m A R R E R R R R R F A R R A K R R P R R R I P R R U R R R R R I I I P A A b v v p c v n n z z 8 8 7 7 4 , , 4 - 4 - : - : - : : 1 : 5 m [ *.g.>.*._ Y J j 7 1 . o o o o ; ; : - : - : - : : - : : , : 4 5 m } ,.s.g.9.@.[ M n k 2 : : : : ; - : . . = ; - ; - ; : : : 7 P / *.5.@.| U M l k 5 > o o - : : : : - - - - - - : : 4 5 5 5 6 6 8 8 6 7 5 8 m M T R R F R R R R ! Q ^ Q ! W Q W Q W W W Q Q ^ Q W W ! W W ^ W W T P P M A M m M v c 6 6 6 r r r t p a f f g h h h C G G G H S H H H H H H H H H H H H H ",
"g g g d h d S g g g h h g f f d f f s u t t r r c v b R E R E R R R R F F A F R K R P R I A P R R I U R T U U R R I R A A A Z V b c c c c m J x z z 8 7 7 4 , = : : : : : : - : : : : 1 4 m / :.h.,.*.} J J x < : o o o o o X : : : - : : : = = : : : : 4 4 5 n ~ :.u.s.5.$.[ J l j 5 : : : - - - - . . = = - - - : : , : 8 J | :.5.@.| Y M n 8 5 : : : : : : : : : : - - - - : : , 4 5 7 5 8 8 8 7 8 7 k c m T F R P R R ! ! ! Q ^ Q ! ^ W Q Q Q Q Q ^ Q ~ Q ^ ! ^ W W T W W W U P P M M M M n c c 6 p r r k r a a N g h h h C D C D G H H H H H H H H H H H H H H H ",
"d F * d d g g g g g h g g g d f s y f s t t r r c v M R R R E R R R R R F F F A R R P R P I R P P R L R R U U R R R I R P A Z m v c c c c n m n z 8 8 7 7 4 4 , 4 : : : : - : - : : : : 4 m ~ :.g.9.*. .Y x j j 2 o o o o o : : - : - : - : : , , : : , 4 4 7 n [ :.u.s.5.@.~ Z x k 5 : : ; - o . . . . = = - - : - : : , j P } :.,.%.| W Z l k 5 1 : , : : : - , - , - - - = - 4 4 5 5 5 7 8 8 8 6 7 8 c m M F K R R R R E R ! Q Q Q ^ Q ^ W ^ Y Q Q Q Q ^ Q ^ W W ! W W ^ ^ T R U P A M M b n c c p 6 k r r r v f N h h C C D D G G H H G H H H H H H H H H H H H H ",
"d d d h d g g g g h g g g g d d f f u t i t r r p c M R R E R E R R F F A F A E F F M R P R P R R R R P U R R U U R P A A A Z m b c c c c n x x z 8 8 7 4 4 , , : : : : : : - : : : O : 4 m ) :.9.,.*._ Y J x j > o o o > o : o : - : - : : : : - , : , , 4 4 n ~ :.u.p.5.@.[ J m k 2 , : : : - - . . . = - - - - : : : : j J | :.5.*.} W Z v k 5 1 : : : 4 - , : - - - - - - : , 4 4 5 5 7 8 8 7 8 8 6 c c m M R A F F R R R E Q Q W Q Q W ! W ^ Q W Q ~ ^ ^ ^ W Q ! ^ W W ^ W R R P P M M M c c p c p r r r r l f N C C h S D D C G H H H H H H H H H H H H H H H S ",
"g f g g g g g B g h h g g f f u f f u f i t p r c c b T R R F ! R R R R F F M R F K M R P R R P R R U R R U U R R I R A P A A m v v c l l x n n x 8 7 7 5 4 4 : : : : - : : - : : : : : > m } :.u.9.*. .Y J z e : ; : - - : - : : - - : , - : : : : : : , , 4 z [ *.u.s.,.@.} J x k 5 : ; > : X o . . . . . - - - - : : 1 8 J ) :.4.@.| W Z c k 5 : : : - : : : : : : - - . . : : 4 2 5 7 7 8 8 8 8 6 6 k c b F R M R A R P R R Q Q W Q W W ! W Q ! W Q ^ Q ^ ^ Q Q ! ^ W W W W R I U A A A Z b c c r r r r r t a N h D C D D D D H D H D H H H D H H H H S H H S S H ",
"h h N g g g B g C g C B g g f f u f y y t t r r c m M F R F ! R R R F F A A F F T F R A A P A R I P R P P P R P U R P P A A b M v v c l n m n n z 8 8 7 7 4 , , 1 : 1 : - : : . ; : : , < m / :.u.9.*. .Y x k 5 < = : : - : : - : : : : - , - : : : : , , , 7 J [ *.y.s.,...Y Z x j 5 > : X : o ; . -   . - . - - ; : : : 8 J | *.4.*.} E Z l k 5 , : : : : - : : - - : : . . : , 4 5 5 5 7 7 8 8 6 7 r c v M K F R A A A R R W Q Q Q Q Q ! ! W ! W W ! Q ~ Q Q Q ! Q W Q ! W W W R P P A Z Z m c r r r r r r t p N h S D D D D D D H H H H H H H H H D H H S S S S S ",
"N g h N C B g C B h B g g g f f u f s a t t q r c c F F R R R R R F R M T A M T M F R T R M P R U R R U I P I R P R P P P M M b m v l v c n n k z 8 8 7 5 4 , : : : : : : : : : ; : : : < m / *.y.9.*. .I m k 7 , X - = : : : : : - : : : : : : : : : , , 4 7 x Q *.u.u.,...Y J x r 2 > : o : o ; -   - . . - - - - : : : j P ) *.4.@.} E Z v j 5 : 1 : : ; : - - : - : o o o : : 4 4 5 7 7 7 6 k 6 6 r p c m F M R M F A R R E Q R Q W Q W Q ! ! W ^ ! ! ^ / Q ^ ! W ! Q W W W R R I P P Z A m v c k r r t l t f N B F S H G G D H D H H H H H H H D D H S S S S S S ",
"h h h g N C N h h N B B B f f f s t a i i r p r c v F R R R R R R R R F R M F A A T M F F R A R R U I R P R F P R U U P P M M b v v v c l v n x k z 7 7 5 5 4 : 1 : : : : : - : ; : : : , x / *.y.5.*.} U m k 7 ,   - : = : - : : : - - , : : : ; : ; : , 4 4 x } *.y.u.,.*.Y J x j 5 : > o : X - ;   . . . : - ; : : : , 7 P / *.4.*.| Y Z l k 3 2 : : : : o : : - : - ; o o o , 4 4 5 5 7 8 8 6 8 e r c c m P F M F M A F R R E Q E Q Q W W ! ! ! ! ! Q ( ! ^ ! ! ^ Q ! ! W W R R P R A A A v c c r r r e r t a N C G G D F G D H H H H H H H H H D H H S S S d d d ",
"N N h h h h C h h h g g f f f f f u t y w q r 6 c v F T R R E W E R R F F M R T F A R M F P R I I R I I R U R R P L R K M M M b m v v v v x n c z 8 8 7 5 5 , : : : : : : - - - : : : : , l Q @.9.>.@.} U m k 5 :   o ; - : : : , : , - : : , : : : : 1 , 4 7 J } *.r.u.,.*.Y Z x j 5 > 1 o ; o ; - . . . . - ; = : : : : 7 J } :.>.*.} Y M x j 5 > 1 o : : : ; - : : . ; o . : , 1 4 5 5 6 7 8 7 e r 6 k v b M F A F A A R R R W Q W Q W Q ! Q ! W ! ! ^ Q Q Q W W ^ W W W W W R P P A A A Z b c p k r r r r t i g S F G G G G H H H H H H H H H D H S S S S d S d d ",
"h h g h N C C N g N g N g f f f y t w w t t r p c v M T R W E E E R R F K F M F F P F R P F P R P R R R R R R L R R R K P K M M v v c l l n x z k 8 8 7 5 2 , , : : : : : : : ; : : : : , x U ..,.:.../ U x k 7 ,   - ; - - - : - : : : : : : : : : : , 4 4 5 n } *.u.u.,...Y J x k 5 < o : : : : - . . . - - ; = : : : , 6 P } *.,.*.| Y J l k 5 : : : : : : o : . : : - o . : : 1 5 5 6 6 8 e 7 k 6 r k c b A A A A A A A R E Q Q Q Q Q ! Q ~ ! ^ ~ ! ~ ^ ^ Q ! ! ! W W W R I R R K A A Z Z v v t r e e t j t a s S G S G G G H H H H H H H H H H D H S S S S d S d ",
"h C h h C C C h g g g s f f f f u w 0 t q r r r c m M R E E E E ! R R T P A A F R A A R I P R F I R R R R R R R R R R L P M M M m v c c n c z x k 8 8 7 5 2 1 , 1 - 1 - : . : . - : : : , k P  .,.*. ./ P J k 5 1 . . ; - : : : : - 1 : : : : : : : : , , 4 7 n Y *.y.u.r...Y I l j 2 1 1 o : o . : . . . - - - : : : , : j P / :.,.*.} Y m x 7 6 , : : : : : : . : ; . - o . : 1 4 2 5 5 7 7 k r 6 e 3 r v b Z A A A A A A R E Q Q Q ~ Q Q Q Q ^ Q ~ ( / ~ ! Q ^ W W W W W R W R T A A M M Z b v t r k r r r t f N g G G G G G H H H H H H H H D D D D S S S d S d S ",
"N h h N h C C N g g g s f s f f u y q 0 q q r 6 c m M R E E ! ! ! ! R R F A P F A F F A I A I R R R I R R W R T R T R P K K M M b v v c c n z z z k 7 7 5 1 1 : : 1 : : : : - : - - : : , x J } *... .Q U m k 5 1 . - - : - : : : 4 : : : : : : : : : , , , 7 x } *.y.u.,...Y J m r 5 1 1 : o : - - . . = ; ; - - - : : < k J | :.,.*. .Y J x k 5 < : , : : : : o : : . : o . o : 4 2 5 5 6 j j 6 6 8 6 k c m A A A A A F R R Q Q Q Q Q Q ^ Q ~ ^ ) / ~ ~ ( ^ Q Q W W W W R R L K R K A b A b b c k r e e l t l v N h S h S G G H H H H H H H H H D D D S S S S S d d ",
"g C N g h h h N g s s y f s f s w w 0 0 9 9 q k c v M R W R E ~ ! F R T F F M R F R A F P R R A R I R R R R R R K R T R K M M M m b v v l m x z z 8 7 6 5 , , , 1 : : : - : - : o : : : 1 v U  .:.*...Y Y J j 7 : o o - : - : - 1 : , : : : : , - , - , , 4 7 m } *.y.g.,...[ J x x j ; : : o o - . - . . o . - : : : , , k U ..r.r.>...Y Z x k 5 1 : : 1 o : > : : : o ; o . : 1 1 4 3 5 6 e 7 6 6 6 6 r c m M A A A A R P R R Q Q E Q Q Q Q ~ ~ ( ~ / / / Q Q W W W W R W T R T F M M A b Z b l l r r j t r t a f g D D D H H H H H H H H H H S S S S S S S S d d S ",
"g N N g g h g g f u y y y y u y y q 0 9 9 e r e n v M R R ! E ! ! R E F F T T M A F F P F A P R I E I R R R K R R R R M M R M M m v l m n n z x z 8 8 6 5 5 , , 4 : : : : : ; : o o : : , l U  .,.:...Y U J j 7 , X ; ; - : : : : : : : : : : : , : , , 4 5 5 J } ,.u.u.r.*.Y J x t j > 1 : : : . : o o . o - : = : : : , k Y %.y.s.r.o.Q Z x j 5 1 1 1 : : : o : o o o o o o : : 2 4 3 5 6 7 6 6 3 5 3 r c m A I A A A A R R Q ! Q Q Q Q Q ~ Q ~ / ! ~ ! Q ^ ! Q W W W W R R T U K F K M A b b x l r r r e k l v f h S S D S H S H H H H H H S S S S S S S y y S d d ",
"g f g g g h g g y y y y t y y y w 0 0 9 9 e e r c v M R R Q Q Q ! E F R P T F M M T F K P P R I R R R R R R R R T R R F R M F M m b v v m n n x x k 8 6 5 5 , , : : : : : : : : o > : : : x U  .,.:.../ Y J z < , o ; X : : : : : : : : : : : : 4 : : : 4 5 7 m } *.g.g.r.*.[ J x k j ; , : : : : . o . o . . o : : : , > x [ :.s.k.t.%.[ m z k 5 : : : 1 o : : > o : o o o . o : 2 5 5 e 5 5 6 6 5 5 3 r c b A A A A A A R R R Q ! Q Q Q Q ~ ~ Q ~ ^ ~ ~ ! ^ Q Q W W R R R R R R F A M V b m b a l r r r t r t f f h S S H H H H H H H H H H H S S S S S y S S S d d ",
"f g f g f f g f y y # 0 y w y w 0 q 9 @ 9 e 3 r c m K R ! R E ! ! E R R M T M R F R M F F P F R R I I R R M R F R F R R F M M M b m v v x m n n k k 7 8 7 < 5 , 4 1 : : : o : : o o 1 o , l W ..,.,.@.} K x z j , ; ; : ; : - : : : : : , : : , : : : 1 4 5 7 J } ,.g.g.r.*.Y Z x k e < 1 1 : : : : o . o o . . = ; : < > x [ 3.f.m.p.:.} M x j 5 : , : : O : : o o > o o o . : 1 1 2 5 5 5 6 6 5 5 3 3 r c m A P A I A A R R R E W Q E Q Q Q ~ / ~ ! ~ ~ ^ W ! W W W W R R R F A A F A A Z Z b v l l r k r e t a f g S S S S D H H H H H H S S S S S S y S u S d d S ",
"g f g f g f g f s y w w t y y t w 0 $ 9 9 e e r c v F R R ! E ! ! W R K R K F F R M F R P A A R I R R R F K R F F R F K K F K M m m v v n m n x z k 8 5 5 4 4 1 1 4 - , - : : : : o > o < x E @.9.,.*.| U J z e < o X o ; : ; : : ; : : : : : : : : 1 1 < 5 6 J } ,.s.s.r...Y J x k 7 < , : : : . o . o - - - : o : : > > x } r.k.m.p.:.) m c 8 5 : : 1 o O : : o > o o > X ; : O 4 5 3 5 5 e 6 5 5 3 2 8 c b M A P A A A R R R W Q Q Q Q Q Q ~ ~ ~ ! ~ ~ ! ! ! Q W W R W R T R F M A Z A m Z b v l r r r t e t y & S S S D H S S S S H S S S S S d S d S d S d S d d ",
"g g N g N g g g f s y y y u y y t 0 9 @ 9 9 e r c v M T R E R ! E R R R K F T M M F T M A R A P P R I A R F F R R F A F F M F M m m v m v n n c k k 8 7 5 5 1 1 : : , : : : : : : o : > < x } *.y.5.*.| Y x k 7 < X : : : : : : : o : : : : : : - 1 : 1 2 < 5 m } :.y.u.r...Y J x k e < , , : : : . : . - O - - o o : < < m { 3.k.m.p.:.} J l 8 5 1 1 o 1 o : , o o o X o o - : : , 2 5 5 5 5 6 3 5 3 3 6 c M F P F P P A R R R Q W W Q Q ! ~ Q ~ ~ ~ ~ ~ ! Q Q Q W W I R R R R P P A A A Z Z v v l k t k r t l f S S S S S S H S S S S S S S S S S S d d d u S S d d ",
"N g g h h g h g f f f y s y f y w w q @ 9 q q 6 c v F R R ! ! R W R R T T K K F M T A K R A I R I R R R R M T R R A F T M T M M b m v c c m m l k k 8 8 6 5 1 1 : 1 : : : : : 1 > : > : > m [ :.u.9.:.| Y x z 7 < X ; : : ; : : ; : : ; : : : : O - : : 4 5 5 n Y *.r.y.,...Y Z x k j > : : : : : . . - o o o o o > : : < l } r.l.m.f.:.} M c k 5 : o 1 o 2 o o > o o > : ; ; : : 1 4 2 5 5 5 6 6 5 6 4 6 c m M I A R M F R R E W Q W W ! ! ~ ~ ~ ~ ~ ! ~ ! Q Q W W E E R R R F P A A A Z b b b v p r p t t t t f N S S S S S S S S S S S S d d d d u d d S u S d S d ",
"h h h N h h h N g f f f f f s s t w % q $ q 6 p c v M F R R R E ! R R R A F T M F M A P A P P A I A A R R R R M K F F M T M F M b m m v v n n k c 8 8 6 6 4 4 1 1 : : : : : : : : : : : : m [ >.g.y.:. .U J x 5 < : : ; ; > : : : o - : - : ; : o 1 o , , 2 2 n Y ..r.r.*...Y J x k j > < : : : - : . : o o o o o o : : , v { r.z.m.f.4.} m c r 5 1 : o 1 o 2 2 o > > o : ; ; : 4 4 5 5 5 e e 3 5 3 5 6 c c m P P P M F A R R R W Q W ! W ! Q ~ Q Q ~ ~ ~ Q Q ! W W W E R R R R P A A M b A A m v c p r l t j l u N S S H S H S S S S S S S S u d d d d y S d S S d S ",
"h h h h g h h g g g N g f f f a y t 0 % q e r r c c M R R R ! ! W R R F T M T F M F M T K R A P A R A I P R P P A A A A F M M M m b b c c m c c k k 6 6 5 5 1 1 1 : : : : : 1 : : 1 : : < m [ >.u.9.>. .Y J k 5 < : : : : : : ; ; . : : . : : : : : O 1 1 2 5 c Y ..,.,.*.} Y Z x j 6 2 1 : : : : . : -   o o o o o : : 1 z ! 6.k.b.p.:.{ Z x 8 2 : : : : 2 o : : : : : - : - : 1 1 4 3 3 3 3 6 3 3 6 4 8 c b F A P A R F T R R ! ! ! W W ! ! ! ~ ~ ~ Q ~ ! Q Q W Q Q R E R R A A P A A Z b b b v p t r r t l l f N S D D S S S S S d S d d S & & & S y S y S u d S S ",
"N h h N h h h g g B g g g g f f s t w t t q r r p b M R R R R R W R R T F T F M K M F M R M P P R A R I P P R A R A P F F M M M M m c m c m c c k k k 6 6 5 2 1 1 1 : : : 1 - 1 1 - 1 : , m ~ *.y.9.*.| U m z j < : o : : : > : : o o o : - : : : : - 1 1 1 2 l J } *.:...} Y Z x k 6 , 2 1 : : . : : . o o o o O o : : : c ~ 2.f.l.y.:.~ M l j 5 : : , : o o : : : : - : - : : 1 1 5 4 5 2 5 6 5 5 8 4 p c n F R A R M M R R W ! R W ! ! ! ( ! ~ ~ ~ ~ Q ~ Q ! Q Q R E E R R R I A A Z A Z Z b v p p r t k t t N N S D D D S S S S d d d & & & S & y y y y y S S u S ",
"N h h h h h h h C g h g f g f f u t t w q q r r c m M R E R R R ! R T T T F T F M M T K A P A R R F R P R P R P P P A P A M M M M m m b m c c c c k 6 6 6 3 2 2 1 1 O : : : : : 1 : : : , l Y *.9.5.*.| Y J z 5 < : : : : : ; ; : o . : : . - : : : : 1 1 5 5 k J [ ..*...} K J x k 6 2 1 : : : : - . . o o o     o o O : k Q %.y.k.r.%.[ Z x j 5 , ; : o 2 : : - : - : - : - : : 1 4 3 4 6 5 2 3 3 4 5 6 p n F R A M F R T R R R ! W W ! ! ! Q ~ ~ ~ / ~ Q ! Q E R E R F E R F A P A A A A M b v p p r t t l t u N B D D S S S S y S & d & d S & d y y y S y S d S S ",
"g g g g h h h h C C C h g g f s f y y t t q r r c v M A F ! R ! R R R R F T n F F M M F M A F A A R A R A P P P I A R A A F M b b b m v c n c c k k 6 6 5 3 2 3 1 4 : : : : 1 : : : : 1 , x Q *.9.>.*.} U x x 7 < ; : : : : : : : . : : . 1 : : : 1 : 1 1 1 5 k Z Y ....} Y Y J x z r 1 : 1 , : : : . .           o o o : r Y @.y.s.5.@.Q m z j 5 : : : o > o o : - : - - - - : : 1 4 3 4 5 3 5 5 5 3 3 6 c n F M F R T R R R R ! W ! ! ! ! ! / ~ ) ~ ! ! ~ ! Q W Q R E E F F R I A A A V A Z b v p p r k r t f a B D D D S S S S S & S & d & & & y y & y y y u u S S ",
"g F d S h S S S S S S S g g f f f t f t i r r 6 r v M R R E R R R R T F F F n F A F M P R M R F F R M M R P P P P P P A A Z F b b b m v v n n c c k 8 3 3 3 4 3 3 : 1 : : : 1 : : 1 : : 1 n U  .,.:.../ U m z j 4 - : : > : : : : - : - : : : : 1 : 1 1 1 4 5 6 x I } } Y Y Y J x k 7 < , : : : . : o           o o o o ; 8 U | 5.y.:...W M l j 4 : : o > o o o - - : - - : : : 1 1 2 2 2 6 2 3 3 6 6 1 6 c b F F F T F R T R R W ! ! W ! ! ! ! ~ / ~ ~ ^ Q Q Q E R E R E R R A A F A A M M A b v p p r r p p t y S S S S S S S & S & y & & y y y & & & & d y S S y S ",
"d S S S S d g S h B B g g g g f f f t f a a r r c v Z F R R W E ! R R F T F F F M M A M M R T M T R R R P P A R A P P A A Z V b M b b v v n n c k k 6 6 6 3 3 4 2 1 1 : 1 : : : : : 1 : 1 c P ) *.*. ./ K J k 7 4 , : : : : : : : : . : ; : : , : 1 1 1 1 1 4 8 x Y Y [ Y P P Z x k 7 2 1 : : : : . o   o     O o o o o ; 6 M } %.,.%.} U m x 6 5 , o > > : 2 o - : - : - : : : 1 1 2 4 2 5 3 5 4 4 1 6 8 c c F M F M R F R R ! W W W ! ! ! ! ! / ~ ! / / Q ! ! ! W E ! R E R R R A F A F M A b b p p q r t t t u d S S S S S S S S S # y & S & & d y y y d y y S S S ",
"h h h d d h h h g B B g g g g f f f f a t r r r c v M F F R E E ! ! F R F F F F A P A P A P P K F M R K A R P A P P A A A A V Z b b v v v c c k k 6 8 6 6 5 4 3 2 1 1 1 : : - : 1 1 : : - 8 J !  .| / Y Y J x j 4 : : : : : : : : . - ; ; : : : 1 : 1 1 4 1 4 6 l Z Y E Y Y K J x k 7 < , , : : . : . .   o     o o o o o 5 m W o.@. .~ I J v k 5 > : : o : > : . 1 - : : - : : O 1 2 3 2 3 5 5 3 6 6 6 3 c c F F F F F R R R R W ! W ! W ! ! ( ~ ^ ^ ~ ~ Q ~ ! ! E E ! R R R R R A I A F M F m v v r p p r t a u g S S S S S S S y y S S & & y y y y y y y S S S u u ",
"h h h F S h h g g g g g f g g g f f a f a p p r p c M R E R R E R R R F T F F F M M A J P P M R R F M F R M P A A A A M A b b b b b v v c c p k k k 8 8 6 5 3 4 1 1 : : 1 1 1 : : : : 1 4 8 m U / ^ Y U J J x j 4 , : : : : : : - : : ; : ; ; > 1 1 1 1 1 1 1 5 k x U Y Y K P J m k e 2 1 1 : : : o . . o     o o o o o o 5 l A [ } E W I M v k 5 > > : 2 : o : : - : - : : : : 1 1 2 2 5 2 5 6 3 4 3 3 8 p n b F F F T F R R W W R W W W ! ! ~ ! ~ ~ ~ / Q Q Q Q Q ! R Q R R R R R A A T M M M v p p r q a t a f f S d S d S d S y S y S y S y y d d d d S y S g S S ",
"h S F h h d h d g g g d d B d d u f N a p t p 6 r v V F F E F ! W R R R F R F M F K M P P P A P M F R F F K F P A b A A V A A b b b v v c p c 6 8 k k 8 6 5 5 4 2 1 1 1 : 1 1 1 1 : : , : 7 z J W R L L L J n 8 5 : : : : : : - : - : o ; : ; : < < 2 < < , , < k x J P P J P J n z 5 4 4 1 : - - : - - - - - - X o o o o 2 e v P Y I I J A n k 3 1 1 1 1 : 4 : 1 . . o O - , : 1 1 2 3 1 3 5 3 3 6 4 3 6 c v F M F F F F R W R R ! W W ! ! ! ! Q ~ Q ^ Q ^ Q Q ! Q Q R ! W W R R F F F F T M m c c p p t r t t f f g S d S d S d S d d d d y y s s s d g d d d g S B ",
"h S S h h G d S g g f g B d u g d v f a p t p 6 c b A F E F ! ! W R R R T M R T M F P P P P P J R K M R T F M R A A A b A Z V b b b v v c c p c r 8 8 6 6 5 3 2 2 1 1 1 , 1 : 1 1 , 4 , , 7 k m J J M J J J 8 8 5 , , , , : : 1 : 1 : 1 < : : , < < 5 < 2 < < 5 j x m J Z m x Z n z 8 4 2 1 , , : : : - - , - - : : : o o 3 r x J P M M m m l r 3 2 1 1 4 1 4 : o 1 : 1 : , 1 4 2 2 2 2 3 2 5 5 6 6 6 3 6 c v b M F A T R R R R ! R W ! ! ! ! ! ~ Q ~ ~ ~ ^ ~ Q Q ! ! W R W R R R F R F T M K M b c r r r t t u a f f S S d S d S d S d S d S y s d s d d B d d B g B ",
"h h d S g g F d f f g f g u S u f f f a a t r r r b F F F E E E ! R R R P F F M T M R M P K P P T F M R F A A M A A A A b V A b b v v v c p c 6 8 8 8 k 8 5 5 4 5 1 4 4 4 1 4 4 4 4 4 2 2 7 k l M m n J z z 8 8 5 2 4 5 4 4 5 4 4 4 4 4 1 2 5 5 5 5 5 5 5 2 2 6 k k x m m m m x n 8 8 8 5 5 4 4 4 1 : , 1 1 4 : < < : > , 2 e l m m m x c l k 8 5 1 1 1 1 4 4 4 1 4 1 4 1 1 4 4 4 4 5 4 5 5 3 3 3 3 6 6 p p v m b A A R F R R E R ! W ! ! E E ! ! ~ / ! ~ Q ! ~ ! ! ! Q ! W W R R R F R T M T M c c r r r t t t f f g g d S d S S d d S y S y y s d d g g d y S g g g ",
"S F S G F d g d f f f f d g u d f f f a t t r 6 c v F F E E E E ! R R R R P R K K T K T M R M P R M R R P R R A A A Z A A b V b b b b c c p r k k 6 6 8 6 5 6 3 2 5 4 4 1 4 4 4 4 4 4 2 5 7 k k x x z z z z n 8 7 7 7 5 6 7 5 6 5 7 8 8 6 2 5 5 6 5 7 6 6 7 6 6 k k x n x n x x z 8 8 8 6 5 5 4 5 4 4 4 4 4 4 4 1 1 1 5 < < 5 k k x l k k k 7 6 3 2 3 4 4 3 4 4 4 4 4 4 4 4 4 4 5 4 4 4 5 5 6 3 3 6 3 4 6 p v b A A A F R R E E ! E ! R E ! ~ ~ ~ / / ~ ~ / Q ~ Q Q Q R R R ! R R R R F T F T b v c r r r r l t v f g h S S d d d S d d S y S y s g f d d g S y u g g ",
"S S S h h d d d f f f f u u d u u f t u i r q r k v M R ! E E { ! ! R R R P P P K T R M R F K T R M R M R A I F A M A M M V b V b b b v c p 8 6 r 8 6 r 6 5 5 5 5 4 4 4 4 4 , , 5 4 5 5 5 e 7 j 8 k 8 k n 8 c 8 8 8 8 8 8 8 8 8 8 z 8 8 8 8 8 7 j j j k 8 8 6 k 8 k k k k k z k 8 z 8 8 8 8 8 5 5 4 7 4 4 7 4 4 5 4 5 4 5 < 7 7 k 8 k 6 8 5 5 5 5 5 4 3 4 5 4 4 5 4 4 8 4 5 5 4 4 4 4 5 5 6 3 6 6 6 3 3 8 p v b Z A A R R R R Q E E W E E ! ! ! / / ) ! ~ ~ / ! Q Q Q ! Q R ! R R ! F F R F T M v c 6 6 t k t t u g d S d S d S d d S S S d d d g f g g y S & S d d d ",
"S S S h S d d d f g f f g u u B u u f t p t p 6 p v Z R F E ! F E R E R R P P U R K T T F T T F P P P R A R P A P A A A V Z M b b b v v c p p 6 8 r 8 8 8 6 6 6 5 5 3 5 5 4 7 7 5 7 5 7 6 5 7 j 8 8 8 8 8 8 8 8 8 c 8 8 8 8 k 8 8 8 8 8 8 8 8 k j k k j k 8 k 8 k 8 z k k k z 8 z 8 8 8 8 8 8 5 7 7 4 7 4 5 7 5 5 5 7 5 7 7 7 7 7 7 6 7 7 7 6 5 5 3 3 5 8 4 8 8 8 5 8 4 6 5 5 5 5 5 5 5 5 5 6 6 6 3 4 6 6 p c b Z A A A F R R R E ! ! E E ! ! ~ ! ) ~ ~ ~ ) ! ~ Q Q W W W E E R R R ! F R R T M v c 6 6 e t l t v u g g S d S d S d S d d h d h d g g d S S S & d d d ",
"S S S h S d g g s g g u u d d u f N f a i r r r c v A F E E E ! ! E R R I P P T K M T F M R A R R F A R R F A A A A M V V b V b b v b p c 8 6 8 r 6 8 r 6 6 6 7 5 6 5 5 5 5 7 5 7 5 7 5 6 6 6 7 7 k 8 8 8 8 8 8 8 8 8 8 k 8 8 k 8 z 8 c 8 8 8 8 k k j k z k 8 8 c 8 8 z z 8 8 k 8 8 8 8 8 8 7 7 7 4 7 7 5 7 5 5 8 5 5 7 7 7 7 7 8 k 8 8 7 8 8 8 8 8 8 6 8 8 7 8 8 5 8 5 5 8 8 5 5 5 5 5 5 5 6 5 3 3 6 3 p p b c V Z F R R R E E ! W ! E ! ! ! ! ~ ~ ) ) ! ) ! ~ ^ Q ! ! ! W ! E R R R R T R T M n c 6 3 r r t l u N f S S d d S d S d S S d h d d d g d S y S d d d y ",
"G h G S S F g f g f u d d u B f u f f f a t r r r v Z I R E E E E E E R R A R T F R T M R M R A A R R R A R R F A A V A Z Z v b v b v v p p p p 6 p 8 8 8 6 8 6 6 6 6 6 6 5 5 6 7 7 6 7 7 6 7 8 7 7 7 8 8 8 8 8 6 8 8 8 8 8 k 8 8 n 8 8 8 n k k 7 j k k 8 z 8 J z z z z 8 c 8 8 8 8 8 8 8 8 8 7 8 5 7 7 7 5 8 8 7 8 7 7 7 8 7 7 8 8 z 8 8 8 8 c 8 8 8 8 8 8 8 8 8 8 5 8 8 8 8 8 8 6 8 6 3 6 3 3 6 6 3 3 6 p p F b A A F F R R E R ! R ! ! R ! ~ ~ ) ~ ~ ) ! ) ! ~ ^ ! E ! ! ! E W R R F R R T F b p 6 r r t j a a u d S S S S d h h S d h S d h h h h d y S y d d d d ",
"S D D S h h h g S S & y y u u u S u u S v t r r k m Z P Y R E Q ~ E F E F R P A R R M F F A R A R R T R F F R M A A V V Z V b v v a b p p r r k p 6 8 8 p 6 6 6 6 6 6 6 6 6 6 6 6 6 6 8 8 8 6 6 8 7 7 8 8 8 7 8 8 8 8 8 8 8 z 8 z 8 z 8 8 8 z 8 7 8 8 k 8 z 8 8 8 k z 8 8 8 8 8 8 8 8 8 8 8 8 8 8 8 6 5 6 8 8 8 8 8 8 8 8 8 8 8 8 8 8 z 8 z z 8 z z z z 8 z 8 8 k 6 6 7 7 k 7 8 8 8 6 6 6 6 4 2 3 3 3 3 r r c b V V A F F R W E W R W ! ! ! ! ~ ~ ! ~ ! ) ~ ~ ( ) Q / ! ! ! ! R R R E R R R I J m c 6 3 e t l l u f h h h S g S S d S S d S d S d S d d S & S & S S & ",
"G S D D S S S g u S y S y S y S u u u u f l t r k v Z P I E E E ! R E F F F F A A F K A A P A R R F F R R R R F A A A V V V b v b b p v p p p r 6 6 8 p p 8 6 6 c 6 6 6 6 p 8 8 8 8 8 8 8 8 8 6 8 8 8 8 8 z 8 7 k z 8 8 8 z z 8 z k z 8 n n z n J 8 z z z z J 8 n z z n z 8 8 8 8 8 8 8 8 8 8 8 8 8 8 8 8 8 8 8 8 z 8 z z 8 z z n z 8 n z z z z z z z z z 8 z z 7 k e k j k k k k 8 8 6 6 5 5 5 5 3 6 e r a v b V A A R R R R E W W W W ! ! ! ~ ~ ) ` ) ) ( ~ ~ / / Q ~ ~ ! ! E E R R F R R R J m k 6 6 r e r u a f B S S h S g S d d S S S S S S d S d & S & S S & S ",
"h D C S S h S g S u d d u u S u u u B u t t r 6 k v M P R E E E E E R R E F R R K F R A A P P T K R R F F R A R A A A V V V v N v b v p c r r p 6 p 6 p p p 6 p 8 6 c 6 8 p 8 8 8 6 k 6 8 8 8 8 8 z z 8 J J z J n n J J n n n n K J J J J J L J L J J J J J J J n n n n n n n 8 n z 8 8 8 8 8 8 z 8 z z z z n n J n L n J J J n n n K n n J n n z n z z z k 8 k j k e k k j k k 8 6 6 6 3 5 2 5 3 5 3 r r p p b Z Z A F R R E E W ! W ! W ! ! / ~ ~ ! ) ( ) ~ / / ^ ~ Q ! ! ! E E E R R R R R M v c e 3 r t t t a f B B S g g S S S d S d S S S d S d d S & S & & & S ",
"h h h S h S S S d S u d S y y u S S u x f t e e k v M P E R E E E E E R R R R A R P T R P F P R R T R R R F R A A A A A b b V v v a v p p p p r p 6 p p 6 6 8 6 p 6 p 6 8 8 p 8 8 8 8 8 8 8 8 z 8 8 J J J J J L L L L L L L T L T T T ^ L L ^ ^ U U U L L L L J L J T n n n n n n 8 z 8 8 z 8 z k k k n n J T T ^ ^ T ^ L T T L T T J K J J J n n z z z z z 8 z k k k j k k k 8 8 8 6 6 6 3 5 3 5 9 3 r r p v b V A A F F R R R R Q W W ! W ! ~ X.~ ) ! ) ! / ! ~ Q Q ~ R ! ! W E R R R R R P M m k 6 r r r r t a B B D g S S g d S S S S d S d S S d S & S y S & S # ",
"g S d B h B S g u S y u d d d B u u f u u t r 6 k v V I F R F E E R R R R T R T P R P T P T R T U R T R R R A F M F M M F p p p N v b p c p p r r p 6 6 6 r r 6 6 p p 8 6 c 8 8 8 8 k 8 8 8 k c z n J L L ^ ^ ^ ^ ^ ^ ^ ^ ^ ^ ^ ^ ^ ( ( _ _ _ _ _ ^ _ _ ^ L ^ L L L J J J n n n n n z c n 8 n c n n m n J T T ( ( _ _ ( ( ( ( W ^ T L L J L J J n n c z 8 8 z k k k k k k 6 k 6 6 6 3 6 5 5 5 2 5 3 r e r p v b b A A F ! F ! R Q W W Q Q ~ Q ~ ! ) ~ ~ / ~ ~ ~ ~ E ! ! ! ! ! F R E F F I P I M v k r 3 r r i p p f g h S g S d d S S d S d S S S S S d d d y y & S S ",
"g d S B g S S S S y u y d d d d S u d u t r q 5 k v Z A R E E E R R R R R R R R R K P T T R K R T T R R I P A R F M M A f b F F v v v b p p p p r p p 6 p r r 6 6 6 6 p c 6 p 8 k k 6 k p c z z z J L T ^ ( ^ _ _ _ _ _ _ ^ _ _ _ _ ] ] ] ] ] ] ] ] &._ _ _ ^ ^ ^ L T K J L n K n n n c c n c n n n M K L W ( ` ] ] ' ' ` _ ( ( ( ^ ^ ^ T L K L K n k z z k k k k k k k k c r r 6 6 5 5 5 3 5 3 3 3 e 6 p p v v b M M R F F F ! E ! E Q W Q ~ / ) ) ~ ~ ~ ~ ~ ~ Q [ ! ! E E E E R E E R U I P Z b r e e r e r p a N h h g S g S S d d S d S d S S d S d S d S d & & & ",
"g g d S B S B B y S y S u d d u y u d u u r q 5 e v V A F E F [ W R R R R R R R R K R U P K R R R T P R P R R A F F F b F b F p b b v p v p p p p p 8 p p 6 p p p 6 c 6 8 8 p 8 r k k r p k z n n m M L L T W W ^ W ^ W ^ W ^ ^ ^ ^ ^ ( ( _ _ _ _ _ _ ^ ^ ^ R R L T J T J n n n n n n 8 c c c n n m m m L T W ! ( ( ( ) ( ! ! ! ^ T T T L L J m n n z c z c c c l l c k c c c c c 6 6 6 6 6 6 6 r e r r p p v b b M A F F ! F ! E ! ! Q Q Q ~ ~ ) ) ` ~ / ~ ) Q ~ Q ! ! E ! ! F R F R A P A P m v k e e e r r t a N g g g S d S S S d B S d d S S S d d y S y y & S y ",
"g g B d d B d B S y S u d d d d u d u u t t r 6 k l Z A E A E F W R W R R R R R R U R T R T R T R R R R R I F R F F b F b b p p b p b b p v v c c p p c p p p p p p p p p p p 8 r c r k k k p c c m m M L T R R L L L L T L T L L L T T ^ L ^ ^ W ^ W ^ U U P R J K K n n K K n n c c c n c n c m n m m m K F T W W W T T W T R T K T L K M M m n n c n c c c z l v v v c c c c c c c p c 6 c p c p c c v v b b M M F R F ! E E ! E ! E W ~ ~ ~ ) ) ~ ~ ~ ) Q ~ Q Q ! ! ! F ! E R R R R I P I Z m k e r r t a t a a s h d d d d d d d d d d d d d d d d y y y y & # & ",
"g d d g g g g d d S u d f d d d f s f f i t r 3 k v M P R R R R E R R R R R R R R R R R T R R T T R T R R F R T F F F F b b b F a b p b b v v v v v v k p p p p p p p p p p p p p k t c k c c c b p b F b M b M M M M M M F M M n J K n A A P P J P P P A A Z Z b b b b m m m c n c c c c c v v b v v m M M F F F F F F b F F F M F M b b F p F b n v v v v v b b v m m v v b v v v v v c c c c c c c c v v b V F F F R R R E ! E ! F ` F F O.! ~ ) ) ~ ) ~ ~ ^ ~ Q Q Q W W R R W T R F P I A m v k r 3 r r q p i a f f s g d d d d d d y d d d d d d y y y y y & & & ",
"d d d B g g d S d d g g f d d u s s t s t r r r r c b A R R R R W R Q R R Q W R R R K R P P T R R T F T T T F T T F F F F b b p b b b b v b b b v v v v v p v p v p p p p p p p r p p c c a c p p p p p p v b p v p v v c p c v n z n n v v v v v v v v v b b v m v v v v m v m b n v c v v v v v v v v c c p b p b p b b b p p v v b F b v v p b b v v v v v v m m Z m Z m m b m m v m b m b b b v v v b V b Z F F F F F E F ! E ! ~ ! ` ! ~ ~ ) ~ ~ ) ) ) ^ ! Q Q W E W R R R R F T F A P A m v k k r q p q r a i i s s d s d d d & d & d d y d d y y y & y # & & # ",
"d d d d g f g g d S u S f d y d s f f t a t r 3 k c b F A E R R W E R W R R R R R R R P R M R F T F R R T R T F T F F b b b b b F p p b V v b b v b b c v v b p p b p p p p p p p p v p v a a v p b p b v p b b v p p v p p v p p v p c v v v v v v c v v v v N b c v v v v b c n c v v p v v v p v b p c v b b p b p p p b b b v v b v v b p b b v v v v v b m m Z A m b b M m b b m Z b M b b b b b b b V V A F F F F R R E E ! E ! ! ! ! ! ` ` ! ! ` ~ / ! ~ W Q Q R W W W T R R F T A A A b v k r 6 r r q i i i f s s s d s d d d y y & d d y y y y # y y & y # y ",
"d d d B f g g g S u d d d u d u f f f f t t r r r v b P F F R R R W R W Q R R R R T F T R R T R R R F T R T R R T T T F F b b b p b b N v b v b b v b v a b p p p p b p p p p p c p p v v v p v b p b p v v v p p v p v p v p p p p p v p v v v v v v v v v v v v v v v v v b v n v v p v v v v b b p p v p p p p p b p b p p b b v v v v b F p c p F p v b v M m Z M Z A Z b A b M m M b M Z Z M b b b b b b A F F F R R E ! E E ! ! ! ! ! ! ~ ) ) ( ) ) ! ~ ! Q Q Q W W W R R R T F F I A A m l k r 3 e q r t a a f g f d d s & d & d y d & d y d y & y y y & & y & ",
"B u f f g h g g u u g u d u u d s s f a i t r 6 r c Z A E A E E W I R W R R R R K R P F R P F A R F R R R R F F T T F M M F b b b b p b b b b m v v v N c v v p b p p b p p p i p p p p b v v b v v v v b b b v b p b p p a v v v p p v p b v a v v v Z v v v v v v v v v v v p p p p p b p b b p F p F p p p p F p b p b p b b b b p b p F a b p b v v b M v M m A A A M A b A M m Z Z V Z A Z M M Z b b b A A F F F F F E E E ! ! ! ! ` ~ ~ ` ) ) ( ! / ~ ^ ! Q W W W W R R R F T F M F A A b v r e e r q r t t f f d g d s y d & & & & y y y y y y & & & & & & & # ",
"g d g g g h h h d S d d u d d u f a f f a t r e t v V A A E I I R I W R R P R R F A F K A I I R F R F R F R ! R F R R M F b b b b p v v v b v b v Z v v v v v a p b b p F p a F b N b b a v a b b b b F M b b m b v a b b a v a p b N p v p v p c N v v v v v v v N v b b v v b F p F i p b b p * F p p F * F F * b p b b b b p b b b b F p F p b b v b b v b M b Z A Z A Z A Z A Z V Z Z A A A A A b b Z A A V F F F E ! F ! ! ! ! ! ( ! ~ ! ! ) ( ) ( ~ ^ Q Q Q W W E W W R R R F R M A M Z m l k e 5 e q t i f f g g f d s s & d y & y y & y y y y y y & y & # y y ",
"d g g g g g B g g g u d d d d d s a a f a r r 6 k v V A A R R E R W R W W R R K R A P A A F A R R R T R R R R F R F R F M b b b b p b v b v V b b v v v a v p v p b p b p p p b b b a b p b b b b M b b b M b b b b b b v b b b b p b p b p b v v v b b N b v v b b b b v b b p p b p F i F b a p p p i p p p p p * F p * b b b b b b F p F b b b b b v v b M M A A A A A b A b A Z Z A A Z A A A Z Z b b V V F F F F F F E E E ! ! ! ( ! ! ` ! ( ` ) / / ! Q Q W W W W Y W R R T F F T A A A v c k 5 e e r q t a f f S g d y & y & & y & y & y y y y y & y & y y y y ",
"d d d g f g g f u d d u u u u u y f f i a t e 3 r v Z A R A I I I U W R R R R T M T M R R A R A R F R F R R R R T R T F F M M b b b a b v v b v v N b v v b b p b f p b F v N b b p b V b F b b b b F b F M b b b b b b b b b b b b b b b v b b b b b v v b b b b b b b b v v F p b p p F p p F F p F F p F F p F F p F b b b b b b b b b F N b b b b b b b M b b Z A A A A Z A M V Z V V Z A A A Z V b A A V A F F E F ! E ! E E ! ! ! ! ` ! ` ) ) ( / ( ~ Q Q Q Q W W R R R I R F F M K A M m c r 3 5 e q t t a f g g d d y y & & y & & y & d & y y & y & d & & & & ",
"s s f f s g f f y u y u y u u d y y y u t q r 3 r v m A R I I R R R R W E I R K T M R R F T F R R F R R R R R R R R R T A M M b v b v v v V b v b p b v v v v b b p b b b b b b b b b b V b b b b M M b M F M b M b M b M A M b A b b b m b Z b m b V b b b b b b V V V b b b m b b v v b p F i p F b b b b b b b b b b b F b F F p F F p i F p b b b b b b F b M M M A A A A M b A V Z A A V A A V A b A V A A F F F E E E E Q ! ! ! ! ~ ~ ) ( ` ( ) ! ~ ~ ~ Q Q Q W W R R R R F R F F P M Z m c k e 3 q r t t i a f g d s & & d & & y & d d & & & d & & y & y & & & ",
"s s s s s s s s y y u y u y y y y t y t w q e 3 r c b A I R P R R R R R R U R M M R K F F R R P R R F R R W T R T R P F A A M b b v b v v m v b b b b N a b a p b b p F b b V V V V A b M A A A M M M F M M F M M M M F M M A M Z b M b A b A b Z V Z V Z V V M m Z A A Z b b b b b b b b b p F F p b b b b b b b b T b F b b T F F F p F F F F F p b F b b b M M F P A A M A A Z A A V A V A A V Z V V V V A F F E R E E E E Q ! ! ! ! ! ~ ( ) ) ) ) ) ~ ) ~ Q Q E E E W R R T R T K A M P A m v r 6 e r r t t i f s s s s d & & y y & & & & y d & & d d y & & & & & ",
"s s y s s s y y y u y y y y y y y w w w t q e 3 r c m A A I R R R R R R R I U R K F T R F R R F F R R F R T R T R R T A F M M b b b v v v Z b b v b b p b b b b b b F b b V b A V Z A V b A b A M F M M F F M M F M F F T F F F A M M A A A M A A A A A Z V b Z Z A A A M M M M b b b b b N v p p b b b T b b T b T T b b b F b F F p F F b F b F F F F F b b M M M F A A M A M A V V V V Z A V A V V V A A A F F E E R E ! Q ! E ~ ! ! ) ) ) ) ) ) ` ! ~ ~ ~ Q E Q E W R R R R T F M T P M J M c c 3 6 r q q t i a f s & d & & & y & y d d & y & & & d y y y & & & & ",
"s s s s y s u y y y y u y y y u y y y y 0 q e 5 r c b A P P P R Q R R R R R P P R T K F R F R R R F R R T W W T T R R R A A A b b b v N v v m b b b b b b b V b b b F b A V A V b Z M M A M A M M M F T M M M F M M F M M F T F F A A A A P P A A A F A A A A A A A A A A A M M b F b M F b F F F b b F b F b b b F F F F T T F F F F F F F b F n F b c M F F M F M M A A A A A A A A A A A A V A Z V V V A F A E A R E E E E ! ! ! ~ ! ! ) ! ) ) ) ! ) ~ ~ ~ ~ Q Q W W W R U R R T R F J P M m c k 6 3 e r i t a i i s & & & & & & y y & y & y d & d & y y y y & & & ",
"f y s s u d y y f s y u y u y y y y y y q q e 5 r l v A A A R R R R R E R R R R K R M R R R R F R R R R T W R W R T R R A A M b V V v b b b Z b b b V F M b A V b F A A A C A V b A M M M M M A F M M M M T T M M F F F T T T F R F F K P I R U R R R P P P M A P P P P P A M A M A M M M M M F F b b F T F F b b F T b F F F F F M M F F F F M F F n F M F M M M F M M M Z M A Z A A A M F F M A b V b A A A F F E F E R ! E ! ! ! ~ ~ ) ( ) / ) ~ / ~ / ~ / ~ Q Q Q Y W I I R F R M A A A M m c r 3 3 e r q t t w y y & & # & & & & y y & & & & & y y d & y & & # & ",
"s f y f d y d u u y s t s y u y u y y u t r 9 e 6 k b A I R R R W R R R R R A K K F R T R F T R F F F R R W W T R R R K R A A A m b v b b b V Z F b F M A A F A V F A A A F A V F b F M A A A M M M F M M M M M F M T M T F F R F T R R R R W R R R R R U L R U R K R P P P A A A A F M F F F F T F T T T b F F F b b T F F n F F F R M b F F F F F F F F M F F F M R R A A Z A A A A A A M M M A b b V V V A I F F E E E E E ! ~ ~ ~ ~ ( ) ( ) ) { [ / ~ Q Q Q Q E W W R R R I P A A P P M M m c r 3 e e q t t w 0 # # & & # # # # & y y y y y & d & d d y & & & & & ",
"s f f f u d f u f y s y y u u s u u u u t e e < 6 c v Z A A R R R R R R R R P R T M R F F F R F R F R R W T R W T R R R A F F A Z b v V b V Z A F M F F R A P P F F A A A F A A b F M A M F M F M F M T T K M F M F F F F T R F R R R R W W ! ! ^ W W W W W R U R U P P P P P P A A K F F F R F T F T b F F b F b F F n F n M F F F M R T T F F F n F M M F F M M T M M A b Z M A A A M A M M T M M b b A Z F F R F F E R E E ! ~ ! ~ ( ( ) ) / ~ [ ~ ~ ~ Q Q Q Q ~ E W E E I R R A A A P Z M v c r 5 e r q t t 0 0 # # # # # # # & # y & y y y y y y & y y & & & & # ",
"s u f y u d d f y f f f f f s f y u u y y e e e 6 c b Z R R R E ! W W R R R R R R R R R R R F R F T T R R T W R W R R F R F F M Z V v V V V A A A F F F M R R R F F R A F A A A F M A A A M A M A A T M T M K A F M F T T T R T R R R R W W ! W W W W W W W W R R R U P U P I I R F R F T T F R F F T T F F b F F F F F F F F F F T R T T T T F F F F F M F M F M F R A A A A A A A A F M R M M M M b A V A A F F R E F E E E ! ~ ! ~ ~ ( ) / ) ) ) ~ ~ Q ~ ~ Q W E W Y R R R R A I P A A J M m c k 5 5 q q t 0 t 0 # # # # # # # # y y y y y y d & y d d & y & # # # ",
"y y u y u u y S f f f s f s u y f y u y t t 3 5 6 c v A A R E Q ~ ~ W R W R U U R P R U F R R F T T T R R R R R F R E R R F R M Z b b b Z A A A A F R F R R R R R P R P I A F A M F M A A M P M A M P M R K P M M F F F T R R R R R W R E W W ! W W W W W U W I R R U U R R R R R R R T R R R R T F F ! T F F F F F F F F F M F T K R R R T R M T F M F T F M M T K F M M K M M M M F M P M P A M M F b V A R R R F E E E ! E ! ~ ~ ~ ~ ) ~ ) ! / ~ ~ Q Q ! E Q E ~ W R R R R R A R A A A J A m l k 5 e e q q t 0 0 0 0 # # & # # & y y y # y y y y d y y y u # # # # ",
"y y y u y u u y f s f g f f f s u f f u t r e 6 6 c v A R R Q ~ ~ ~ ! W W R W I U R P I R R R R R R R R R R R R ! E ! F R R T F A V b V Z A A F A R R R T R R R R R I P P R A A F M A A A A A R P A P P A P A R R F T R R T R R R R E R ! ! W ! Q W ^ W W W W R U R R R R R R R T R R R F F R R F F T F F R T R F F F F F F F F R R R R R T T R R M M T M F F T F F F R F K R F T R F R A A P A F F M b F F F G A E F E F E E E Q Q Q ~ ) ~ ~ ) / ~ ~ Q Q Q ! ! W W E Q E E R F R T A A A A A m v k e 5 9 e q 0 u w 0 0 y # y # # & # y # d y y d y y y y y y y & # # ",
"y 0 y y y y y d f f g g f f d f f u f u t t 3 5 6 c v A R E Q ~ ) _ ~ W W R R R R P P R R R R T M T R T R R W W R R ! F R R F F A b b b A A A F R R R R R R W R R R U U R P P P F P A A A A A P P P P P R P P A F P F R R R R W R E E E Q Q Q Q W W Q W W W W U W I R R R R W T ! F R R R ! R R ! T ! F R T R T T F F F F F F R R R R R R R R K R M T R M F F F F K K F T F T T M F T M A P A P A A M F b F F F F F F E E E ! ! Q Q ~ ~ ~ ~ ~ ( ( ! ! Q E E R E W E E R R F F R F M M F A A A b l k j e e e q q e 0 u y y y # & & # # & y y y y y d y d y y # # # # # ",
"y y y y y u u u f g f f f f f s f s u y t q 6 3 6 c m Z F E Q ) ` / ~ ! W W W U I R R I R R R F R T R R R R R R ! E E ! W R R F A A Z A A A A R R R R R R R W W R W R U R I P P A A A I P P M P P A P P R P I P R P F R R R E E R R E ! W ^ W Q Q Q U W W U I W W R R R R R ! ! R ! R R R R ! R ! ! F ! T R R T T T F F M F R R R R R R R R R U R T R M R A T K R F R T R M R K T R T R P P P P A A F b F F F F F [ F E ! E ! E Q Q ~ ~ ~ ~ ~ ~ ) ( ! ! ! ! ! E W E E R R R R F F R T K P A I m v k e e e 9 9 q 0 w w u y 0 y & # & & & # u y y d y y d y y & & # # # ",
"y 0 u y d u d u f g g g f f s f y s f t t q 3 3 r k Z A R E Q | ` ~ ~ ! R L R U R R U R R R F R T T R R ! R R ! E ! ! E R R R R P A A A A I I E R R Q R R W W W W U W I R U R I P P A P A A P P K R A K R P R F F I R R R R R R R R E W Q Q W ^ W W Q Q U W U W U R R W W W ! W ! R W W W R W W ! F T ! R R T W T T R T R R R R W W R W W I E I R K A R F R T R R P L R K R L R R T U K R P R U F A A M F F F F F F ~ F R ! E E Q Q ~ ~ Q ) ) ~ ~ ( ~ ! Q Q E ! ! ! R ! ! R R F T F F F F A K m m k 6 5 e 9 9 0 0 0 y y y y y # & & & # # & y & y d y d # y y & # y # ",
"y y 0 y u u u d f f f f f s f s f t y t a q r 3 r t Z V A E Q { ` ) ~ ! W ^ W W U U U R R R R R T T R T R ! R ! ! E ! F R W T T R P J A E I I E R R R W W W U W W W W W R I U P P P I P P P A P P P P R P A R R R F R F R R R R R E R W Q Q ^ Q Q Q U Q W W W W W W W W W T T ! ! ! ! T W W W W ! ! T ! W W R R T T R T T R R U W R W W W W W Y R R R A A R R T R R U U R R R R R R R I R R T R R M A V F F F F { ~ F F E ! E ! Q ~ ~ Q / ^ Q ~ / ~ ~ Q Q Q ! Q R ! ! T R R T R F R F F T P F M l k e 3 e 9 9 q t y y y y y y y & & & # # # & d d d d d S # y y 0 y 0 ",
"y 0 0 y y d u g f f f f s f s s s t s t t q e 5 r l Z Z E E Q | ` ) ( ! T W W U R L R R R R R R R T R ! R ! ! ! F ! ! ! ! T T R R K L U I Y W W R Q E E W W W Y Y W W W W R R R I P P P P P P P P T M R K R R F F R R R R R R R E R W W Q Q Q ^ Q Q W W W W U U R W W T ! W ! W ! T ! W ! W W ! ! ! F R R R W R W R R R R R R W R W W W Q ^ W W R R R R R R R R R R W W R R R R R R U U R T R T F F A b F F F ~ F ` F ~ F ! E ! Q Q ~ ^ / / / ) ^ ) ^ ~ Q ~ ! ! ! ! R ! W R R R F F F F F P M M v k 5 e 9 9 q q 0 y y y & S y S & & # # # & & d & d d y & S y y u y y ",
"y y u y u u g u f f f f f s s s s s y w t q q 5 r c N A A E Q { ` ) ( ! W T T R R U R U R F R R T R R R ! ! ! ! ! ! ! R ! R R T R R R I R W W W E Q Q Q W W W Y W W W ! W W R I P P P P P P P P T T T T K F F R R R R F R R R R R R W ! Q Q / Q Q Q W Q U W ^ W R W W W ! W W ! ! ! ! ! ! ! ! ! ! ! ! ! W W W R R W W W R ! W W W W W Q Q Y Y E R R I R R R R R R W W W R R W W R W W U U R T R T F A V F F F F ` F ` F ~ ! E ~ ~ ~ Q ~ / ^ ^ / ~ / ~ ^ ~ E ! ! ! ! ! ! W W R R R R F F R T U M c r 5 3 e 9 0 q 0 y y y y y y y & & & # # & & & d d d d S & S y y S u ",
"y d y u d u d u f d d d u d d u y t y w w q e 3 r c b A E [ { | o.X.) ~ W R T W W T W R U T R T R T R W W ! ! ! Q ! E ! E F ! ! R W R W W W Q E Q Q E Q W W W Q W W W ! W W R R I P R P P R R K R R K R K R R F R R T R R R R R W W W W Q Q / ! ! ! W W U ^ W Y W R ! ! ! E ! Q Q ! Q ^ Q W Q Q Q W W W W W W U W W W W W ! Q Q Q Q Q Q / Q Q W R R R R ! T T T W W W W W W W W W W R R W R R R R M M M F T R E E ! ! ! F ! ! ! Q Q ~ ~ ( / ^ / / / ~ Q ( ~ ! ! ! W W R ! W R R F R F F F R T J m 8 3 5 > q 0 0 0 w y y s s s s & & & & & & & d d & d d d d d d & d d ",
"u u u d u u d d f f d B d f f u s y w w q e 3 3 k c Z A R E { o.O.X.| ~ W W W R R T L R R T T R R F R R ! ! ! ! ! Q ! ! ! ! ! F W W W W W W Q Q Q Q Q Q ! W Q W W W W W W T R R P U P U R K K R R K K R R P R R R R R W W R R ! W W W W Q ^ / Q Q ! W Q W W W W ! ! W ! ! ! ! ! Q Q W W W Q W Q W Q W Q U W W W W W Q Q Q Q ~ ~ Q Q ~ Q Q Q Q W ! E E R W T ! ! R W ! W W W W W W W W W R R ! R R F R F F F R E E W R ! ! ! F ! Q Q ~ ! ^ ! ~ / ~ ^ / / ~ ~ ! ~ ~ Q ! Q R R R R F ! F ! R R R M c c 3 3 9 9 9 0 0 0 0 y & s & d d & & & & & & d & d & d & d d d d d d ",
"d y d d u d d d d g f d g f g d s t w 0 % 9 e 3 r l v A E { X.$.-.@.X.~ W U R R R R W R T T R R R R R ! R ! Q ! Q ! ! ! ! E E E Q W W Q W Q Q E ~ Q ~ E W ! ! ! W W W W W R W L R P U U T R K L T U R R P R R R R R R W T ! ! T W W Q Q Q ~ Q ^ ^ W ^ Y ^ W W ^ W ! ! Q ! ! E ! ! Q W Q Q Q Q Q Q W W U Q W W ^ W W Q Q ^ Q ~ ~ / / / ~ ^ Q Q W W W W W W T ! R ! ! ! W Q W W W W W W R W R R R R R F F R R E R W R ! R ! ! ! ! Q ~ Q ~ ~ Q Q ^ ( ~ ( ~ ! ( ! ~ W W Q R ! R R R R F R F R R R M b k 5 e 9 9 @ 9 0 0 y & & y y d & d & & & & & & & d & d d d d d d d S ",
"S S g d d d y y d f g g d g f s s i w 0 q 9 9 3 r l Z A E { o.%.2.O.X.) W W W W R T T T T T T T F T R R ! Q ! Q ! ~ ! ! ~ Q ~ ~ Q Q Q Q Q Q [ Q ! Q ! ~ ! ! ! ! ! ! W W W R R U P U T L R L R R U R P R U I R U R T R T ! T ! ! W Q W ^ ^ ^ / ~ Q Q ^ W W ! W Q ! ! Q Q Q Q ~ ~ Q W Q Q W Q E W Q Q Q Q U W W ! W Q ~ ^ / / ~ ~ } ) / / ~ ^ ! Q W W ! T ! ! R ! W ! ! W ~ W ^ ! W W R ! R W Q R R R T T R R R R R ! R ! F ! E ! ! Q ! Q ~ ~ / ! ! ( / ! ) ) ! ! Q W W W R E Q R R R R R R E R T m k 5 3 > 9 9 # 0 # # & & & y s d & d & & & & & & & d & & d d d d d d ",
"u S S y S & d u s d s s d f d s u w w # t 9 9 5 k v Z A E { X.%.2.$.X.~ W W U R T T T T T T F F T R R ! ! ! ! ! ! ~ ! ~ ! Q Q ~ ~ ! Q Q ~ ~ ~ ~ ~ Q ! ~ ! ! ( ! ! ! W W W W W T R U U R T U P U R R U R I R R R R R R R T ! ! ! ! W ^ Q ! ~ ~ ! ^ Q W W Q W W W ! ^ Q Q Q Q ~ Q Q Q Q Q Q Q Q Q Q Q Q Y W W ^ Q ^ Q / / ) ! ) ) ) | / ) ~ ~ ~ ! Q Q W W ! R R R W ! ! ! ! ! Q ! W W W W W R Q R R R T R T E R Q ! R R ! ! ! ! ! ! Q Q Q ~ ~ ~ ^ ^ Q ( ~ ! ) ! ! ! E E E ! Q R R R R R R R W R K v k e 3 9 9 @ 9 # & # # & y S & & d & & d & & d d & & & d & d d d d d ",
"y y y y y y y y s s s s d d s s y y w 0 0 9 e 6 r l V A E { o.:.:.O.#.) W W W R ! T W T R R R ! F R R R W ! ! ! ! ! ! ~ ~ ~ ~ ~ ~ ! ^ ~ ~ ~ ~ ! ~ ~ ~ ~ ( ~ Q ! W W ! ! W T W R U R R T R R R U R R W U R R R W W R ! W ! ! T ! ! Q Q Q ~ ~ ~ ~ Q Q Q ! Q ^ ! Q ! W / Q Q ~ ! Q ~ ~ ~ Q Q Q / ~ Q ^ ^ Q ! Q Q Q Q ^ ~ ! ) ! ) ) ) ) ) / ) ~ ~ Q Q W ! E R ! ! ! W ! ! ! ~ Q Q Q W W W W W W W W W W R R R ! W W ! ! ! R ! F R ! W Q ! Q ! ~ Q ~ Q ^ ~ ( / ! ) ~ ~ Q ~ ! R R R E R R R E R R W M b k 5 3 9 9 9 9 # # & & & y y & d & d d d & d & d d d & & d & d S S d ",
"S S & S y S & y s s s s s s s s y w y 0 0 9 q e l l Z A E { O.$.2.$.+./ W W R W R R R R R R R F R T R R W ! E ! Q Q Q Q ! / ~ ~ ~ / / ~ ~ ! ! ~ ! ~ ) ! ~ ! ! ~ ^ Q ! W W W W R R R R L R U U W R W R W W W W W ! W W ! ! ! ! ! ~ ! ~ ~ ~ ~ ~ ~ ^ Q Q ! W ! W ^ Q ! Q ~ ~ ! ~ ~ ~ ! / ! Q ~ ~ ~ Q Q Q Q ~ ! ! ~ ! ! / ! ! ( ) ) ) ) ) / | ~ ~ Q Q ! R ! ! ! ~ F E ! ! ! Q Q ^ Q Q ! Q W Q W W W W W W W W E ! ~ E ! E ! R ! ! F W Q W Q Q ~ Q / / ~ ~ / ! ~ ~ ! ~ Q ! E R ! E R E R R R R R R P v r e 9 2 9 $ # # y & & & & y d d d & d & d & d & & d d d d d d d d d ",
"& y y y y u y y s s s w s y s w y w y 0 q t e 6 r v m A E { o.%.1.$.+./ W W T R R R R R R R F ! F R R ! W ! ! ! Q W ! ~ ~ ! ) ) ) / ( ~ ) ~ ) ! ~ ! ~ ~ ~ / ^ Q Q ^ Q Q W ! ! R W R R R R R W I W W W W W ! W W ! ! ! ! ! ~ ~ ! ! ~ ~ ~ ~ ~ ~ ~ ~ ~ Q Q ^ Q ^ Q Q ! Q Q Q ~ ~ ~ ~ ) / / / / ~ ) / ) / / ~ ~ ~ ~ ) ) ! ) ` ! ( ) ) ) } ) ~ ~ ~ Q Q Q R ! E E E ! ! ! ! ! ~ ~ Q Q Q ! ! ~ W ! Q ! E E W E ! ! ! ~ Q ~ ! ! E R ! E R W W ! ! ~ Q ^ ! ^ ~ Q ) ~ ~ ~ ~ ~ ! ! E R R R R R R E R R R P m l e 9 9 9 9 9 0 # & & y & y y & d d d d d d d d d & d & d d d d d d ",
"& s s y y y y s w s w s * s % s y w w y q t e r r c Z A E { o.%.:.$.X.) W T W T W T R R F ! F F R R R R T ^ W T W W W W W Q Q ^ ^ ^ / ) ~ ) ~ ) / _ ) ) / ~ ~ ~ / Q Q Q E E Q E E E W R U W W W W W Q Q W Q Q Q W ! ! ~ ~ ~ ~ ~ ~ ~ ~ ~ ~ ~ ~ ~ ~ ! ) ! ~ ! ( ! ^ Q ! ~ ~ ~ ~ / ~ ) ) ~ ) ) ~ ) ) ) ~ ~ ~ ~ ~ ~ ~ ) ~ ~ ) ) ( ) ) | | ) ) } ) ~ ~ E E E ! E ~ ! ~ ! { ! ! ! ~ ! ~ ~ ~ ! ! Q Q ! Q ! ~ W Q ~ Q / ~ Q W W R R R R U R R W W ! W ^ ( ! ! / ~ ~ ~ ~ ~ ~ Q ! E F ! R F F R ! R R R K m t 5 9 9 9 0 q 0 # y # y y y y d d & d & d d d d d d & d d * d d d d ",
"d s s d s s y w s w i s w y w % w w w w w 9 q 6 c b Z A E { o.$.-.$.X.~ W W W W T W R W ! F R R F T R R T T T T P U U R R R W W W ! Q ^ / ) ) / / ) ) ) ) ) / ) Q ~ ~ ~ ~ E E Q ! R W ! W W W W Q Q E Q Q Q Q Q Q Q ~ ~ ! ~ ~ ~ ~ ~ ~ ~ ~ ) ~ ~ ! ) ! ! ! ~ ( ! ~ ^ ~ ~ ! ~ ~ ) ~ ) ) ) ) ) ) ) ) ) ) ~ ~ ) ) ~ ) ) ) ~ ( ) ) ) ) ) ) ) ) ) ) ~ ~ ~ ! ! E ! F ! ! ~ ! ! { ~ ~ { ! ~ ! ! ~ ! ! ! Q ! ~ ~ Q ^ ) ) Q Q R R R R R K A U R R W W W ! ! ~ ( ! ~ / ~ ~ ~ ! ! E R ! F E E ! F F R R R K m k e 9 9 9 q 0 0 0 # y y y y S & d d d d d d & d d d d d d d d d d d ",
"y y y y y s s i i i t % w * w % % i w w t t q r r b Z A E { o.@.:.@.X.~ W W L ^ W T R R ! F R R R R R T T T T K M K K K L T R R R W Q ^ Q ) ) _ ) ) ) ) ) / ~ ~ ~ ~ ~ Q E ~ E Q W W W W Q ! W Q E Q Q Q Q Q Q ~ Q ~ ~ ~ ~ ~ ~ ~ { ~ ~ ) ~ ) ~ ) ) ! ( ( ) ( ( ( / ) ! ( ! ! ) ) ) ) ) ) ~ ) ) ~ ) ) ~ ) | ~ } ~ ) ) ) ) ` ( ) ) ) ) ) ) ) ) ) ~ ~ ~ ~ ~ ! ~ E ! ! ! { { ~ ~ { ~ ) ! ~ ! ~ ~ ~ ~ ^ ~ ~ / ) / / / ~ W R R K K M M J P A U U R W ! ! / ! / ~ ~ ~ ~ Q Q Q ! F R ! F R R E R R R W M v k e e 9 9 q 0 u 0 u y y & y S d d d d & d d d d d d d d d d d d d d ",
"d y y y s t s w w s w s w w w w q w w t t 9 r r k b Z A E { X.%.$.o.X.) W R R W T W R W F ! R R R R T T K J T n M m M m M M J K U W W Q ) ) )  .| _ | ) ) } ) ) { { Q Q ~ ~ ~ Q ~ Q Q ! Q Q Q Q Q Q Q Q Q ~ ~ ~ / / ) ~ / ~ ~ ~ ~ ~ ~ ~ ) ) ) ) ) ) ) ) ! ) ! ` ) ! ) ! ` ` ( ) ) ) ` ) ) X.) | ) } | ~ ~ ) ) ) ) ) ) ) ( ` ` ) | ) ) | X.| ~ | ) ~ ) ~ ! ! ! ~ { ! { ! { ~ { ~ ! ) ~ ! ! ~ ~ / / ) ~ _ / ) ) ) ~ E R K M M M M M M M P K P R W ! ( / ! ~ ~ ~ ~ ~ ! ! E ! R F R R F R R R R R K v k e e 9 e q q 0 u y y S # S y d d & * d & d d d d d d d d d d d d d ",
"y y y u s w s s s t w y w w % w i w w w t t r r k m Z R E { o.@.%.O.X.) W W W W W W W R R W E W ! F F F F n b F b n m b m m m M T R R ! ^ ) ) X.) _ )  .| ) ) { ~ ~ Q Q Q ~ Q Q Q Q ~ Q / Q ~ ~ Q ~ Q ~ ~ { ~ ~ ~ ~ ~ ~ ~ ~ ~ ~ ~ ~ } ~ ) ) ) ) ` ~ ` ! ) ` ( ( ` ( ( ) ( ` ( ` ) ' ) ) ) ` ` ) ` | ) ) ) ~ | ) _ / ) ) ) ) ) ) | ) ) | ~ X.~ ` ) ) ) ~ ~ ! ! ~ ! ~ ~ ) ~ { ~ ~ ~ ~ ~ ~ ~ / / / / ) / _ _ ^ ^ ~ ! T T M M m m m m m M J M U U W ! ^ ~ ! ~ ~ ~ ~ ~ ! ! R R R F R F ! F ! F R R J m k e 9 q q 0 0 0 y y y # & S y d d & d * d d d d d d d d d d d & d d ",
"y y y y y y s w w y i w i w w w % q q i q e r 6 l v A A E | o.%.:.$.X.~ W W L W ^ W W R W R E E F ! T F T n n n n b n n c m n M J J L R Q ) ) )  .) _ ) ) ) ) ) { Q ~ Q Q Q Q Q Q ~ Q ~ ~ / ~ ~ ~ Q ~ ~ ~ { ~ { ` ~ ` ~ ) ) ~ ` ) ~ ) ) ) ) ) ` ) ) ! ` ) _ ` ! ( ! ` ) ` ! ) ) ) ` X.) ) | ) ) ) ) } | | ) ) )  .) ) ) ) ) | ) ) ~ ` ~ | ~ ) ~ ) ~ ~ ~ ~ ! E ! ! ~ ~ ~ ~ ~ ~ ~ ~ ~ ! ~ ~ ~ ~ / ~ Q Q ! W ! Q W R L K M m m m m m m M J K M U W ! ^ ~ / ~ ~ ~ Q Q ! Q W E E R R ! F R R R R R J v k e e e q t t t 0 y y & S & S d d d & d & d d d d d d d d d d d d d ",
"y u y u y y y y s w y w i w w % w w q w q q r r k m A I E } o.$.2.$.+.) W W W W T W W W W E R R F ! R T M K M M M n c b v c m n M M M U W Q / ) ) | ) | ) | ) ) ~ ~ ~ Q ~ ~ Q Q Q ~ ~ Q ~ ~ [ ~ ~ ) { ~ { ~ ) ) ~ ) ~ ` X.~ ) ` ) ) ~ ` ) ` ) ) ) ) ` ` ) ) ) ) ` ( ) ) ` ! ` ~ ` ) ) ` X.) ) X.) | ) ) | ) | ) ) ) ) ) | ) ) | | ) ~ | X.) ) ~ ` ~ ~ ~ ! E ~ E E ! ! ! { ! ! ! Q Q Q Q ~ Q [ Q ^ W ! W W U U I L J m m c m n m n m M J J R U W ! ! ! / ~ ) ~ ~ ~ ~ ! W ! E E R F ! F R R T W K m k e 9 q q t 0 y y y y y y y S d & & d & d d & d d d d S d d d d d d ",
"y y y y i y w y w y y t y w w i w w w 0 w r r r l x M P ~ | o.;.2.*.+.) R W W W W W W R R R R E R R R T T K K M b c v n c c c n c m m J I W _ ) ) ) ' ) ) ) | ~ ~ ~ ~ Q E Q Q { ~ ~ [ ~ ~ / ~ / ) ~ ) { ~ { ) { ) ) ) ` ~ ) X.~ ) X.) ~ ` ) ) ) X.) ` ) X.) ' ) ` ` ) ` ) ` ) ` ) ) X.) X.) ' ) | ) ) _  .) | ) | ) ) | ) ) ) } | ) | ) ~ { ~ | ~ ~ ~ Q ! ! E E E E R E E ! { F W ! W Q Q Q Q ~ Q W W R U P P P J M m m m c c n m m m M K K U U ! ~ ! / ^ ) ) ~ ~ ! ! Q R E W R F E R R R R T K v r e e e q t t t w y y y # S # d d d * & d & d d d S d d S d S d d d ",
"t y t y y & y w y w y y w t w i w w q $ q t e r l m Z P Q  .@.2.3.*.+.) U ^ ^ W W W R ! E E E R ! ! F F K R J M m c c c c c p c c c n m U R ! / _ ) ) ) ) ) ) ) / ^ W ! Q W Q Q Q [ ~ [ ~ / / / ) ) / ) } } ~ | ) ) ) ) ` ) ) | ) ) ) | ) ) | ) | ) } | ) | | ) ` ) _ ` | ) ) ) | ) ) | ) ` ) ) ) | _ ) | / | / | } ) ) ) ) ) } ~ { { ) ) ) ~ ~ ~ ) ~ Q W ! W R W R R R R W W R ! W W W W W W E Y E U P P J J Z m m n c c c c n c m m J J L U R Q Q ~ ) ) ) ) ) ~ ~ ~ ! ! E E E R R R R R R W J m r q q 9 t t t 0 t u y y y y u d d & s & s d d * & d S d S d d d S d ",
"y u s t t y w y y w y y y s s w t w w % q r r r k m M U E } $.:.4.;.+./ W W U W W W ! E E F ! E F R ! R R R R M m m v c c c c c l n c m M L W W W Q ~ / Q Q ~ Q ! W R R U W U W W W Y W Y Q Q Q Q Q Q Q Q Q Q Q ! ~ ~ ~ ~ Q ~ ~ ~ ~ Q Q / / ~ / Q Q ~ ~ / Q ^ Q ! ! ! ! ~ ^ ~ Q ~ ~ Q Q / / / / Q ^ Q / / / / Q ^ Q ^ Q W Q E Q Q Q W Q Q Q Q Q Q Q W W R R U U T L L U K U R R R R R L R U Y R P U U J M m m m m n n c c c m m m M M L R R R W Q ^ ^ ~ ) Q ~ ^ ~ ~ ~ ! ! F ! F R R W R R R W M v l e e 9 t 0 t y y y 0 y y y d & d s s & s d * d d d d S d d d d d d ",
"u t f u y y y & % s w y y w i t y w w t t r r r l m Z P ~ ..@.2.6.-.+._ L ^ ^ W W W E E E ! R R ! R T T R W R M M m m n v c c c c c l m M J R R R R W R R W W W R U R U P P I U P Y U U I U U U R P U U U R R W R W R I R R R W W W W W U W W W R W W U W U W W R W T W W U U I W W W U R W W W U U U U U U U U U U Y I I U I U R I E I R R U R R R U R T K K K K K K K M J K M M K M J K U L T P J P M m m m x c c c c c m m M J M P R W W ! W Q Q Q ~ ~ ~ ) ) ~ ~ ~ E E E E ! R R R R R R R K m l e 9 t 9 t t 0 y 0 y y y y y & d & s d * d d * d d d d d d d * d d ",
"f f f u y y w y s & s y s s s f i t i t t t r c c Z Z P Q | @.4.3.;.+._ U W L W W W E E ! R E ! R R R ! R ! R R K M m n m c c v c c l v m m M J K K R T K U P R U J J J J J J J P Z J P J P P J P L L J J L P K J L L L R P L J P J P J P P P P U J P P P L P J L K L T J P P U P J P P J P K P P P P P P P P P U P P P J L P P L U J P K P K P M K M M M M M m m M m m M m m m M m m m m M M M m m m m n v n l c c c c c m m M L U R W W Q Q Q Q Q Q / ) ) ~ ~ ) ~ ~ ~ ! ! R ! ! R W R R W R R m k q 9 9 9 q 0 q 0 0 y & & y y s * d s * d * d d d * d d d * d * * d ",
"N N f f u y & w s & s i f y s f f a i a i i r c c b A Y Q | @.4.4.;.+._ L ^ U U ^ W W W R ! F R R W E E ! ! ! R L M m m m c m c l v l c c m m m M m m K M K M J M m m m m m m m m m m J J J m J J m m J M J J J J M J J m J J m J m M M m J A M m M m m m J J J m J M m M m m m m m m M M m J M M m J m J m M M Z m M M J m m m m m m J M J b M M M m m m m m m n m n m m c m c c c v n b n m m m v n n c c k z k c c c c m M R R W W ~ / ~ ~ ~ Q Q / ~ ~ ~ ~ ) ~ ~ ~ ! ! E E E ! F F ! R Q R M m t e e q q 9 0 0 0 # # # y & y i s & & d * s & * * * d d & & & * * * ",
"u f f f t y w y w y i s y i s s y i t t p r p r c m A P Q X.@.4.0.-.+.) W L W ^ ^ T W W ! F ! F W R E R ! ~ E R R M M m v m v v v c c v v c c m m m m M m K J P K P P J A I P P P P P J P J J J J J J J J m J m J M m M M m M M M m J Z J J J P P I U U U I U R U U P I P J P J J J J Z m M m m Z m m M m m M Z Z Z Z M P J P U P U I I R R R A P J M M M m m m m m m c c m c c c m c n v n v n n n c c l c k k k c c n m M K R W W ~ ~ ) / ~ ~ Q Q ~ ~ ~ ) ~ ~ ) ) ~ ~ ! E ! F F ! F R R E E R m l q 9 q q 9 t 0 # y # y # & & & & i s * d & s & d d d * & & & d * * ",
"u u f t y w w y w y w s t s w i t i i i t p p p c m M I Q  .$.4.9.-.+.) W W ^ W ^ W W W R ! R R R W ! ! Q ~ E R P M M m v b c c c c c c c c v c m m M M K K R I I E W E E E Q E Q [ Q Y I I P A m J J M J J J m J m m J m J M J m J M J A Y Y W Q [ ~ ~ ) } | } ~ ~ Q Q W E I P U Z J Z M m M M m m m m m m A Z A P P I U I W E Q ~ / ~ / ~ Q Q W P P P P M M M M M m m m m m c m n n v n c v v n c z c k c k k c n m M F T R E ! Q ~ ~ ) ) / ~ Q ~ ~ ~ ~ ) ) ~ ~ ) ~ ! ! E E R E E E ! R R R A m l q e 9 e 0 0 w 0 y & y # # & & & * d d * i & & * d * d d & & * * * ",
"t t i y t y t w w y w w w % i i w t w t i i p r v b K U ~ | =.:.4.;.+.) L W L W W W ! T ! R ! W R ! R ! ~ ~ ! R R M M m b c c c k v c v c c v v n c M M K T R E W Q { ~ { { o...o.} { ~ Q Y Y P P J J K J K J m m m M m M M M J A J A P Y Y Y ~ } | ..#.@.@.@.o.o.X.X.{ } Q W I P U P J J J J M m m M m M Z Z A I I Y R R Q ~ } | | ....+.+.| | ~ Q W R I P P L M K K M M m m m m m v n b n n c c c c 8 c k c k c m M M R R E ~ ~ / ) ~ ) ) / / ~ ~ ~ ~ ~ ~ ~ / ~ ~ ~ E ! F ! E R F E F R R R A Z t q e t 0 t 0 0 u 0 # y & & # & & s * d & s & & & & & & * * d d * d ",
"t y t t t w t y w w w w w % * * i i w i t p r p p b F T ^  .*.4.8.-.+.) W U W W W W W ! T ! W W R ! ! ~ ~ ~ ~ R R P Z b b c p c c c c c c v c v l m M Z P I W ~ { } o.o.o.O.%.%.%.%...| { { [ I I P J P L J M m m m Z m M M M M P J I I W Q } ..o.%.:.:.:.3.4.5.2.%.$.o.o.{ { Q Y I U Z J P Z Z m m m b m Z P I E E E Q ~ } } o.@.*.*.*.:.:.*.o.| ~ ~ Q E E R I U P Z J M M b m m m m n v v c c c p 8 c k c k k n m T T E ~ ~ ) ) | ) ) ) ) ) ( ! ! / ! ~ ~ / ~ ~ ~ Q Q E R R R ! F E E R R R A x t t 0 q q w w t y y y w % % # & y y y s y & * * & * & & * * & * d * ",
"w w w w w w w t w w w w w w q % w w t t t i i p p b K T !  .&.4.4.;.+.) U ^ ^ W ^ W W T W W E E ! ! E ~ ~ / Q Q R P P b m c p p l v c c c p c c m m m Z P I E Q { { { o.o.o.o.%.%.O.o.{ { { [ I P P J J J J J m m m m m m M M K Z P P U Y Q [ } ..@.:.:.:.,.2.:.%.%.$.o.X.{ Q W R I P P Z J Z m m m m Z m Z A I A E E Q Q { | o.@.%.%.%.:.:.$.o.X.{ Q Q E E I U P P P M M M m m m m m m v c v c p c c c k n c k m M R W ~ ~ ~ ) ) ) ) ) ) ) ( / ( ~ ( ) ~ ~ ~ / ~ ~ Q ! E W R R E F F E R E R A Z x e e q t w w y 0 y y & % # % # % % y % s & & & & & & & & d d d & d ",
"w w w w 0 t t 0 t w w w % 0 % % % w w i t t t p v b M R W | $.2.4.-.+.^ L ^ L W W W W W R W W W E ! Q Q ~ / ~ Q R R R A b b v v v v v v v v a c v v v m M J I R E Q Q Q [ { { ....{ ~ Q E E A A Z M Z Z m m m m m c m m m m m m Z m b P I I Y E [ ....| o.o.o.o.X.X.| { Q E R R P J J Z m m m m m v m m b m m Z A I I I R E Q [ } | ....| | } } Q E R I U I P M J J M m M m m m m m m n v v p l c c c c c c m m M K R W ~ ~ ) ) ) ) ) ) ) ) ) ( ( ( ~ ! ! ) ~ / ~ ~ ~ ! ! ! ! F F E E F R R R A x u t q q t t t t y d y y % y # w & % y s & & & & * & d d * & * & d & ",
"w # w w t 0 0 t 0 0 t w t 0 0 w w w t t t t t p v b J T ! X.+.:.4.-. ._ T L ^ W ^ W W W W R W R E E ! ! ! ) ~ Q Q R R A A V v b v v b b v v c v m l m v m Z M M A I I R A [ A [ E E E I A A A Z m m m M m m m n c m x m m c m b v m m M Z Z P U A E Q E Q ~ ~ Q E E E E I A J M M M Z m x m m l n l l c v v v m Z Z Z A A A P R Y E E E Q [ W E I P P A M J M M M m m m m m m m m m v m c c v c c c c c m m m b M R R ! ~ X.~ ) ) X.) ) ) ) ~ ) ~ ! / / / ) ~ ~ ~ ~ Q ! F F ! F ! E F ! R R E A x l e e e t t u u u y d s y y & # % % & % % s % & & * & & d & d * & & ",
"0 w w 0 w 0 t 0 t 0 w w 0 0 0 w w w w t t p p p c b A P W | #.-.1.-.+./ ^ T ^ ^ ^ W ^ W E W W W ! ! E ! ~ ) ~ ~ Q Q E R A m m V b Z b b b v v v v v l n m m v m m m M m C J A Z M M J M m m m m m x n n v n n c n c n v n v c b v l n v m v n m Z Z M J A A M J A M M M m m m m n n n x x m l l v l k c k l x x x x x Z c m b v Z A Z A Z A A Z M m m m m m m m m m c m v v l Z c v c v v l c c b n m b M M M M R R Q ~ ) ) ` ) ) ) ) ) _ ) / ~ ! ( / ) ( ) ~ / ~ ! ~ F ! F E F R F E F R I I A m l 9 q t t t t i g g d d y y w w % % % % & & & & & d * & * d * & & & ",
"w # # w 0 q 0 0 0 t t t t w 0 0 % t w t t t t p v m Z P E ) #.1.1.#.' ( L T ^ T W T T W R W W ! ! ! ! ! ~ ) ) ~ ~ ~ E E I A Z Z b A A V b v N v l v c l c n l c c l n l v l l m x v v x n n l l x l c x c l n c c c n c c c v c v l l l l l x l l l x l l l l l c l l l k l n c c c l l l l k l l k k k k k l k l l l t c k c c l l c l v x v x l v v v c v x l v l c m x x v x c v v l c l c c n b b M M F F F R W ~ ~ ) { ) ) ) ) ) ) ) ) / / ! ~ ! / ~ ) / ~ ~ ~ ~ ~ E ! F ! R R F ! R R U Z v l e q q q t i f s g h d y y y % % % % % * & * d * & d d & & & & & & ",
"w w # # w 0 0 t w 0 t 0 0 0 w q 0 0 t t t a p p c b m P E | #.-.1.$.' ( T T T ^ ^ ^ R W ! R E E E E E ~ ~ ~ { ~ ~ Q Q E R I A F M A A Z Z b v v v l v l v l v c v c l n v c n v m c c m v n v l v l v l n c c c c c c c v v c c c l l l l c c l v l c l c c v v l v c n c v c l v c v l v c n v v k c l k n l l x l l l l l v l l v v v m m m m m m m m m v m m b m m v Z v v v x v v v x v v v b n b M F A R R R ! Q ~ ` ~ ) ) ` ) ) ) ) ) ) ~ ~ ! / ~ ) ) ( ~ ~ ! F ~ ~ F E E R R R R R U U M m t q e q t t t t f s s s s y w w & % % % & * & d & & d & d & & & & * ",
"% w w w w 0 w 0 q w w q w q 0 t t q 0 t q q r p c b Z A E ) X.*.1.#. .( W L L ^ W ^ W W W R E R ! ! E ! ~ ~ ~ ~ ~ ~ Q Q E R F R I F F A Z b m v v v v v c l m v n v l m c c l m v v m v m v m b m m m v v m m v m m n c v v v c v v m v n c m v v v m v m v v v m v v m v v m m v m l m v l v v c v c v c c m l c l v m v v v v b b m Z m M M Z m m m m m m m m m m m b m Z Z m Z m v m m v v v b M F M F R R R E Q ~ ~ ~ ` ) ) ) ) ) ) ) ) ) ^ Q / ( / ~ / ) ~ ~ ~ ~ ! ~ ! F ! R F R R R R P M v k e 9 q q 0 w w t s s y y y w % y & * & & d * d d & & * d * & * * * ",
"% w % % w % w 0 w 0 0 0 q w q w w w w q q t r r k v m A E } o.-.1.o.X./ W U W U ^ U ^ W W U W R W W W ! E ~ ~ ~ ~ ~ ~ ~ Q E E R R R F F F M b v v v v v v v v v v m v v v m c m v m b m v m m m b m v b m v m m b m m v v m v v v v v v m v b v m v b m m b b b m v m m m m m m m b v v v v v v v v v v v v v m c v b v v v m V b b M M A J Z Z P Z Z Z M M M M M M M M M M M M b M m b m b v m b M M F F R R E Q Q ~ ) ) ) _ ) _ ) ) ) ) ) ~ ~ ~ ~ Q / / ~ ) ~ ) ~ ! [ F { F ! E F E F E F T m c r e 9 9 9 q w w w y % y s % s & d * * & * * d d * d * s % % & % % % ",
"w w i q % q % % q 0 t q t w t t q q q q q r r p c v Z P E ~ X.$.1.@.X.~ U U W U U U U U W R W R W W ! W ! ~ ~ ~ ~ ~ } ~ Q Q Q Q R ! ! F F M Z m b v N v v v x v m l v v c v v v m m m v b m b m Z m m Z Z V Z m m b Z b Z v Z b m b m v v v b m b b m b b b Z b b b b M b b b Z Z v m V b Z V v N b b v b b v v b m m m Z m Z m A M A P P P P P P J P P P M M M M A A A A M F M M A A Z Z Z V m b M M M F R R E Q ~ ~ ) _ ) ) ) ) ) ) ) ) ) ) ~ Q Q / ~ ~ ) ) ~ ~ { ! [ ! F { F E F F E ! F F m c p 3 9 9 9 $ 9 9 % w % % y % s d & * d d d d d d d d * % * % % % % % ",
"i w % w w q % q 0 w 0 t 0 t w q i q t q t q r r k b m A E ~ X.$.-.@.| / U U U W L ^ ^ ^ U W R W W W W E Q Q ! ~ | ~ ) ~ ~ Q E Q R R ! F F K M b b v c v v v v v v v b v v m m b b M b b m b b M m Z v Z V m b A Z b m Z Z v b m Z b b b m b m b m m m Z A M b Z A b A b A b Z A b V m b b b b b b b b b b M V Z b b b b b b Z Z M M M M P P P P A A Z A A M b A M M A b F M M F A b A b V Z b b Z A A A F R E Q Q Q ) ) ) ) _ ) ) ) ) / ) ~ ~ ~ / ~ ~ ~ ~ } ) ~ ~ ~ ~ ! F ~ F ! F E E R F F F m p r 9 3 9 $ $ q % 0 % % % i & s & & * d & d d d d * * & & % % % % % % ",
"w i i w i % w % w q q 0 t 0 w t i q q t q p r r k v Z A E ~ | $.-.o.) / W U U ^ ^ W T W R R W R R W E ! W Q ! ~ ~ ~ ~ ~ ~ ~ ! E ! R R R M M M b m v N v Z v m m m v m v m b m b b m M b Z Z b b Z b V Z v Z b M b Z Z v Z V b b v V Z b b m V m V Z m A b Z A Z M M M A Z b A b Z V m b v Z b b b M b b b Z Z V m M M A A A b A M M R K J P Z A Z Z A Z A M A A M A M A M M M M M M Z V m V Z V M A A F R R E E Q ~ ~ ) ) ) ) ) ) ) ) ) ~ ~ E ~ Q ~ ~ ~ ~ ) ) ~ ~ { ~ ! { F { F ! E F F F R T m v r 3 3 9 q 9 0 % w y w s & & % & d * * d * * d d d d & & & * % % $ $ ",
"i w i w w q * q w w q t t w q q r t q i t r r p c b m P E Q | $.*.+.) ! U W W ^ ^ W W W W W R W R ! F ! E ! ! Q Q ~ Q ~ ! ~ E E ! R R R R A A b Z b b v v V b V b b Z m b m M b Z Z A Z A b A b b b b Z Z b b b Z Z M V Z b Z A Z Z V v V b b m V v Z Z V A A A A A A A A A b A M b b b b b b b M M M A A Z A A A A A A A A b A F M K F M P A A A Z b Z A b b b Z Z V M b M M M M A b Z V V Z Z b A A A F E E E Q ~ ~ { ) ) ) ) _ ) ~ ~ ~ ~ E ~ Q Q ~ ~ ~ ) ~ { ~ ~ ~ { ! F ~ F F F ! R R T K m c p 3 2 3 @ 0 0 w & & & & % & * * & d d d * * d * & & & d * % % $ $ % ",
"i i s i w i q * q w t 0 w q w w t t t p c r r r l v Z P Y [ | @.*.+.| / U R ^ W W ( W W W R W R F ! ! R R ! R ! ~ ~ ~ ~ E ~ ! ! R W R F F A A A Z b b b v V V V Z Z V b b A Z A V A A V Z A b V V V M b b b Z Z Z M Z b Z Z Z b V V V Z b b b A Z Z Z N V Z Z A A A A A A A Z A Z b b b b b M M M A M A A F A A A A A A A A A A M M F M F M A V Z V Z b b b V b b b b b b M M b Z b V b b A V A A A A A A R [ E Q { ~ ) | ) ) ~ ^ ~ ~ ~ ~ ~ ~ ~ Q Q ~ ~ ~ | ~ ~ ~ ~ ~ F F ~ { F ! R F R P P L M c 6 3 3 9 9 # % & & d y s & & % * d & d d d d * & * & & & * % % $ $ $ ",
"s * i t i q w q w w w w w w w i w t t p t t p r k m Z P E ~ | o.$.+.) / W T T ^ ( W W W W R R W ! ! F ! ! E E ! Q Q ~ Q E ! E ! W R R F R A A M Z b b b V b V V V A Z A Z A A A A A A A F A F V Z A Z b b Z b M Z b A A A V V V V V V Z V Z Z V V Z A Z A A F A A A A A A A A A M V b b b b V M M M F A F F A A I I A A A A A K M R T M M T V A b b V b Z b V b V b b A A b M b b V V Z Z A V V A A A F R E E E { ~ ~ { ~ ~ ~ ~ ~ ~ Q ~ ~ Q ~ E E ~ ~ ~ ) ~ { ~ { ~ ~ ~ ~ F F ~ R R R T R K L m c k 3 3 9 $ q w 0 y d s & & % * * * * d d * * d d * d & d & * * % % % ",
"w s s y w i i w i w t w w w w w w t t a p t r e c v Z A W ~ | +.#.X.) ^ L L ^ W W ( W W W R W R F ! ! R R R ! ! Q ~ Q ~ ~ ! E E E R R R R A A F Z b b b b V Z V V A A A A A P P A F A A F A F F F A A A A A A A A A A M A V A A Z Z V Z Z V A A Z A Z Z A A A F I I R F R A A A Z A A Z M M A A F R F R F R R R A R I F P F A A F F M F M F F A Z b b A V A Z A b A b F b b A M M A b b V V V A A A A R R E Q Q Q Q ~ ~ ~ ~ ~ ~ Q ~ Q Q E ~ E ~ ~ Q Q ~ ~ ~ ) ~ ~ ~ { F ! ! E F R R R R R R U m c c 6 3 9 q % % & y & & & & & % * * d d d d d * & * d * d * s & w & * ",
"s s * s w w i w i w s w w w w w w t t t t r p r l v b P Y Q | #.+._ ) Q W ^ L W ^ W W W U R W W W R W R R W W W Q Q ~ Q Q Q R Q W T R R F M V M V Z b b V Z A A A A A R R R F R R R A F E F F F F F F F F F A F A A A A A A A A A A Z V A V V A A A Z A A F R F R F R R F F F M T A A M A A F A F F F F R E F ! R R F F R F R A A A F A F F A V A b V Z V A A A A A A A M A M M V b V A V A V V A A A R R E Q Q Q Q ! ~ ! E Q Q Q Q Q Q Q Q Q Q Q ~ ~ ~ ~ ~ } ~ ~ ~ F { F ! F ! F ! F F U T U M v p 3 3 9 t 0 y 0 y & & y & & % * * d d d d d * d * * * S * S * s s i ",
"s s s s s * i i w s i s i y % w w w s t t t t r k v A P E ~ ) +.$.+.) ^ U L W ^ ^ W W W W E R R R R R W W R W W Q Q Q Q W W W R R R R T R F A A b b V b V V A A F A A R R R R R R R E E F F F E F F F F F F I F I F F I F A A A V A A A A A A A A A F A F R F R R R R E R R F M F M F F A A F R R R R ! E F ! F F R R F F F A F F F E A F F F V V V Z A A A C A A F F M A A A A A A F V V A V V A A R R E E E Q Q Q E E E E E Q Q Y Y Q E Q E Q Q ~ ~ ~ / { ~ ~ ~ ~ ~ ~ ` F ! F ! F F ! R R P M v p p q q 0 w # w & & & % % & % * d d d d d d * d * S S S S * * s s s ",
"s s s s s i w s s * s s s s % % i t y y t r r r p b b P R Q | +.+.' ) ^ U W U ^ Q ^ ^ U W R W R R W W R R W W W Q Q Q W W W W W R R R P M A A b A b b Z Z A A A A A R R R R E E E R E E F E F R R R F F F R R F R A R F I A F F A A A A A A C I A A A A R F R R E R E R R F F R F A F P A R F R ! F E E E ! ! F R R R F E A R A A A F F F F F F M b A V A A A A A R F A A F A A F V V A A V V A A A R E R Q Q Q Q E Q R E E E E E Y Q E E Y Q Q ~ Q ~ ~ ~ } ~ ~ ~ ~ ! F F ! F { ` F ! F R R T K b c r q q w w y # & % % & % % & * * * S d d d S * S S * S * * H d g f ",
"s i s i i s w i i i % i % % % s w w t t t i p q k m M P E Q ) +.+. .) Q U U W W ^ W W W R Q R W R R R R W R W R W Q Q Q Q W W R R R R T F M M A A Z V b A A A A R R A R R R E E E [ E F E R E R R R R R R F F R F R A A F R A A F A A A A A P U I A R I R R R E R R E E R R R F R R F R R R R R R E F ! E ! E E E R R R F R F R E A F F F F A A F A V V A A A A A A F F F P F A F A F A A A A A F R R E R E Q Q Q Q Q W ~ ! E Q Q Q Y Q Q Q Q / ~ ~ ~ / ) ~ ~ ) ~ ~ ~ ` ` F { F F ! F ! R R R M M p r r q w w w y % w % % % & & * S * * S * S * * S S * S H H * d d d ",
"s s s s w i w s w i w w % s y % % t i w t p q r k v M P W ~ ) +.+._ _ W U U ^ L W W W W W U R R R R E R R W R W W Q Q W Q W R W R R R F I A A V V A V V Z F A F R F A R R R R R E E R E E R E R F ! F ! F F R F R A R E F A E F A F A A I A R A F R R I R F R ! E ! E ! F R R R R R I R W R E Y ! E ! E E ! E E E R R R E R A E E A A A R F A A V A V A A A F E F F A F R A A F A F F A A F A A F R R W Q Q Q Q ~ Q ~ ~ ~ Q ~ ~ Q Q Q ~ [ Q Q / / ~ / ~ ) ~ ) ~ ~ ~ ~ ! ! ! F ! F ! F ! F F T n v c p q q 0 w w y & % & & & & s * S S S S * S S S d d S H S * S F & d ",
"w i i i s * i % * i % i i % % y w w w t w q p r c v M U W Q ) | +.) ^ W U U W U W ^ W W W R R Q W R R ! R W W W Q W ~ ! W W W R R R R F P A A A A M A Z A F R R F R R T F R F R R R E E E E E R E F E F R E R R R A F F F E A F E A R A I A R R F R R E E ! E R R R R E E E R R E R R E W W W W E E E ~ E ~ ! E ! E E R R F R F F F F E A F A A A b A A A A A A I F F R R F I F F F F F A E P I R R R W R Q ! Q / Q ~ ~ ~ ~ ~ ~ / / [ ~ Q ~ / Q ! ~ ~ / ~ ) ) ( ! ` ~ ! ! ! { F ` F ! F F ! F F v c r r t t w y % % % % % y % s * * * S S H * * S S d S * S H * d d d ",
"i s i i w i i w q % % q % % w % % w w w i r q 6 k v M P W Q ) _ ) / ~ W U U W W W W W W W R W R R W R R R R R Q W Q Q W W W W R R R R F A F A A A A A A A A I R R R F F M R R R F E E E E E E E E ! F E R R R F F R F R [ C F A A E A E F F F R E E E E E E ! R ! R ! R E E E E E W W W W W W Q E Q ! ~ ~ E ! ! E E E E E F F E E A A A A R A A V A b A A F A F A R A F A F F A F F R F E I I I R R E E R ! Q ~ Q ) ) ) } ) } ) } / / ~ ~ ~ ~ / / ( ) ~ ) ) ! ) ~ ! ! ~ ` F ` F F F ! ! ! ! F F b v r r t 0 w w w % % % * * s s * S S * S S S S S S S S * H H * d d d ",
"f i i s s s i s i i % % % w * % w w i q q q q r k m M U W Q ) |  ._ Q ! R T W W ^ W ! W R W R R W R W R R R R R W ! ! W W W W W R R R R P R R A A A A A R A R R R R R R R R R R E E E E E E E E E F ! R R R R E R I R F R R E A E A R F R R R R E E E E E E R ! E R E R E E E W W E E W W W W E ! ! E ~ ~ ~ E E ! ! E E E E E A F A E E A A A A A Z A A A A F F R F R F R R R R R R F E I R R R R R E R Q Q ! Q Q ~ ) ) ) ) ) ) / ) / ~ [ ~ / ~ ! ) ! ( ) ) ` ( ~ ` ` ~ ` { { ` ` F F F F F F F v c r e t t w y % y % & & s s s S * S S H * S S S S S S H H * H d d d ",
"f f d d * d d * * * * % % % * % % w w q q q 3 6 p v M R R Q ) | ` ) ^ W ^ T ^ T ^ W W W W W W R R R R E R W R W W W W Q W ! W R R R R F R R E F F F F I R R R R R R R R R F E E R E E E ~ F ! ! ! ! F E R ! F R F E R F R F R R F R R R R R R E E E E E R E E R R W E E R E R Q E Q Q E Q Q Q W ! Q ~ ~ ~ ~ ! Q ! E E E E R R R R F I R A I A A A A V A F R F F F R F R R R R R R R R E R R R R R E E ! E ~ ~ ~ ~ ~ ) ` ~ ) ~ ) / ) / ~ ~ ) ~ ) ~ ! ) ) ! ) ) ) ` ! ! ` ` O.O.` ! ! R R T T T m v l e e q t 0 y y w y y s s s s * S S * H S S S S S S S H S * * F d d ",
"f f d d F d d * * * $ $ % % % % % q % q q q q 6 p c M R Q Q ) ) ' _ / ^ T W W ^ W ^ W W R W R R R R R W R R W W W Q Q W W R W W W T R R R R F E E E R R R R E E E R ! E ! ! E E ! E ! E ! { F F F E ! ! ! R F R R F F R F R R F R R R R R E R E E E E E W E W R R R I R R R E R E E E Q Q W ~ Q Q ~ ~ ~ ~ ~ ~ Q ~ Q ! E E E E E F R I A A P P A A Z A P F F R E R R E W R R R W R R R F R F ! ! E E W E E ! Q ~ Q ~ ) ~ ~ | ) ) ) ) ) ~ ~ ~ ~ ) / ) ~ ( ` ! ! ) ! ! ` O.#.<.#.O.` E R R R T F M v k r e q w y 0 y y y y s s d d S S S S S S S S H S S S H * H S d g d ",
"d d F s h * d d s * * % % w % % 0 w q 0 % 3 q 3 k v M U Q Q ) ' ` ) ( ! ^ ^ W W ^ Q ^ W W W R W F ! R R W W R W W W Q W W W W R R W R R R R R F E R R R R W E Q ! E E E ! E ~ ! ! E E E F ! F ! E R F ! ! F R R F F F F R F R R R R R R R R ! ! E E Q E R E R W I R R R R R R R E E Q Q Q Q Q ~ ! ~ ~ / ) ~ ~ ~ E ! E E E E R F R A I P I P A A A V A A F R R F E E E E E E ! E ! R R ! ! R ! F W W W E Q ~ E { ~ ~ { ) ) ~ ) ) ) ! ) ~ ) ) ~ ~ ( ) ) ) ( ` ) ! ! ! ` O.<.6.2.O.X.! R R T M M M v p r e q q 0 w w y y s d d d d S * H * S S S H H S H S S S S H d S d ",
"d d F d d d d d s * * % % % % % $ % % 0 q q 3 3 r c b K R Q ) ) ' ) ( ^ W T W ^ W ^ W W W W W R R R R R R R W W W Q W Q W W W W W W W W R E ! E E Q R W Q R Q R Q E ! E ! ! E ~ E ~ ! ~ E E ! ~ ! R ! E R ! ! R R R R R R R F R F R ! F E ! E E ~ Q E Q E W R W I W R E R E Q R R ! E Q E Q ~ Q ~ ~ ) ~ ) ~ ~ ! ~ E ~ E Q E E E R R P A P P P A P A A I R F R ! R E E E R ! E E ! E R ! R E E E ! E W ! Q E ~ ~ ~ ~ ~ ) ~ ) ) ~ ) ) ~ ) ~ ~ ) / ) ! ) ) ` ! ` ~ ! ! ` #.O.6.6.O.o.~ R R R T F M c c e q 9 q w w y y y s d d d d S * S S S H S H H H S S H S S * d d g ",
"d d h * h * * * i % $ $ $ % $ $ # $ 9 9 e 9 9 5 k c M P R Q ) ` +._ ~ ! T ^ W W ^ W W U U W R R R R R R E R W W W W W W W W W W E E ! E E E E ~ E Q E ! E ! ! Q ~ ! E ! ! ~ ! ~ ~ ~ ! ! F ~ ~ F E ! E ! ! E F R R R F R R R F R F R R ! E E E ! E Q E Q E E E E R W W R Q R W R ! ! W Q W Q Q Q ! ~ ~ ~ / / ~ ~ Q ! Q Q Q E E R I I P I I I I A A A F R R R F R E E ! E E Q E E E ! E ! E ! ! E R ! Q E ~ ~ ~ ~ ~ { ~ ~ ` X.~ ~ ) ) ~ ) ) ~ ~ ( ~ ) ) ) ) ) ) ) ~ ! X.#.<.6.6.<.X.! R F R M M m v k e e e q 9 # * * * d F d d S S S S H S G S G S H H G S * H S d d d ",
"d F d d d F F d i * % $ $ $ $ $ # 9 # $ q 9 9 5 r c m P R Q ) ) ' ) ! ! ^ T ^ ^ ^ ^ ^ W W R U R E R R R R R R R R W W Q W W R Q Q Q ! E ! ~ E E E ! ! ! Q Q ~ Q Q ~ ~ ! ~ ~ E ~ ~ ~ ! { ~ ~ ~ ~ ! ! ! E ! ! ! ! R R R R R R R R ! R R E W E ! E E Q Q E Q Q E E ! W W W R W Q ! ! R R Q Q Q Q Q W ~ ~ ! ( ! ! ~ ~ ~ Q Q Q E Q R R R P R A I A A I I F R W E ! F E E R ! Q E Q Q ! R E R ! E F ! ! R Q E E ~ E ~ ~ ~ ~ ` ~ ~ ~ ~ ~ ) ) ~ ~ ) ) ) ) / ) ) ( _ ) ! ~ ~ ` #.2.6.6.O.O.! ! R R K K m c r 3 e 9 $ @ 9 & * d d * d d d * S S S S S G S H * H * G H * S d d d ",
"d d d d d d * * w % $ + $ @ O @ @ @ @ $ @ 9 3 5 k c m J I W /  .' ) ) ! T ^ W ^ ^ ^ ^ U R U U R R R R R R R R W W W W R W W Q W E Q ~ E E ~ E ~ Q ~ ~ Q ~ ~ ~ Q ! ) ) ! ~ ~ ~ Q ~ [ { ~ ` ! ` ~ ! ! ! ! ! ! E E R R R R R R R R F R F ! W E E ! ~ [ E { Q E E Q ~ W W E ! Q Q Q Q W Q W Q E Q E Q Q ~ ~ ! ( ~ ) ~ ~ Q ~ ! Q E R R I R A I A F R P F R R R R ! ! ! E Q E Q Q E ~ ~ E ! E E E E E ! ! E ~ ~ Q ~ ~ ~ ~ { ~ ` ~ ) ~ ~ ~ ) ~ ) ) ) / ) / ) ) ` ) ( / Q Q X.O.2.6.6.<.O.) R R R K K m v k e e 3 9 @ @ * & d d d S S d S S S H G S G S H S * S * H * S d d d ",
"d * d d * d d * % % $ $ $ @ O $ @ @ @ 9 @ 3 3 3 6 l m M R ! ) ) ` _ ( ! T W W W ^ ^ W W R R U U R R R R R R R R R E W W W W W Q Q ~ Q ~ E ~ E ~ Q ~ ~ ~ ~ ~ ~ ~ ) ! ! ) ~ ~ ~ { E ~ ~ { ~ ` ! ~ ~ ~ ~ ~ ! ! ! E R ! R W E R E E ! R R R W W ! Q Q Q Q Q Q { ~ E Q Q Q ~ Q Q Q ! Q Q Q Q Y Q Q Q Q Q ~ ~ ) ~ ) ! ) ~ ~ Q Q Q Q W R R I I R A F F R R R R ! ! ! ! ! ~ E Q E Q Q E E ! E ! ! E ~ E E ! ~ E Q ~ ~ ~ ~ ~ ~ ~ ~ ) ~ ~ ~ ) ! ) ) ) ) / / ) ) ) ! ` ) ~ ~ ! X.$.2.7.7.%.o.) ! R U P K m c k r 3 9 @ @ @ % & * d d d d d H * S S G S S S S S H S G * H * d d d ",
"s s s s i & & * % $ $ + $ + + $ O q $ q 3 3 3 2 r l m M R Q / ` +.` ( ( T W W T ^ W W W L U R R R R R R T W R W W W W W ! W ! ! Q Q ~ ~ Q Q ~ Q ~ ~ ~ ~ ) ~ ~ ~ ! ! ) ) ~ ~ ~ ~ { ~ ~ ~ { ) ` ~ ` ! ~ ~ ~ ! ! E ! ! R R ! ! F E ! R E ! R ! Q E E ~ E E ~ E E ~ Q Q Q Q Q Q ~ Q ~ Q Q Q Q Q Q Q ~ ~ ~ ~ ~ ) ) ~ ~ ~ ~ ! ~ ! Q W R E F F F E F E F R F ! E ! ~ E E E Q E Q Q Q E Q E ~ ! ! E E ~ E Q Q Q ~ ~ ~ ~ { ~ { ~ ) ~ ~ ~ ~ ) ~ ) ~ ` ) ) / ~ ) ) ) ~ { ~ ~ Q X.$.5.i.7.2.O.~ E R T T J M c c r e 9 9 $ % % * i s s s g d * G S S S S S S S F d h F s d s d * * ",
"& i i & & % * * $ $ $ + + O + O $ O O q q O 3 3 r k m A R W ) X.' ' ( ! W ^ ^ ^ ^ W L W T R T R R R R R W R W W W W W W W ! ! W ! ~ ~ ~ ~ ~ Q Q ~ ~ ~ ) ~ ~ ~ ) ) ) ~ ~ ~ ~ ~ ~ ~ ~ { ~ { ) ~ ~ ~ ~ ` ~ ~ ~ ! E ! R ! E R E R ! R W Q E Q Q Q Q Q E ~ { ~ ~ ~ E Q Q Q Q ~ ~ Q [ ~ ~ ~ ~ ~ ~ Q Q ~ ~ ~ ) ) ~ ) ) ~ ) ~ ~ ~ ! Q Q ! E E R R F F R R E F R W E E ~ ! E E E Q E E ~ ! E E ! ! ! ~ ~ Q Q Q Q Q ~ ~ ~ X.~ ~ ~ ~ ) ) ~ ~ ~ ~ ) ) ~ ) ~ ) ) ~ ) ~ ~ ~ ~ ~ ~ X.%.7.i.i.3.$.) E R R K M m v p r e t q 0 % % y w s s f d d h h h h h h H * d d d d & d d s d * d ",
"& * % % * % % $ + + + + + O O + 3 $ $ 3 3 3 3 2 6 k v A R E ) +.+.' ) ^ ^ T T ^ W W W R R W R R F F R R W R T W W W W Q W W ! ! Q ~ ~ ~ ~ Q ~ ~ ~ ~ ~ ) ) ~ ) ~ ) ~ ~ ~ / / ~ ~ ~ ~ { ~ ) ~ ~ ~ ` ~ ~ ~ ! { ! { ! ! ! F E ! ! R W Q Q ! Q ! Q E Q ~ E ! E ~ Q Q Q Q Q Q Q [ ~ [ ~ ~ ~ ) [ ~ { ~ ~ Q ) ) ) ) ) ~ ~ ~ ~ ~ ~ Q Q ! E R ! R F R F R F R R E R ! E E E E E Q E Q ~ E ! Q ! ~ E ! ~ E Q Q Q Q Q ~ ~ { ~ ~ ) ~ ~ ~ ~ ~ ~ ~ ~ ) ) ) ~ ) ~ ~ ~ ) ~ ~ E ~ ~ Q o.:.7.p.i.7.$.) R R K P b b c p r t t t t w w w s w i i s d d h S S h * S S d d d d d & s i * * d ",
"* % & * $ $ * + $ O + + + O O O O O O $ 3 3 3 3 r c m b I Q ~ ' #.' _ ! ^ ^ T W R W L U W T T R R F R T W W ^ W W W W W ! ! ! ! ~ ~ Q ~ ~ ! Q Q ~ ~ ) ) ) ~ ~ ~ ! ) ~ ~ / / ~ ~ ~ ! ~ ~ ) { { X.~ ` { ~ { ! ! ! E E ! ! ! E E ! W Q ! Q Q Q Q Q ~ E ! ~ E ! Q Q Q Q Q Q Q ~ ~ ~ ~ { ~ ~ ~ ~ ~ ~ ~ / ) | ) ) ) ~ ) ~ ) ~ ~ ~ ~ Q ! ! R R R F R F R R R R E R E Q E Q Q E ~ E E ! E ! E E ~ ! ~ ! Q Q Q Q ~ ~ ~ ) ) ) ~ | ~ | ~ ~ ~ ~ ~ ) ) ) ~ ) ~ ) ~ ~ ~ ~ ~ ~ ~ ~ o.2.y.f.p.7.$.) R T A M M m v a t e t 0 i i y w w w i i d i d h * * * h * d * * * d * d s & * * * ",
"& & % % % % + % $ + + + + + + + O q 3 r 9 3 3 3 r k v M I W ) +.' ' ( ^ ^ T ^ T W R W W W W W T T F R W W W W W W ^ W W ! W ! ! ! / ~ ~ ~ { Q ~ ~ ~ ~ ~ ) ~ ~ ~ ~ ~ / / ~ ~ / Q ~ ~ ~ ~ ~ ` { ~ { ` ~ ~ ~ ~ ~ ! ~ ! ! R E E ! ! ! ~ ! ! Q / Q Q ~ E { ~ ~ Q Q Q Q ~ Q E Q ~ [ ~ ~ [ ) } } ~ ~ ~ [ } ) ) ) | ) | ~ ~ ~ ` ~ ~ ~ ~ Q ! E R R R R R ! F R E E E Q E E E ~ E E E ~ E E Q ! ! ! ! E ~ ~ Q Q Q ! ~ ~ ~ ) ) { ) { ~ ~ ) ~ ) ) ~ ) ~ ) ~ ~ ~ ~ ~ E ~ ~ ~ ~ ~ o.2.7.f.p.3.O.~ R F T M m b v c t t t t i i w i w w i i i a * h d h d d d d d d * d * d * i & * * ",
"& * & % * + $ + $ + $ + + $ $ + O @ $ O 3 O 3 3 r k v A R R ) X.#.' _ ( T ^ T ^ W R T W R T R R R R R R R W W W T W ^ ! ! ! ! ! ! ~ ~ ~ ~ Q Q ~ E { ) ) ~ ~ ~ { ~ ~ ~ ~ ^ ~ / / ! ` ~ ` ~ ~ ` ~ ` ~ ` { ~ ~ { ~ E E ! ! ! E R ! ! ~ ~ ! Q Q Q Q Q ~ E ~ ~ ~ [ Q Q Q ~ ~ Q ~ Q [ ~ ) ) ~ ) ~ } ~ ~ / ) } ) ) ) ~ | { ~ ~ ~ ~ ~ ~ Q Q E W E F R R F E E ! Q E ~ E ~ ~ E E E Q E ~ ! E E Q E E ~ ! Q Q ~ Q ~ ~ ~ { { ~ ~ ) ~ ~ ) ~ ) ) ~ ) ) ) ~ ~ ~ ~ ~ ~ ! ~ ~ { ~ ~ X.2.7.p.i.3.O.~ R R F M m v c p r r q i % q w w w % i i i i * d * S d d * d d * d * d d * i * & & ",
"i % & * % $ + % + % $ $ $ $ $ + @ @ @ 9 @ 3 e 3 e k v M P W / ' ' ' ( ^ ^ T ^ T R R R W R W R R R R R R W W W W ! ^ ^ W ( W ( ! ~ ! ~ ~ Q Q Q Q ~ ~ ~ ) ~ ~ ~ ~ ~ ! ~ ( ( / / ~ ~ ~ ! ` ` ~ ~ ` ` ~ ~ { { ) ~ ~ ~ E ! E ! E ! ! ! ! ~ Q / Q ~ ~ ~ ~ ~ ~ ~ ~ ) ~ ~ ~ Q Q Q ~ Q Q { ~ ~ ) ) ~ ~ [ ~ [ ) ) | ) ) ~ { ~ ~ ~ ~ ~ ~ ! ! R E R R F R E R R E E Q Q ~ E E E ~ E ~ E E Q Q Q ~ E ~ E ! ! E Q Q ~ ~ ~ ) ) ) ) ~ ~ ~ ~ ~ ~ ~ ~ ~ ~ ~ ~ ~ ~ ~ ~ ~ Q ! ~ ~ ~ ) ` X.<.7.i.t.2.O.~ T F M M b c v p p t t q i q % w q i i i $ * * * * d d d d * * d d * d * * * * & & ",
"s s s % % * $ + $ $ $ % $ $ $ $ $ @ @ @ @ 9 3 3 r k v M R W ~ ` +.` _ ^ T ^ T ^ W W R W R T R T W R W R T W W ! T ^ W W ! ! ( ( ! Q ~ ~ ~ Q Q ~ { ~ ) ) ~ ~ Q Q Q ~ ! ( ! ! ~ ~ ~ ~ ~ ~ ~ ` ` { ~ ` ~ ` ) { ~ ~ ! E E ! E ! E ! ~ ! / Q ~ ^ ~ ~ ~ ~ ~ { ) ~ ) ~ ~ ~ ~ Q ~ Q ~ ~ ~ ~ / ) / [ ~ [ ~ ~ ~ ) ) ) } | ~ | { ) ) ~ ~ ! ! Q R E E E E R W W R ! E ! ~ ! ~ ~ ! E E ~ Q E E Q E E E ! E ! ~ Q ~ ! ! ~ ) ) ) ) { ~ ~ ~ ~ | ~ | ) ~ ~ ` ~ ~ ~ ~ Q Q ! ~ ~ ~ ) ) #.%.7.t.t.2.o.Q T F M M b v c p p r r q $ $ % % * q * i q O * * * d * d d * d * d d d & * & * & * ",
"* s i % % % $ $ $ $ % $ % $ % $ @ 9 @ 9 9 3 3 3 3 r v M R W / X.+.' / ( W T ^ T R W R R W R W R W R W W R E W W W W W ( ! ^ ! / ( ( ~ ~ ~ Q ~ ~ ~ ~ ! ) ) ~ ! ~ ~ Q / ( ! / / ~ ~ / ~ ` ` ! ` ! ` ) X.~ ~ ~ ~ ~ { F ! ! F { ! ! ~ ~ ~ ~ ! ~ ~ ~ ~ ~ ~ ~ ~ ~ ~ ~ ~ ~ ! ! ! ! E ~ ~ E ~ { } ~ ~ [ ~ } ) ) } | ~ ~ X.) ~ X.~ ~ ~ ~ ! ! E E R ! F R E ! E ! ~ ! ~ ~ ! ! F ` E E ! { ! ! E E W Q Q Q Q Q ~ ! ~ ~ ) ) ) ) ) ~ ~ ~ ~ ) ) ) ~ ~ ~ ~ ~ ! ~ ! ! { ! { ! { ) _ #.-.3.w.7.%.O.E F F M b m v c p p t q q % % % q * w i % * $ * * d i d s s s s * s i s i * * % % * ",
"s w s i % * % % $ % $ $ @ $ $ $ $ @ 9 @ @ 3 3 3 r c v M P W ) ` +.` ) ! T W R R R W ^ W T W T W R W E R W R W W W W ! W ! ! ( ~ ~ ! ! ~ ~ ~ Q ~ ~ ~ ) ) ) ) ~ ~ Q ~ / ~ ( ~ ! / ~ ~ ! ! ! ` ! ` ~ ) ~ { ` ~ ~ ` ! ! { ! ! ! E ~ ~ ! ~ ~ ) ! ~ ~ ~ ) ) ) ) ) ) ~ ! ~ ! ! F { { ! ! { ~ ~ / Q ~ Q ~ ~ ~ ) ~ ) ) ) ~ ~ ~ ~ ` ~ ~ ~ ~ E ~ E ! R ! F E E ! E E ~ ~ ! ` F ` F ~ ! { F E E { E Q ! Q W ! ~ ~ ! ~ ) ) ) ` ) ) ) ) ) ~ ) ~ ) ) ~ { ! E ~ ! ! ! ~ ! ! ! ~ ) ) X.$.3.7.6.%.X.! F F A b b m v c r e t q q q % w i i i i i i i i i i i i s * i s s s s s s % * % % ",
"s i s * i % % % $ $ % $ $ $ $ $ $ @ 9 9 3 3 3 3 r c b M R E ) +.+.) ) ! W ^ T L W W T R W W R W W W R R R F W W W W W ! W ! ( / ! ~ / ~ ~ ~ ~ ~ ~ ~ ) ) ) ~ ~ ~ ~ ~ ~ ) ~ / ~ Q ~ ~ ) ) ` ! ) ) ` ) ~ ~ ~ ~ ~ ~ ! { { ! { ! ! ~ ! ~ ~ ~ ! ) ) ! ~ ! ) ( ) ! ~ ! ! ! ! E ~ { ! ! ~ ~ ~ ~ } ~ / Q ~ [ ~ [ { ~ ~ ~ ` ~ ` ~ ~ X.! ) ~ ~ ! E R R R R E E E ! E ~ E ~ ! ! ! ~ ! ~ ~ ! { E E E Q Q ! ! Q / ! ~ ) ) ) ` ) ) ) ) ) ) ) ) ) ) ~ ~ ~ ! ! ! F ! { ~ ~ ~ ~ ~ ) ) +.$.2.6.3.-.X.! F F A Z Z b c t r t q t % * w i i i i i i i i i d d d * s * s & * s * * % i % * % ",
"* s i i i i w i % % $ $ $ $ @ 9 9 9 @ 3 5 3 3 3 6 c b M R Q ) X.#.X.) W T W R ^ T W T W T W R W R W R ! E ! ! R W W ! W ( ( ! ^ / ) ~ / ~ ~ ~ ~ ) ) ) ) ) ~ ~ ~ ^ ~ ~ ) ~ Q Q ~ ! ! ) ! ) ) ) ~ ) ) ~ { { ~ ` { ~ { ! ! F { { E ~ ~ ~ ~ ) ( ) ) ` ! ! ) ( ! ` ! ! ! E ! ! ! ! [ ~ ~ { ~ ~ ~ ~ ~ Q ~ ~ ~ ) ~ ` ~ ~ ~ ~ ~ ~ ~ ) ) / ~ ~ ! ! R W W ! E ! E ~ ! ~ ! ! ! ! ~ ~ ! ~ ~ Q ~ Q ~ Q ! ^ ! ! ! ( / ) ) ) ) )  .) ` ) ) ) / ! ~ ! ~ ! ! E ! ~ ! F ~ ~ ~ ) ) ) ) +.$.1.4.2.$.~ ! F F A A Z v v a t r q q q w w w i i i i f f i i d i d d * d w i s s & s y % % % % ",
"* s i i i i i % % % % $ $ $ $ $ $ @ 9 9 3 3 3 6 r c b A R [ { o.$.X.` ! T W W T W W R R W T W W F ! R ! E F E ! R W W ~ ! ( ~ ! ) ~ ~ ) ~ ~ ~ / ! ) ! ` ! ) ! ) ~ ~ ~ ~ ~ ~ ~ ~ ~ ~ ~ ~ ) ` ` ~ ~ ` ~ ~ ` ~ ~ { ) ~ ~ ~ Q Q ~ ~ ~ ~ ~ ) ) ~ ` ~ ! ` ~ ~ ) ( ! ! ! ! E E Q Q ~ Q Q ~ ~ ~ / ~ Q ~ ~ ~ ~ { ) ~ ) ~ ) ~ ~ ` ` ~ ~ { ~ / ~ ! W R W W { F ! ! ! ~ ~ ! F ` ! F ~ ! O.F Q Q E ~ ~ E ! ! / ! ~ ) ) ) ) ) ` ) ) ) _ ) ) ) ) ( ~ ! ! W E ! E { ! ! ! ) ) ) _ ) +.#.<.2.<.#.X.F F F M M A v v t p q i w q w w i i i i s i f s s s & i s & i i i y % s w * w % % % ",
"i i w i i w i w % w q $ $ $ @ @ $ 9 9 @ 9 9 3 3 r l b Z R { X.$.<.#.` Q L T R R ^ W L ^ W W W T ! ! E R ! ! E E W W ! W ! ! ~ ~ ~ ~ ~ ) ) ~ ~ ~ ) ! ` ! ) ) ) ! ~ ~ ~ ~ ~ E ~ { ! ~ ~ ) ) ! ) ) ~ ~ { ~ ~ ~ ~ ~ ) { { ~ ~ ~ ~ ~ ~ ~ / ~ ~ / ~ ) ) ! ` ) ) ! ! ) ~ ! ! E Q ~ Q ^ ~ ~ ~ ~ ~ ~ / Q ~ ~ ~ ~ ) ) ~ ) ) ! ~ ~ ) ~ ` ~ ) ~ ! W ! W R ! F { F E E ~ ! ~ ~ ! ! ! ! ~ ! ~ ~ ~ ~ ~ ~ ~ ~ ~ ( ( / / ) ) ) ` ) ) ) ) ) ) ( ( ) ! ~ ! Q Q ! ! ! F ! ~ ~ ) ) ) ` ` +.=.<.2.<.#.X.E F F M M m m c p r r r t w w w i w i i i s s s d s s i i i & % s % s % y % % i % % ",
"% % i i i % w * * % w % # $ @ + @ 9 @ 9 9 3 3 3 6 c b Z E { $.2.6.%.X.Q R R R R L W T W W W W W E E R ! R ! ! ! W W ! W ! Q Q ~ ~ ) ~ ~ ~ ~ ~ ) ) ) ) ` ` ! ) ! ~ ~ ~ Q Q ~ { F ~ Q ~ ~ ) ) ~ ~ { ~ ~ ` ~ ` { ` ) ) ~ ~ ~ ~ ~ ~ / ) ~ ~ ) ) ~ ) ~ ` ) ! ) ) ! ) ~ Q Q Q Q Q ~ ! ~ ~ Q ~ Q ~ Q Q ~ ~ ~ ~ ~ ~ ~ ~ ` ) ) ) ) ~ ~ ~ ! ~ ! ! R R W R ~ E E ! ! ~ ~ ~ ! ! ! ~ ~ ~ ~ ~ ~ ~ ~ ~ ~ ~ ~ ~ ) ~ ) ) ) ) ) X.` ` ` ( ) ~ ) ) ( ) ! ! Q ! Q E ! ~ ! ~ ! ! ~ ` ' ' ' ] <.6.<.#.` F F F M M m v c t r q q i w i % i * i i s s s i s i i i s & * i % * & & * w * % w % ",
"% % % % % s % w w w % 0 # $ @ @ @ @ $ 9 9 9 9 5 r c V V E X.$.3.7.2.O.~ T L R W W W W W T W W W ! ! ! ! E ! E R W W W W ! Q ! ~ ~ ~ ) ~ ~ ) ) / ! ) ) ) ( ) ) ) ~ ~ ~ ~ ~ Q ! ! ~ ~ / ) ) ) ) ~ ! { { ~ ~ ~ ~ ~ ~ { ~ ) ~ ~ ~ ~ ~ ~ ~ ) ~ ~ ) ~ ! ) ) ) ) ) ! ~ Q Q Q Q Q ~ Q ~ ~ ~ / ^ / ~ ~ Q ! ~ ~ ~ ~ ) ) X.{ { ~ { ) ~ ~ ~ ( ~ ! W W W R W E E R ! ! ! ~ ! ~ ! ~ ~ ~ ~ ~ ~ ~ ~ ~ ~ ~ ~ ~ ~ ~ ) ) ) ) ) ) ) ~ ` ~ ` ) ) ! ) ~ ! ) ! ! Q ! Q F ~ ~ ! ~ ! ` ` ' ] =.<.<.2.<.#.` F F F M M m n v r r r q q w % i i i i * i i s i s s s & & & * % * % % i % % w w % w ",
"% % % % % i % w * i * % % $ @ @ $ $ @ @ % 9 e 3 r c v A E o.%.7.w.2.O.! R R R W W Q W W W W W Q W ! ! W Q Q W Q W R ! W Q ~ Q ~ ~ Q ) ~ ~ ) ) ~ ) ) ) ) ) ) ) ! ! ` ! ` F ~ ! ! Q ~ ~ ) ) ) ~ ) { { ~ { ) ) ~ ~ { { ~ ) / ) ~ ) ~ ) ) ~ ~ ~ ~ X.` ) ) ) ) ) ~ ~ ~ Q Q Q Q ^ / ( ( / ~ ~ ~ Q ! ~ ! ~ ~ ~ ~ ) | | ) | ~ ) ~ ~ ~ ~ Q ! ! W W W W R E R E ! ! ! ! ~ ~ ~ ! F X.~ ` ~ ) ! ~ ! ~ ~ ~ ) ) ) / ) ) ) ` ) ) ` ) ` _ ~ ) / ) / ~ ! ~ ~ ~ ~ ` ~ ~ ~ ! F O.` ' &.=.=.1.1.<.` ` R R M M m m c k r r q q q i * w i % i w s * w s i i i y % i % * % * % * % w % w % % ",
"w % % i w % w * % w y % % $ @ @ $ % q % q 9 e 3 r c m Z E ..%.7.i.6.%.o.! ! Q ~ ^ ^ Q Q ! Q Q Q ! ~ ^ Q Q ~ Q Q Q W ! Q Q ~ ~ ~ ~ ~ X.~ ~ ~ ~ ~ ) ~ ) ) ) ~ ) ) ! ! ! ! ` ~ ~ ~ Q ~ ~ / ) ) } [ ~ ~ ~ ~ ) ~ ) ~ ) ~ ~ ~ ) ~ / ~ ~ { ~ { ) ~ ~ ~ ) ) ) ) ) ) ~ { ~ ~ ~ ! Q ~ ! ~ ~ ! ) ) ~ ~ ~ ! ~ ~ ~ ~ ~ ) ) ~ | ~ X.~ ~ ! ~ ~ ! ! Q W W R W Y R ! ! E ! ! ( ~ ! ~ ~ ~ ~ ` ~ ~ ( ) ) ) ) ~ ~ ~ ~ ) ) ) ) | ) X.X.) ` ` ` ) ` ` ) ) ) ) ~ ~ ~ ~ F ~ ! ~ ` ` ` ` ] =.=.1.1.1.<.#.~ R F M M m m c c r r q q w i w w & % w * s s s * s i & & & % % % % % * % * % i % w w ",
"i % % w i % % i i % % % % $ $ $ $ $ q i q q e 6 k c b A F X.%.7.i.3.2.O.{ { ~ ~ ) ) ) ) Q Q ~ ~ ) ) ) ~ ~ ~ ~ Q Q Q Q ~ ~ ~ ~ ~ ~ ) ~ ) | ~ { ~ ~ ~ ~ ) ) ~ ! ~ ~ ! ~ ~ F ` ! ` Q [ ~ ) ~ ) ) ~ ~ ~ ~ { ~ | ~ ~ { ~ | ~ / ) / ~ ) ~ ~ ~ ~ | ~ ) ) ) ) X.) ~ ~ ~ ~ ! ! ! ~ ~ ~ ~ ~ / ~ ~ ~ Q ~ ! ~ ~ ~ ) { ) ) ~ | ~ ~ ~ ~ ` ~ ! ^ Q ! W W W W W E E ! Q ! ) ) ! ~ ~ ~ ~ ~ ~ ` ~ ) ! ~ ~ ~ ~ ~ ~ ~ ) ) ) ) ) ) X.) +.` X.+.' +.+.+.' ` ) ` ~ ~ ~ { ! ` ! ` ` #.' =.=.=.;.1.1.<.#.` R K M M m m v c r r e q t w w w w s % s * & s & s & * & % % % % % % % * % % i i w w ",
"w & w * % w % % % w % % 0 # $ % % q q i q q e 6 r v v A E X.%.7.i.7.3.$.O.O.X.o.| } ) } ) ) ) ) ) } ) ) ) ) ) ~ ~ ~ ~ ~ ~ { ~ { ) { ~ | ~ ~ ~ ~ ~ ~ ) ~ ~ ~ ~ ~ ~ ~ ~ ~ ` F ~ F Q ~ ~ ~ ~ } ~ } } { ~ ~ ~ ~ | ) ` ) ) ~ ~ ) / ) ~ ~ ~ | ~ ~ | ~ ) ` ) ~ ) ) { ~ ) ~ ! ! ~ ! ! / ~ ~ ~ ~ ~ ~ ~ ! ~ ~ ~ ) ) ) ) ) ~ ) { ~ ~ ` ~ ~ ~ Q Q W W I W U E ~ ! ! ! ! ! ) ~ ~ ~ ~ ~ ~ ! ` ! ` ) ~ ) ~ ~ ~ ~ ~ ) ) ) _ ) ) ` ) +.+.+.+.+.&.=.+.+.X.X.) ) ~ { ` ` ` ` ' ' #.=.=.;.-.1.1.=.' ` R K J M m m k p p q 9 q 0 w y & % s & & * s i s s & % % % % % % % % * % % * % i * i ",
"s % % w % * % % % % % $ % % 0 0 0 w t w t q r 3 r c b A E { %.7.w.7.7.2.:.$.@.#.X.| | X.| | | | | | } ) | ) ) ) ) ~ ~ ~ ) { ~ ~ ) ~ ) ) ~ { ~ ~ ~ ~ ! / ! ~ ~ ~ ! ) ! ! ~ ~ ~ Q Q [ Q } { ) ~ / ) ~ / ~ } ~ { ) ~ ~ ) ~ ) ) ~ ~ / [ ~ ~ { ~ { X.~ X.X.~ { ) ) ) ~ ! ! ! ! ! ! ~ ~ ) ~ ~ ~ ~ ~ ~ ! ~ ~ ~ ) ) ~ ) ~ { ) ) ) ) ! ~ ~ Q Q W W W W Q E Q E ~ ) ! ! ! ~ ~ ~ ~ ) ( ) ) ) ! ) ) ~ ~ ~ ~ ~ ~ ~ ) ) ) ) +.+.+.+.+.&.*.=.-.-.=.&.+.` ) ) ) ~ ) ) _ ` ' ' <.-.;.;.;.1.1.-.+.! W F M M M m v r r e q q 0 w w y & s % s & s s i * & % % $ & % % % % % * % % * * * w ",
"& s y y y % % % $ % q $ $ % % % w w t q q q r 3 r c v Z F o.O.3.7.3.2.-.$.@.o.+.X.+.X.X.X.X.X.+.X.+.X.#.+.+.+. .| | | ) | X.X.` X.X.X.) ) ~ ~ ~ ~ ~ / ! ~ ! Q Q ! ! ! ! Q Q ~ E E Q ~ ~ ~ ~ ~ / / ~ ~ ) } ~ ~ ) ~ ` ~ ) ) ~ ) ) ~ ~ ~ } ~ { ) ~ ~ ~ ~ ` ) ) ) ) ) ~ ! ! ! ) ~ ~ ~ ~ ~ ) ) ) ! ~ ~ ~ ` ~ ) ) ) ~ ~ ) ~ ~ ~ ~ ` ~ Q Q Q Q Q W W Q ! Q ~ ~ ! ` ! ` ~ ~ { ~ ) ) ) ) ) ` ) ! / ~ ~ ~ ~ / ) ) ) ) ) X._ | +.+.+.&.*.;.1.-.-.#.+.#.$.#.$.$.=.=.#.<.=.=.-.=.=.-.=.=.#.X.~ R K T M M m v c r e q q t w t y y % y s s * s s & & % % % % % * % % * % * w * % i * ",
"s s * * % % % % % % $ % $ q % $ w w w w t q r 3 k v N m F { o.%.3.2.-.$.O.#.@.o.o.o.o.@.o.$.o.$.@.*.$.$.@.@.+.o.o.+.+.+.X.#.X.X.X.` X.` X.~ ~ ~ ~ ~ ~ ~ ! Q ! Q R ! ! ! ! Q E ~ E Q E ~ ~ ~ ~ ~ ) / ~ ~ ~ ~ | ) ~ ~ ~ ~ ) ~ ~ ~ ~ Q ~ ~ ~ ~ ~ ~ ` ) { ~ ) { ~ ~ ~ ~ ~ ! ! ~ ~ ~ ) ~ ~ ` ) ! ! ) ~ ~ ~ ~ ) ) ! ) ) ~ ` ` ~ ~ ~ ~ ~ Q ! Q ! ! ! ! ~ ~ ! ~ ` ! ) ! ~ ~ ) ) ! ` ) ) ! ) ) ! / ~ ~ ~ ~ / ~ ~ ) ) X.) |  .' +.+.=.;.;.4.1.1.-.-.<.2.4.7.6.8.4.1.1.<.=.&.&.+.+.#.+.+.) ! R T M b M m v c r e q t w s y s t s y & s s s s y % % % % % % % % % % w % * i % * % ",
"s * s % & % % % % @ % @ % $ $ % $ 0 w w t r e e r c V A F E X.O.-.$.$.O.X.X.o.o.@.@.$.$.$.:.:.:.:.2.:.-.-.-.-.$.*.+.@.@.@.+.+.@.+.#.X.X.) X.| ) ~ ~ ~ ! Q E Q W ! ! ! ! E E Q E E E Q ~ ~ ~ ~ { ~ ~ / { ) ) ~ ~ ~ ` X.~ ~ ) ) ~ ~ ~ ~ ~ { ~ ~ ) ~ ) ~ ~ ~ ) ) ) ) ~ ~ ~ ~ ~ ~ ) ~ ! ! ! ! ) ! ! ! ~ ~ ~ ) ) ) ) { ) ~ ~ X.~ ~ ~ Q ^ Q ! Q ! / ~ / / ) ) ) ) ) ` ~ ) ) ! ) ) ` ) ) ) ) ) / Q ~ Q ~ ~ / ) ) ) ) | ) X.` +.&.-.4.6.q.0.0.1.<.6.0.w.d.d.e.0.0.1.1.=.&.+.+.' X.' ) Q W R T K A Z Z m p t r t t t f s s s s & s s s s s * % % % & & % s % s % i w % % * % % ",
"d i & & & & % & % # $ $ $ % $ % % % w w q q e 6 r c v Z A [ [ { #.X.X.X.X.X.O.O.$.$.%.:.:.3.3.:.3.5.4.4.4.1.:.;.:.-.-.$.-.$.$.#.#.#.+.+.+.` ) ) ) ~ ~ Q ! W R ! R ! E ! ! E ! E E E ! ~ ~ E ~ Q ~ ~ ) ~ ) { ) ) { ) ) ~ ~ ~ ) ~ / ~ Q ~ ~ ~ ~ ~ ~ / ~ ) ) { ) ~ ) ~ ~ { ~ ~ ) ~ ~ ~ ~ ~ ) ! ! ! ! ! ! ( ! ) ) ) ~ X.) ` ) ~ ~ ~ ~ ~ ! / ! ~ / / ) ) ) ) ) ) ) ~ X.~ X.~ ) ~ | ) ) / ~ ! / ~ Q ~ ~ ~ ~ ~ ) ~ ) ) ) | ) ` &.=.8.0.e.q.q.0.6.w.a.x.c.v.c.d.e.0.4.;.+. .) ) / ) ~ Q U U J K A A M v c t q r a a f f g s s s s s s g s y & % % & % % i w i w i % % % % % $ ",
"* s d & * % % + % $ # # $ $ % $ % q w q w r e 6 r l m N A [ { { #.X.` X.) X.X.X.$.%.%.:.:.2.3.5.3.5.5.5.3.3.2.2.-.-.*.*.-.$.<.-.=.+.=.+.X.) | ) ~ ~ ~ Q E ! ! W F ! ! F F E E F E ! ! ! ! { ~ ~ ~ ~ ~ { ) ~ ) ) ) ) ) ~ { ` ~ ) ~ Q ~ Q Q ~ ~ ~ ~ ~ ~ } ~ ) ) ) ~ ~ ~ ~ ~ ~ ~ ~ ) ~ ! ) ! ! ! ) ) ! ) ( ) ! ) ` ` ~ ~ { ) ) ~ ~ ~ Q ~ / / ( / ) ) _  .) ) ) ) ` ) ~ ~ ) ) ` ) ) ) ~ ( ~ ! ~ Q ~ ~ ~ } } ~ | ~ | ) ) ' '  .;.;.0.e.e.w.0.6.w.d.c.n.n.v.j.a.0.4.-.+._ ) _ / ^ Q W I U K P J M A v c p r t a a f f f s s f s s s s s y & & % % % s i i w w w w i * % % * ",
"s s * & & % % % $ # $ $ $ % & % % $ w w q e 3 6 k k b Z F F ) X.+.` X.X.X.o.o.O.%.%.%.:.:.3.3.3.6.5.6.6.4.2.2.:.2.-.=.-.-.-.%.$.$.#.+.+.+.X.| ~ ~ ~ ~ W ! E E E ! F ! ! ! E E E E E E ! ~ E ~ ~ ~ { ~ ) ) ~ ) ) ) ) ~ ` ` ~ ~ ~ / ~ ~ Q Q Q ~ ~ ~ ) ~ ~ ~ ~ ~ | ~ ~ ~ ~ ~ { ~ ) ) ! ) ( ! ) ! ! ~ ~ ) ! ) ! ` ~ ~ ~ ~ ~ { ) ) ~ ~ ~ ! Q ( ! ) / ) ) ) ) | ) ) ) ~ ` ~ ) ) ) ` ) ) ) / ~ / ~ ~ Q ~ ~ ~ ~ { ) ) ) X.) _  .+.=.;.q.e.w.q.q.0.w.d.c.n.n.c.x.h.q.4.=.+.| ) ~ / ^ Q W R U P K P M b v v t e r p i f g g f s s s s d d s & & % % % w w w i w i w i % % * $ $ "
};
