/* XPM */
static char *b88604f934b141c2e1fa868248b1ea58e04ieQSWaRrS6OWS[] = {
/* columns rows colors chars-per-pixel */
"64 64 184 2 ",
"   c #041E04",
".  c #080F1F",
"X  c #062107",
"o  c #072108",
"O  c #09220A",
"+  c #0C2F08",
"@  c #0D3009",
"#  c #152C17",
"$  c #172D19",
"%  c #163512",
"&  c #050F24",
"*  c #080F22",
"=  c #061126",
"-  c #091125",
";  c #061128",
":  c #0A142C",
">  c #0D192D",
",  c #121C2E",
"<  c #0B1633",
"1  c #0D1935",
"2  c #0E1B3B",
"3  c #121D34",
"4  c #111D3B",
"5  c #172235",
"6  c #1B2535",
"7  c #15233E",
"8  c #192539",
"9  c #1D293D",
"0  c #213524",
"q  c #232C3C",
"w  c #282F3E",
"e  c #27303F",
"r  c #29303E",
"t  c #0F1D42",
"y  c #101E43",
"u  c #132243",
"i  c #192544",
"p  c #172947",
"a  c #1B2A44",
"s  c #13244B",
"d  c #1B2B4C",
"f  c #142651",
"g  c #162954",
"h  c #1A2C53",
"j  c #172A58",
"k  c #192D5B",
"l  c #1C315D",
"z  c #242E42",
"x  c #273040",
"c  c #2C3443",
"v  c #2F3845",
"b  c #24334E",
"n  c #2B374E",
"m  c #2E384C",
"M  c #313844",
"N  c #343C4B",
"B  c #383E4D",
"V  c #243453",
"C  c #273857",
"Z  c #2D3B54",
"A  c #23365C",
"S  c #253A5E",
"D  c #2E3E5B",
"F  c #313E51",
"G  c #1B2E61",
"H  c #1D3363",
"J  c #1D3669",
"K  c #1E396D",
"L  c #1F3A70",
"P  c #213766",
"I  c #223964",
"U  c #2C3E63",
"Y  c #203769",
"T  c #223B6C",
"R  c #233E72",
"E  c #3A404D",
"W  c #364050",
"Q  c #3C4352",
"!  c #34435C",
"~  c #29426C",
"^  c #374B6E",
"/  c #3A4E6F",
"(  c #394863",
")  c #254175",
"_  c #294476",
"`  c #2E4875",
"'  c #2A4679",
"]  c #2E497A",
"[  c #314670",
"{  c #354D75",
"}  c #3B4F74",
"|  c #324C7C",
" . c #36507F",
".. c #3D527C",
"X. c #3B5174",
"o. c #43464B",
"O. c #404653",
"+. c #454B54",
"@. c #4A4E55",
"#. c #494F5A",
"$. c #4E5157",
"%. c #4D525B",
"&. c #53555C",
"*. c #55585E",
"=. c #465162",
"-. c #46556E",
";. c #535761",
":. c #565A61",
">. c #5A5D64",
",. c #5A5F68",
"<. c #405272",
"1. c #4D5E76",
"2. c #42577C",
"3. c #44597E",
"4. c #545F73",
"5. c #5C6167",
"6. c #5E6269",
"7. c #556076",
"8. c #5F6877",
"9. c #51607E",
"0. c #5B677C",
"q. c #62656D",
"w. c #64686F",
"e. c #666A71",
"r. c #6A6E75",
"t. c #616D7F",
"y. c #6C6F78",
"u. c #6C7077",
"i. c #6F747C",
"p. c #6F747E",
"a. c #6E727A",
"s. c #70737B",
"d. c #70737C",
"f. c #70747D",
"g. c #71757E",
"h. c #71767E",
"j. c #72777F",
"k. c #71767D",
"l. c #71757E",
"z. c #73787F",
"x. c #73787F",
"c. c #3C5481",
"v. c #425983",
"b. c #4A5D80",
"n. c #4D6286",
"m. c #4C6188",
"M. c #596681",
"N. c #5C6A84",
"B. c #50678D",
"V. c #5B6B8A",
"C. c #5F7293",
"Z. c #666F80",
"A. c #727780",
"S. c #717780",
"D. c #727780",
"F. c #737880",
"G. c #737982",
"H. c #747981",
"J. c #757982",
"K. c #757A83",
"L. c #767A83",
"P. c #767983",
"I. c #767B84",
"U. c #757A84",
"Y. c #777C84",
"T. c #777D86",
"R. c #777E86",
"E. c #757A82",
"W. c #787D86",
"Q. c #797E86",
"!. c #797E86",
"~. c #797E86",
"^. c #7B7F88",
"/. c #7A7F88",
"(. c #687791",
"). c #6B7A98",
"_. c #7C8187",
"`. c #7B8088",
"'. c #7D828A",
"]. c #7D8289",
"[. c #82868E",
"{. c #81858E",
"}. c #82888F",
"|. c #848991",
/* pixels */
"K.Y.Y.W.W.Y.Y.Y.Y.I.f.K.K.f.f.i.r.f.a.a.i.a.a.a.a.a.a.i.a.y.i.f.f.a.f.f.f.F.f.F.a.f.K.F.K.K.K.F.F.a.f.K.K.K.F.K.K.K.K.K.F.a.f.f.",
"K.I.I.I.f.F.K.I.I.K.f.F.f.a.f.f.i.f.f.a.f.a.a.a.a.d.i.i.u.r.a.d.f.f.f.a.a.F.f.F.a.i.f.i.f.f.F.K.F.a.i.K.f.K.f.K.K.^.K.D.f.a.f.F.",
"K.K.Y.O         O f.f.A.i.a.f.a.i.f.f.a.i.a.a.a.a.u.a.a.a.r.a.f.f.f.f.a.a.f.f.x.a.i.f.a.f.f.K.F.f.a.a.f.a.K.K.W.O         o f.K.",
"i.f.    K.K.K.Y.K.f.a.A.A.a.a.a.a.a.a.f.a.a.a.i.a.a.a.a.a.r.a.f.f.a.f.a.a.a.f.A.f.a.F.f.i.f.f.K.f.i.a.f.a.K.K.A.a.d.a.a.a.    i.",
"d.i.  W.W.`.f.F.f.i.f.K.K.f.f.a.a.f.f.F.i.f.a.i.s.d.d.f.a.a.a.f.x.F.f.f.a.a.f.f.a.a.f.i.a.a.f.f.f.f.a.a.a.f.F.i.a.f.A.i.f.F.  f.",
"f.f.O }.{.Y.K.F.f.f.F.Y.I.f.K.i.a.f.K.K.i.f.d.a.a.i.i.f.a.a.a.f.F.f.a.f.f.i.f.K.f.f.f.A.i.f.F.f.f.F.f.y.y.f.K.f.f.K.f.Y.'.{.  F.",
"I.A.  |.{.K.I.K.x.f.f.F.f.a.a.r.y.a.i.d.a.a.a.a.i.a.i.f.i.a.a.y.a.a.a.a.a.a.a.a.a.f.F.K.f.K.K.f.f.K.K.f.u.f.f.f.F.K.F.K.{.{.  f.",
"I.f.  '.{.'.W.K.F.a.a.i.f.i.i.f.f.f.i.F.F.f.i.f.f.a.i.f.f.a.a.a.a.a.F.F.F.A.f.f.d.f.K.K.F.F.K.f.f.K.K.K.F.K.i.a.F.K.K.'.{.{.  a.",
"K.K.  Y.K.'.^.K.f.a.f.f.f.f.f.f.f.f.a.f.A.f.i.f.f.a.a.i.d.y.r.a.a.d.a.K.f.f.K.f.a.d.K.K.f.d.F.f.f.f.K.I.f.K.f.a.f.K.K.W.K.W.  a.",
"Y.K.  ^.K.F.K.I.F.f.A.f.F.F.f.K.K.f.a.a.i.a.d.a.f.i.a.f.f.a.a.F.a.f.a.F.f.f.I.K.f.f.K.K.F.f.K.f.f.i.K.I.f.K.F.a.i.Y.K.Y.Y.W.o f.",
"f.K.'.Y.Y.I.K.K.f.f.f.i.F.K.A.F.f.i.a.a.a.a.a.a.i.f.i.f.f.a.i.A.i.A.f.F.K.K.f.K.K.K.K.K.K.Y.Y.F.F.f.Y.Y.W.Y.K.f.a.W.Y.Y.Y.Y.K.K.",
"L.K.K.K.f.f.f.F.f.i.f.f.F.F.f.f.f.f.a.a.a.e.a.w.w.q.e.q.e.q.e.q.q.r.w.q.e.r.q.e.e.e.r.e.e.e.r.e.5.*.>.5.:.5.>.>.5.y.r.y.r.r.r.e.",
"q.e.r.q.q.5.q.5.q.q.q.5.q.q.5.5.5.5.5.5.q.5.>.5.q.5.5.5.5.5.>.:.:.5.q.q.r.e.r.r.f.a.e.w.>.>.&.&.&.$.$.$.$.$.$.$.$.&.&.:.:.>.5.:.",
"q.e.r.q.q.5.q.q.a.e.r.r.r.d.s.e.F.r.a.i.a.a.r.a.e.5.,.6.>.:.&.*.*.:.5.,.,.>.q.q.e.a.a.i.i.A.Y.W.W.W.W.W.Y.W.W.Y.F.W.Y.K.K.W.W.I.",
"a.K.i.f.K.f.f.f.f.A.f.f.Y.f.f.d.K.f.f.a.e.q.>.;.M q c v q q q q 9 6 6 q q 6 c Q %.5.q.q.>.5.r.K.I.K.`.W.K.Y.`.W.F.^.^.I.Y.^.^.^.",
"K.K.K.W.I.K.K.Y.F.F.Y.K.K.K.A.f.f.a.q.5.@.q 6 6 , : - ; - . . - - - - ; - ; ; ; > 3 3 5 q q @.5.r.f.I.^.^.K.'.Y.Y.`.'.K.Y.'.'.'.",
"W.f.K.K.K.K.K.I.f.K.K.K.f.K.d.e.5.,.Q 3 ; & & ; ; - ; - * * * ; * - ; ; ; : : < 3 4 7 n 8 > 3 q v :.q.a.Y.`.Y.^.I.'.'.W.'.'.'.'.",
"I.f.I.K.K.K.K.K.d.F.A.F.d.r.6.>.@.5 ; ; ; ; ; ; : : : : : : : < > > : < < < 4 4 7 Z 4.i 7 i 7 9 , q q O.r.Y.K.I.W.^.`.W.'.'.^.^.",
"K.f.K.f.d.a.s.a.f.F.f.a.q.>.:.c : ; ; ; : ; ; : : ; ; ; < : : 1 : : : 1 2 4 u d 7.-.u u i 7 i 4 3 z q q E r.i.K.K.^.W.Y.^.`.K.K.",
"d.a.a.u.a.u.f.f.f.f.u.q.>.%.6 ; ; : : : : : : < < : : < 2 1 1 2 2 2 2 4 y u V 1.h s s C u 4 1 1 4 8.=.z z M e.f.K.^.Y.Y.K.K.F.f.",
"f.a.a.s.f.a.f.f.a.r.5.>.@.5 ; : : : < < < < < 1 1 2 2 2 2 y 4 y u u u u s M.9.h h h h s u 2 2 u Z.u 3 3 9 v c r.K.^.W.`.^.^.^.F.",
"d.f.W.K.K.f.f.f.u.5.:.%., ; < < < < < 1 1 2 2 2 2 t t y u u u s s s s S N.I l A l k g s u y 0.t.2 2 2 4 a 9 c O.f.W.^.^.'.{.'.K.",
"d.f.W.{.K.a.f.f.e.>.:.> ; 1 1 1 < 1 2 2 2 2 2 t t y u s s s s f h k V.V.H P P P P l g s s N.( 2 2 2 2 4 i a q r r.Y.^.^.{.|.'.`.",
"a.f.'.{.W.a.f.r.5.>.5 : 2 2 1 2 2 2 2 2 2 t t u u s s s g g k k I ).{ P Y Y T T Y H k } (.h y y u u 2 y i V 8 x >.F.W.W.{.{.{.'.",
"y.'.'.f.'.K.f.e.>.,.: : 2 2 2 2 2 t t t t y s s f g g j k l H n.C.T Y T T R R R T Y ` b.g f s s s s s u s C C q v f.^.'.{.`.W.W.",
"a.W.f.f.f.A.f.e.5.Q > 2 y t t u y y y s s s g g k k H H P T m.) T T T R ) R ) R _ _ _ H k j j g f f f g h U U q w f.W.W.Y.Y.`.Y.",
":.&.&.&.$.&.$.@.o.M < u s s s s s s f g j k l H H H Y Y v.| T R R R R ) ) T ) ] ' R K K J H G G k k k l P [ / e q w.r.r.e.e.e.r.",
"e.*.>.:.&.e.:.&.o.+.3 s g f g g g j k k H H Y T T R ) B.) R R R R R ) ) ) ' _ ) ) ) R R T K J J J J J Y _ { ( r 5.K.Y.F.K.K.r.i.",
"a.i.a.i.f.f.f.r.:.&.q 1 k l k k H H H J T T R ) ) _ | ) R R R R R ) ) ) _ ) ) ) ) ) ) R R L K K K T R ) | X.c E y.Y.W.W.F.A.f.f.",
"F.F.a.f.f.F.f.y.w.:.r 8 s H H H Y Y T T R ) ) )  .) ) R R ) R ) R _ ) ) ) _ ) ) ) ) ) ) R R K K R R _ ..2.W c r.f.K.Y.K.f.K.K.f.",
"s.F.a.K.K.K.f.f.d.5.@.E 8 2 T T R _ _ _ _ _ _ ] ) ) R ) ) ) ) ) ) ' ) ) ) ) ) ) ) ) R ) R L L R ) | v.3.Q N q.f.d.K.I.K.K.K.K.f.",
"K.K.i.K.f.f.f.f.F.r.:.$.%.c u I _ ] ] ' ] ' ' _ _ ) ) R R ) ) ) ) ) ) ) _ ) ) ) ) ) ) R ) R ) | c.v.<.Q B r.D.f.x.K.K.K.K.K.K.f.",
"f.K.K.f.f.f.f.i.K.F.e.>.>.>.O.u p ~ | | | | ] ] ' _ ) _ ) ) ) ) ' ' ' ' ' _ _ ) ) ) ) ) _ | c.c...! N O.e.f.K.K.K.K.K.K.K.K.K.K.",
"a.f.f.f.F.a.a.a.A.K.f.e.q.&.&.:.F u p S | | | ' ] ] ' ' ' ' ' ' ' ] | | | ] ] ] ] | c.c.c...} ! N v >.e.a.K.Y.Y.K.K.K.K.K.K.I.K.",
"y.W.W.a.'.a.a.a.a.A.f.a.a.5.&.&.5.>.F a u d ` _ _ _ ` ] ] ] ] |  .c.c.c.c.c.v.v.v.3.^ D n n v N #.w.r.f.f.F.Y.Y.F.A.I.'.{.W.'.'.",
"a.Y.'.'.'.K.d.i.f.f.K.K.K.a.r.q.5.:.>.5.%.z 7 7 7 u u a a a a a b b b V Z Z Z Z F N N E E ;.5.r.a.a.f.K.f.f.K.K.K.K.F.I.'.{.{.Y.",
"a.f.W.'.'.K.F.f.K.K.I.K.K.K.K.f.f.r.q.q.q.5.>.:.>.5.5.q.q.6.6.5.:.5.q.e.6.q.5.q.q.5.q.e.r.a.f.F.f.f.f.K.K.F.K.K.I.K.K.K.K.{.{.F.",
"F.A.'.f.'.'.K.K.I.K.K.Y.K.K.W.K.Y.A.a.a.a.r.e.5.>.>.>.>.>.>.q.q.,.>.*.5.q.w.e.r.r.u.i.K.K.I.L.K.K.K.K.K.I.I.I.K.K.K.F.K.'.'.'.'.",
"f.f.^.a.F.W.W.K.K.f.d.F.Y.K.I.Y.Y.F.f.f.Y.I.K.a.r.e.e.e.e.e.e.e.w.e.q.y.i.f.x.F.F.i.Y.I.L.K.f.f.I.F.K.f.f.K.Y.i.A.x.F.f.a.f.i.f.",
"*.q.:.&.*.*.*.&.*.*.&.:.>.w.y.e.r.a.e.e.i.a.r.r.q.5.q.w.e.e.e.e.e.w.e.e.r.w.w.r.r.q.r.*.&.&.&.*.*.:.>.q.r.r.r.e.e.u.a.a.r.e.y.r.",
":.:.&.&.:.*.:.5.e.q.q.e.e.e.r.e.w.e.e.e.r.r.r.e.r.q.e.e.e.a.y.y.a.r.r.f.i.a.f.A.f.d.f.K.f.e.5.5.q.5.>.5.>.:.>.*.:.:.>.5.>.5.e.e.",
"a.y.a.i.a.a.f.K.K.I.K.Y.Y.Y.I.Y.f.W.K.F.W.Y.I.K.F.K.d.i.F.K.F.F.K.s.a.F.F.f.K.f.F.a.f.K.f.f.K.I.f.K.f.Y.K.f.A.i.f.A.e.r.>.>.5.:.",
"F.f.K.K.K.f.f.Y.Y.Y.Y.Y.Y.K.Y.Y.K.W.Y.K.Y.A.a.a.a.y.r.r.r.r.r.e.r.r.r.r.y.y.r.r.u.r.r.a.a.f.K.K.f.K.I.K.F.K.K.A.K.Y.Y.I.I.K.K.f.",
"K.K.K.K.K.f.f.K.K.Y.W.W.W.F.K.Y.W.Y.W.W.K.a.r.q.q.e.q.q.q.q.q.q.q.q.q.q.q.w.q.w.e.q.e.q.e.i.K.K.A.K.K.K.A.A.Y.K.K.K.K.f.K.I.K.F.",
"K.I.Y.K.K.K.f.Y.K.Y.W.Y.W.K.F.W.W.W.W.W.Y.K.F.f.A.f.f.a.i.r.r.a.i.f.f.f.i.a.f.f.d.a.f.a.r.F.Y.Y.W.W.W.K.f.F.W.W.K.K.K.f.F.Y.K.K.",
"Y.K.Y.I.K.I.F.W.K.W.^.K.I.f.K.K.F.K.K.f.I.i.i.a.a.i.f.d.f.f.F.I.W.f.f.Y.K.f.f.K.K.a.f.f.y.f.K.W.W.W.W.W.i.A.K.r.W.K.K.I.Y.W.W.K.",
"W.I.W.Y.Y.F.F.W.K.W.K.K.K.K.W.K.W.W.K.f.K.x.r.e.w.r.r.y.a.a.a.y.a.r.e.r.e.e.e.e.e.q.e.w.w.r.K.W.Y.Y.W.Y.K.K.Y.W.W.W.W.W.'.I.'.K.",
"I.Y.K.I.Y.f.F.I.K.K.F.F.W.W.W.K.K.Y.K.I.f.D.u.w.q.q.w.w.q.e.e.e.e.e.w.q.q.5.q.q.q.5.6.5.w.r.i.I.W.Y.K.K.K.K.K.K.K.K.K.I.'.'.'.Y.",
"K.K.f.f.K.f.f.K.K.K.i.K.I.Y.f.K.K.A.K.F.K.K.K.f.f.f.f.f.a.a.f.i.f.A.f.K.f.y.f.K.D.d.f.F.K.A.K.A.f.W.Y.f.K.K.W.W.I.W.W.W.K.{.{.f.",
"K.'.Y.'.'.i.i.a.a.a.a.f.K.A.K.f.K.f.f.f.K.K.K.W.W.W.W.W.Y.W.`.W.W.'.W.'.'.'.'.`.^.K.^.'.'.W.I.f.f.x.K.K.K.K.Y.I.f.F.Y.I.'.{.{.'.",
"f.'.'.'.i.f.a.a.f.a.y.y.d.f.f.f.K.f.f.f.f.K.K.F.K.K.K.K.F.K.Y.K.W.K.f.K.W.K.K.K.K.f.K.W.W.K.a.K.f.f.f.a.f.f.F.A.r.f.K.K.'.W.K.K.",
"f.d.{.'.W.F.F.f.f.A.f.a.a.a.u.i.A.f.f.f.f.K.F.f.A.q.>.e.f.f.K.a.f.A.r.i.a.r.r.a.r.w.e.a.y.e.q.5.*.:.*.>.*.>.*.:.>.5.r.a.e.e.r.e.",
"f.'.'.s.'.'.f.f.f.A.F.A.F.f.r.F.r.y.e.e.q.>.*.:.:.*.%.&.&.&.*.&.&.&.&.*.*.$.@.&.q.q.e.r.i.f.K.f.f.F.F.y.a.r.>.>.:.>.5.*.:.*.:.:.",
"a.f.a.y.5.r.q.q.w.q.q.w.w.q.w.q.e.e.r.e.5.:.*.*.5.5.5.:.5.f.a.>.q.q.a.q.5.e.a.r.y.d.f.K.f.K.K.f.f.F.f.A.K.K.F.K.f.F.K.K.i.K.K.q.",
"5.q.q.q.e.e.q.y.r.K.F.f.f.a.f.f.K.F.K.F.K.f.f.a.f.K.F.f.f.i.f.f.K.K.K.K.f.f.K.K.K.f.f.F.f.F.K.f.K.A.K.f.F.K.F.K.K.K.K.f.a.A.I.K.",
"a.f.# a.a.f.a.f.i.f.f.f.f.a.d.d.f.F.K.A.K.f.f.a.i.K.K.f.f.f.f.f.A.K.K.K.F.A.K.K.K.f.f.K.f.f.A.K.K.K.K.F.F.f.K.K.K.I.K.f.a.i.o W.",
"a.s.0 f.a.a.f.f.f.F.K.f.F.a.f.f.f.F.K.F.K.f.f.a.d.K.K.f.K.f.f.F.A.K.K.K.K.K.K.K.K.f.f.K.F.F.K.K.F.F.f.K.F.F.I.K.f.f.F.f.i.f.  `.",
"f.f.$ K.x.f.a.f.f.f.f.f.f.f.f.F.F.F.K.x.A.f.f.a.a.F.K.F.K.F.f.K.f.f.K.K.F.K.K.f.f.d.F.K.K.K.K.K.A.F.F.K.K.K.A.f.F.f.A.K.K.K.  W.",
"f.f.o K.f.f.i.a.i.d.f.f.f.f.f.x.F.A.a.a.a.a.i.a.f.f.F.F.x.f.f.f.d.a.A.f.f.d.i.f.A.K.K.K.f.f.f.f.F.F.K.K.K.F.f.K.I.K.K.K.K.K.  W.",
"f.'.  '.`.f.f.i.a.f.f.f.f.f.x.F.f.a.i.f.x.f.f.f.f.F.f.f.F.f.f.K.F.f.f.d.a.f.f.K.K.f.F.f.A.K.K.K.f.f.K.K.K.F.f.K.K.K.K.'.Y.'.  I.",
"f.W.  _.f.f.f.f.a.i.f.f.f.a.f.f.a.a.f.f.x.f.f.f.f.f.f.f.A.F.f.+ K.@ f.F.f.F.K.K.F.f.f.f.f.A.K.K.A.f.f.K.K.F.i.K.F.K.K.'.'.{.X Y.",
"d.u.      i.A.f.a.y.a.s.d.a.f.f.y.a.f.a.f.f.f.i.f.f.f.f.f.f.f.F.% f.a.f.f.f.F.A.f.f.f.F.f.F.K.F.f.K.f.K.K.K.d.f.K.K.K.K.I.X O '.",
"y.y.'.O         o w.y.a.a.u.a.a.r.r.a.a.a.a.a.a.a.a.a.a.a.a.a.a.u.y.u.a.a.a.a.u.d.a.d.f.a.f.f.d.F.f.f.x.f.F.a.u.O         O W.{.",
"y.W.W.y.a.W.a.a.a.r.r.a.a.y.a.a.r.r.a.a.a.a.a.a.a.u.a.a.a.a.a.a.y.r.r.u.a.a.a.u.a.a.a.a.a.u.u.y.a.a.a.a.a.a.w.a.a.r.e.u.W.A.K.K."
};
