/* XPM */
static char *_156d3cfec9947bdb8f2c5d08072f36aKgZ1EjUCq1vKo0or[] = {
/* columns rows colors chars-per-pixel */
"64 64 225 2 ",
"   c #0F0E0A",
".  c #100F0B",
"X  c #0F1207",
"o  c #0F120A",
"O  c #1C1605",
"+  c #14130D",
"@  c #19150E",
"#  c #16180C",
"$  c #1D190E",
"%  c #1A1803",
"&  c #0F1910",
"*  c #161511",
"=  c #1A1612",
"-  c #161911",
";  c #1D1A14",
":  c #1E1C19",
">  c #221B07",
",  c #221C0E",
"<  c #221D14",
"1  c #291F12",
"2  c #221E19",
"3  c #1C271D",
"4  c #15331B",
"5  c #25200D",
"6  c #2B240F",
"7  c #35340B",
"8  c #3C330D",
"9  c #3D380E",
"0  c #252116",
"q  c #252115",
"w  c #292112",
"e  c #2C2513",
"r  c #292216",
"t  c #2B2416",
"y  c #2D2616",
"u  c #2D2615",
"i  c #2B2414",
"p  c #2F2915",
"a  c #22201A",
"s  c #262219",
"d  c #25211A",
"f  c #2A2218",
"g  c #292419",
"h  c #2D2619",
"j  c #2A251C",
"k  c #2B2519",
"l  c #2E291A",
"z  c #322513",
"x  c #392414",
"c  c #312916",
"v  c #322A15",
"b  c #3A2E15",
"n  c #332B18",
"m  c #332C1A",
"M  c #3A2D1B",
"N  c #302718",
"B  c #2F3010",
"V  c #343314",
"C  c #3B3115",
"Z  c #36311B",
"A  c #3C331B",
"S  c #3C381B",
"D  c #3B3B14",
"F  c #342B0C",
"G  c #1D182F",
"H  c #231F20",
"J  c #241D36",
"K  c #1D3A26",
"L  c #292921",
"P  c #332E22",
"I  c #372E25",
"U  c #363121",
"Y  c #3D3522",
"T  c #3D3925",
"R  c #242037",
"E  c #3D3E38",
"W  c #433B0E",
"Q  c #473909",
"!  c #53380B",
"~  c #533B00",
"^  c #413515",
"/  c #4C3614",
"(  c #453B13",
")  c #4C3D16",
"_  c #42351C",
"`  c #44391C",
"'  c #4B3D1C",
"]  c #4E341B",
"[  c #533A15",
"{  c #513D1A",
"}  c #593E11",
"|  c #40291B",
" . c #733A05",
".. c #603D13",
"X. c #423424",
"o. c #453B21",
"O. c #4A3D22",
"+. c #493C28",
"@. c #583F26",
"#. c #613E22",
"$. c #3E4019",
"%. c #3F4020",
"&. c #3E453D",
"*. c #4B4A0A",
"=. c #48440A",
"-. c #5F440F",
";. c #4C4115",
":. c #4D411B",
">. c #524215",
",. c #5A4315",
"<. c #54431B",
"1. c #5B441B",
"2. c #5D4A1E",
"3. c #534C19",
"4. c #5B521A",
"5. c #61420E",
"6. c #6C450A",
"7. c #7A470B",
"8. c #66550B",
"9. c #6C590F",
"0. c #6D570C",
"q. c #7C5509",
"w. c #634314",
"e. c #644A13",
"r. c #694C16",
"t. c #634C1C",
"y. c #6A4E1B",
"u. c #67451C",
"i. c #73491C",
"p. c #6C5C14",
"a. c #67521F",
"s. c #6B531B",
"d. c #6E591B",
"f. c #61581F",
"g. c #725E13",
"h. c #71511E",
"j. c #795919",
"k. c #736A0B",
"l. c #6E621A",
"z. c #736215",
"x. c #7B6216",
"c. c #74621C",
"v. c #7C641B",
"b. c #6D6405",
"n. c #464123",
"m. c #4B4224",
"M. c #4D482A",
"N. c #534422",
"B. c #5C4B22",
"V. c #5C4C2B",
"C. c #564927",
"Z. c #5C5525",
"A. c #545035",
"S. c #484232",
"D. c #624C21",
"F. c #6B4C23",
"G. c #69462A",
"H. c #764D21",
"J. c #645024",
"K. c #6C5423",
"L. c #6C5922",
"P. c #68592B",
"I. c #715222",
"U. c #795D24",
"Y. c #745B25",
"T. c #6F6025",
"R. c #7A6321",
"E. c #786126",
"W. c #3B5844",
"Q. c #464745",
"!. c #4D574E",
"~. c #53705A",
"^. c #8B3400",
"/. c #9B3D07",
"(. c #A03C08",
"). c #8E4A01",
"_. c #934105",
"`. c #9B4D08",
"'. c #865B0B",
"]. c #93530D",
"[. c #9F5509",
"{. c #8A4A19",
"}. c #9A4E10",
"|. c #845B12",
" X c #8A5B1D",
".X c #895717",
"XX c #9A5212",
"oX c #915411",
"OX c #BE4D00",
"+X c #A25F0E",
"@X c #B95807",
"#X c #A94C17",
"$X c #83651E",
"%X c #80681E",
"&X c #B77404",
"*X c #B1681B",
"=X c #905C27",
"-X c #826521",
";X c #896823",
":X c #92692B",
">X c #CB5C04",
",X c #C55D04",
"<X c #C06400",
"1X c #D76708",
"2X c #D37016",
"3X c #E77507",
"4X c #EA7A19",
"5X c #D97827",
"6X c #E67C24",
"7X c #FE9215",
"8X c #F0BC04",
"9X c #CE8B20",
"0X c #DF9C31",
"qX c #FE9B28",
"wX c #E68921",
"eX c #E3A222",
"rX c #FFA23A",
"tX c #D28E0F",
"yX c #F9CC12",
"uX c #E8E005",
"iX c #FCF61A",
"pX c #FFE026",
"aX c #FDFD23",
"sX c #FFBC51",
"dX c #FEC748",
/* pixels */
"+ + + + + + * = = = = = = ; ; ; ; ; < < < ; ; ; @ @ @ @ $ $ , , $ $ $ $ < < 2 2 2 ; 2 2 ; ; = = ; = = = = = ; ; = ; = * * * * + ",
"+ * * * = = = ; ; ; : ; ; 2 2 2 s q 2 2 < 1 2 2 2 2 0 < < q r q q q q q s j j j s s s 2 d a : 2 a ; ; = = = ; ; = ; = * * * * + ",
"+ = = = ; ; ; 2 2 2 2 2 2 s s s f r 1 1 1 1 0 q q q q q r i e i e i r r i i j j j m j s j s 2 s 0 ; 2 ; ; ; ; ; ; ; = * * * * * ",
"* = = = : : : 2 2 2 : : s s s j r w r r r r r q r f r r f k e e k e e r k i k f l l j r j s 2 s a a d 2 2 ; ; ; ; ; = = = = = * ",
"* = = = : 2 ; 2 ; ; < 2 2 s s j r f r r f k e k e e e e c m m c n c n c c p e e h k k l j j j < j s 2 2 2 ; = * ; ; ; ; : ; ; ; ",
"* = = = ; : ; 2 2 ; ; ; 2 q s r r r w w r r k k e e e e c m n c n n c c z e e r r < r k r j h 1 f 2 < = ; < ; : ; = ; : : : : : ",
"* = = = ; ; = ; ; ; $ $ < q q r w 1 q , w w e e w e e e c c n z n z n z e e w 5 w , q r q r i q 1 < $ = = < 2 2 ; ; ; 2 2 2 ; : ",
"* = = = ; ; = ; ; = @ $ , < < < w w w w i e e e e p c n m Z M n M M M M m c e e e e r r i i r r < < < < < ; = * ; ; ; 2 2 ; ; ; ",
"; ; 2 ; ; 2 2 2 2 s q q q q q w e e e c p e p n n A A b o.` O.b C S C b m n p m l m m l l l l i 1 < < < < $ @ @ = = ; 2 2 ; = = ",
"; ; ; 2 ; ; 2 2 < 2 q q r r w e c e e n m m m Z A Y _ A o.o.O._ o.n.o.Z A A m l k m P m l l i r 1 < 1 2 < $ ; ; ; ; ; 2 2 ; = = ",
": : 2 2 2 2 < 2 < 1 r r e e e c n p p n A A S S ^ ` ' m.{ N.' ' ' ' ` C S S m c p m U M m k r r r 1 1 < < 1 2 2 2 ; ; ; ; ; = = ",
": : 2 a 2 2 < < $ < q w e e p n m c c n A o.` o.' ' N.C.' N./ ' :.:.` ` o.o.Z n U Y U U m l r i f f 1 2 < 2 2 1 2 ; ; ; ; ; ; = ",
"= = ; ; ; ; $ @ $ , < , e e z n V b b C C ` ) ' <.;.1.1.[ ,.Q ! 2.<.<.) ' ^ C C A A M m n N z e r r q q 0 q 0 ; ; ; ; ; = ; ; ; ",
"= = ; ; ; ; ; ; , 1 , i p c n m C S S S ^ ' ' :.<.<.D.t.1.1.! } B.<.' ) ^ ^ C C A m c p e e z z r r r f f s 2 2 ; ; = = ; ; ; ; ",
": : 2 2 2 2 2 0 < r e e m M Z A C ` ' ' :.<.<.<.,.t.K.t.y.r.5.r.t.t.2.,.) ) m.' _ C n z z z z z r r r r q 2 ; ; = = = = = ; ; = ",
": : 2 2 2 2 2 s < r w e n m Z A C ` ' N.N.B.2.2.t.K.K.,.e.5.w.h.J.K.J.2.<.B.C.m.o._ A b z 6 z z k r q < < $ @ @ = = = = = = = * ",
"2 2 2 2 < ; < r w w z z b A b ^ ' O.[ [ -.y.s.d.d.d.j.6. . .{.{.i.H.e.e.a.a.G.#.] ] D 7 V p x x i i i q < $ @ @ = = ; ; ; ; = * ",
"2 2 < 2 2 2 < 1 w e c z b b C _ O.N.1.1.e.s.d.d.E.Y. Xj.7..X=X{.i.i.s.d.K.t.G.#.@.@.$.D V V M | l l i r < < 0 0 ; ; ; ; 2 ; ; = ",
"2 2 < 2 2 2 2 q r e c z b b C ` ( >.1.B.y.K.j.R.x.x.'.q.).+X@X@X`._.q.q.p.8.t.s.D.2.;.W 9 7 x x c p e e q < < 2 2 2 2 2 2 2 ; ; ",
"< 2 2 2 2 < < r i n n e b A _ O.( >.B.J.K.Y.j.U.x.$X'.'.[.*X2X5X*X[.|.|.c.p.y.t.2.1.;.W D 7 b b m n n n k j s s 2 2 2 2 2 2 2 ; ",
"< 2 2 2 2 < ; s e l m c b _ O.n.*.*.4.f.L.T.c.R.|.;X}.XX,X2X3X7X1XOX].oXz.v.l.p.t.1.{ ) ` 8 M X.m c n p e q q < 1 2 ; 2 2 a ; = ",
"2 2 < ; 2 2 < < w e z e b _ _ o.=.*.3.4.L.Y.c.R.;X:X}.XX>X6X7XqX4X>X].].c.c.c.p.D.t.<.{ ( 8 M X.T A m m p i q q 2 2 2 a d d 2 ; ",
"2 2 ; ; 2 2 $ < q i p c n A C ` / [ ..u.0.g.k.k.|.|./.(.<XwXyX8X4X1XXXXX-X$Xz.8.F.t.N.<.:.( X.X.Y M n c e w < < 2 2 2 2 d d 2 ; ",
"; < ; ; 2 ; $ q r k m n b C C _ / { w.F.9.p.b.k.|.|./.#X4XrXpXyXqX3XXX].-Xv.p.8.t.t.1.<.:.( U M M c e c p i q r 1 < 2 2 d d 2 ; ",
"; ; ; 2 ; ; 2 s r k p m Z m V S Q >.u.F.s.d.p.c. X X_.#XtXdXaXiXsX9X|..X$Xj.v.g.s.s.2.>.Q Q C C A M c e w , , , < ; ; ; 2 ; ; ; ",
"; ; ; 2 2 2 2 s r i e n b n C S W ;.u.u.r.s.9.g. X7.^./.&XeXuXuX0X&X7. X-X$Xx.x.Y.L.2.,.=.=.^ C A M c 6 w , < q ; 2 2 a 2 ; ; = ",
"; ; ; 2 2 2 2 2 j r i l c p n A S %.n.M.C.V.4.Z.Z.P.T m &.!.W.~.;Xx.I.I.E.U.U.Y.P.J.B.:.W 9 S S A m p e i q < q < 2 2 s s 2 ; = ",
"; 2 2 2 2 2 2 q f q i m e e n n V S o.n.m.N.3.3.3.3.S.e L 3 4 K ~ %Xw.I.h.r.e.e.B.,.) ( W 9 C F m m n e k w q q s 2 a a s a 2 ; ",
"; 2 a 2 2 ; ; 2 2 2 r l e e p n n Z Y Y O.+.{ 1.<.<.n.o.a H J J Z A V.V.<.N.V.V.+.X.X.o._ A M z M m e i i q 2 s j j s s a 2 ; ; ",
"; 2 a 2 ; ; < 2 2 ; < f w i c m m m M M _ _ ) <.>.>.n.n.Q.a G R v A.O.C.{ { { { O.X.o.X.A C m c m n l e j q q s d d s s d 2 ; = ",
"; 2 2 ; ; ; ; ; ; < < q r q r m p n c c m Z A o.:.m.C m.T 5 - 3 a Q.M.n.:.( O.S +.Y A M M A m 6 l l l l l q 0 q d s a a 2 2 < ; ",
"; 2 2 ; ; ; ; ; ; 2 < q r < < e 6 p z z c c v C 8 ^ C ' T % - & + E m.M.:.W C _ A A _ Y n m c 5 l l l j j q q j L j 2 2 2 < ; = ",
"; = ; ; = = ; ; $ $ , , < q q , , w e e e 6 6 6 z Z p U ; + * * O , +.T A c c c z b v z p z p p j j j q l s s q < 2 < ; ; ; ; < ",
"; ; ; < ; ; ; ; $ < , < < q q q w i e e 6 6 z c z z Z 5 d a * * w m 6 m c e Z n z z z 6 6 p p p k j j q l q q q 2 2 < ; ; ; ; = ",
"; ; 2 2 ; < 2 2 2 2 < < < r r w e l i i e e c c z c m $ P ; = : , m > A A A n A z c m n m m l i j f s 2 j 2 2 ; q q < ; = = = @ ",
"; ; 2 1 2 2 2 2 < < < , < q q q q i r i e w z e c c m $ I 2 : : q Y O Y Y c m n m m m M m c l i i i q < j < 2 ; q 2 < ; = = = + ",
"= ; : 2 2 1 2 q 2 2 ; ; , < q q < r r i e e z e m e p O l P *   l U , M M e m n P m m k h h k k l j j q j q q q 2 2 < ; = = = = ",
"= ; ; < 2 < < 2 < 2 < , < < q q q r r r i w z e 6 p P e ; ; + = , , m P M U p n n e e e k j k h j j j < j q s q 2 < ; = ; ; = = ",
"= ; ; ; ; ; ; < < 2 < < $ < q q q r < 1 1 1 z e z c , e j $ = = $ j m P n e m n k j f k h k j f q q q < 2 ; 2 2 2 ; = = = ; = = ",
"+ ; ; ; ; ; ; ; < < < $ $ < < 2 1 q < 1 1 < w w w e n e P j = = k m m i i U e l k i q r f f f f q q q < 2 $ 2 2 ; ; = = ; ; = = ",
"= ; ; ; ; ; ; ; ; < ; $ ; ; ; < , , < < , < w w 6 6 e e j q $ @ l l e e l e q q r q < < < q q q q 2 2 < 2 2 2 < ; ; = = ; = = @ ",
"+ = = = = = = = $ ; $ $ @ @ @ ; , , < , , , , , , > , w i i j q e w 5 5 5 5 , , , , , , < < < < < ; $ $ $ ; ; ; ; = @ @ = = @ @ ",
"+ * * * @ = = = @ ; @ @ @ @ = ; $ $ , , , , < < , , , , , < q q q q < $ $ $ $ $ $ ; $ $ , $ $ $ ; = @ @ @ @ @ @ = @ @ @ @ @ @ + ",
"+ * = = = = ; ; = ; = $ $ @ $ $ $ $ < < < < < < , , , , $ < 2 q q i q , $ $ $ $ < , < ; $ ; < , ; ; = = @ @ @ @ @ @ + + + + + + ",
"* = = = = ; ; ; = ; = @ ; ; = ; $ ; ; 2 2 1 1 1 < < q , < < q s s s s 2 2 ; ; ; 2 2 < < < ; , < ; ; ; ; = = @ @ @ @ @ @ @ + + + ",
"+ * = = = ; ; ; = = @ @ $ @ @ @ ; $ < ; < ; < < < < q < < < ; ; ; < < < < ; ; ; 2 ; < ; $ ; , , = @ = = = = = @ @ @ @ @ @ @ + + ",
"+ * = - = = = = = = @ + = = @ = @ ; ; ; ; ; ; ; < ; $ @ ; ; ; ; = ; = = ; ; = ; ; ; ; ; = = $ $ @ @ @ @ = = @ = + + + + + + + + ",
"+ * = = = = = = = = @ @ = = @ = @ @ = = ; ; ; ; < ; $ @ = ; ; = < < = = ; ; = = = ; ; ; = @ @ @ + @ @ @ @ + + + + + + + + + + + ",
"+ * - * * - - + = = = @ + + @ # @ @ = = ; ; ; ; = = @ @ @ ; ; = + @ @ = = @ @ = = = = = = = * * + + + + + + + + + + + + + + + + ",
"+ + * * * - - + @ @ @ + + + + # @ @ @ = @ = = = @ = @ + @ = = = @ @ @ = = @ + = = = = = * * + + + + + + + + + + + + + + + + + + ",
"+ * + * * * + + + + + + + + + + + * + * * * + + = = = + + = = = + + + + + + + + + + = + + + + + + + + + + + + + + + + + + + + + ",
"+ + + * - + + + + + + + + + + + # + @ @ @ @ @ + @ @ @ @ + @ @ + + + + + + + + + + + + + + + + + + + + + + + + + + + + + + + + + ",
"+ + + - - + + + + + + + + + * * * * * * = = = = = = = + = = = = @ @ @ @ @ + @ + + + + = + + + + + + + + + + + + + + + + + + + + ",
"+ + + * - + * + + + + + + + + + * * = = = = = = * = = = = = = = = @ @ @ @ + + = @ + + + + + + + + + + + + + + + + + + + + + + + ",
"+ + + + + + # + + + + + + + + + * + + * = = = * * * = = = = = = + + @ = = + + + @ @ + + + + + + + + + + + + + + + + + + + + # # ",
"+ + + + + - - # + + + + + + + + + + + + + * + + * * = + = = = = = + = = = = + + + + + + + + + + + + + + + + + + + + + + # # # + ",
"+ + + + + + + + + + + + + + + + + + + * * * * * + + + * * * * * + + + + * + + + + + + + + + + + + + + + + + + + + + + + # # # # ",
"+ + + + + + + + + + + + + + + + + + + + + + + + + + + + * * + + + + + + + + + + + + + + + + + + . . + + + + + + + + + + + + + + ",
"o X + + + + + + + + + + + .   + + + + + + + + + + + + + + * + * + + + + + + + * + + + + + + + + . . . + + + + + + + + + + + + + ",
"o o o + + + + + + + + + + + + + + + + + + * + + + + + + + + + + + + + + + + + + + + + + + + + + + + + + + + + + + + + + + + X X ",
"X o + + + + + + + + + + + + + + + + + + + + * * + * + + + + + * + + + * + + * * * + + + + + + + + + + + + + + + + + + + + + X + ",
"o o + + + + + + + + + + + + + + + + + + + + + + + + + + + + + + + + + * + + * + + + + + + + + + + + + + + + @ + + + + + + + + X ",
"X o o + + + + + + + o + + o + + + o o + + + + + + + + + + + + + + + + + * + * + + + + + + + + + + + + + + + + + + + + + + + + + ",
"X X o + + o + + + + + + + o + + + + + + + + + o + + + + + + + + + + + + + + + + + + + + + + + + + + + + + + + + + + + + + + o o "
};
