/* XPM */
static char *f950912ade754601db0ef5d0a2cb5836ymHNyx8OPu12pRTO[] = {
/* columns rows colors chars-per-pixel */
"64 64 162 2 ",
"   c #46494F",
".  c #474B51",
"X  c #4B4E54",
"o  c #4E5157",
"O  c #4F5258",
"+  c #52555C",
"@  c #55595E",
"#  c #565B62",
"$  c #5A5D64",
"%  c #565C68",
"&  c #585D68",
"*  c #5C6067",
"=  c #5C626A",
"-  c #5E6571",
";  c #5F6872",
":  c #61656C",
">  c #63686F",
",  c #616773",
"<  c #656B74",
"1  c #696E75",
"2  c #666E7A",
"3  c #696F7A",
"4  c #6B7077",
"5  c #67707B",
"6  c #6B727D",
"7  c #71767E",
"8  c #72787E",
"9  c #6E7681",
"0  c #6F7883",
"q  c #717782",
"w  c #747A84",
"e  c #797E86",
"r  c #767D89",
"t  c #797F89",
"y  c #7A8087",
"u  c #77808B",
"i  c #7D838C",
"p  c #7D848C",
"a  c #7D858E",
"s  c #7E848E",
"d  c #7E858F",
"f  c #7F858F",
"g  c #7F848F",
"h  c #7F868F",
"j  c #7F868E",
"k  c #7D838C",
"l  c #7F8590",
"z  c #7E8490",
"x  c #7F8690",
"c  c #7E8691",
"v  c #80848D",
"b  c #80858F",
"n  c #80868F",
"m  c #80868F",
"M  c #83888F",
"N  c #808690",
"B  c #808790",
"V  c #818790",
"C  c #818791",
"Z  c #818691",
"A  c #808692",
"S  c #818790",
"D  c #818891",
"F  c #828891",
"G  c #838991",
"H  c #828892",
"J  c #828992",
"K  c #838992",
"L  c #828993",
"P  c #838993",
"I  c #838893",
"U  c #838A92",
"Y  c #838A93",
"T  c #848993",
"R  c #848A92",
"E  c #848A93",
"W  c #848B93",
"Q  c #828994",
"!  c #848A94",
"~  c #858A94",
"^  c #848B94",
"/  c #858B94",
"(  c #858B96",
")  c #858C94",
"_  c #868C95",
"`  c #878C95",
"'  c #868D95",
"]  c #878D95",
"[  c #868C96",
"{  c #868D96",
"}  c #868C97",
"|  c #878E96",
" . c #878E97",
".. c #848A93",
"X. c #888E96",
"o. c #888E97",
"O. c #898F97",
"+. c #888E96",
"@. c #858E99",
"#. c #878E98",
"$. c #848D9C",
"%. c #858D9A",
"&. c #888E98",
"*. c #898E98",
"=. c #898F99",
"-. c #898F98",
";. c #8A9097",
":. c #86919C",
">. c #86909F",
",. c #87919E",
"<. c #889098",
"1. c #899098",
"2. c #8A9099",
"3. c #8A909A",
"4. c #8A919A",
"5. c #8B929A",
"6. c #8B929B",
"7. c #8A939B",
"8. c #8C919A",
"9. c #8E949B",
"0. c #8B929D",
"q. c #89929F",
"w. c #8D939C",
"e. c #8C929D",
"r. c #8D939D",
"t. c #8E939C",
"y. c #8C949C",
"u. c #8D949D",
"i. c #8D959D",
"p. c #8E959F",
"a. c #8E969F",
"s. c #8D939C",
"d. c #91969E",
"f. c #92989F",
"g. c #8B94A2",
"h. c #8F97A0",
"j. c #8C96A3",
"k. c #8D95A2",
"l. c #8E98A6",
"z. c #9297A0",
"x. c #9299A1",
"c. c #939AA3",
"v. c #929AA4",
"b. c #949BA4",
"n. c #949AA5",
"m. c #969EA6",
"M. c #959AA2",
"N. c #999EA6",
"B. c #959CA8",
"V. c #969EA8",
"C. c #989EA9",
"Z. c #989FAA",
"A. c #999FA8",
"S. c #98A0A8",
"D. c #9CA2AC",
"F. c #9DA3AD",
"G. c #9CA2AA",
"H. c #9FA5B0",
"J. c #A0A6AF",
"K. c #A0A7B1",
"L. c #A3AAB4",
"P. c #A7AEB8",
/* pixels */
"=.( i D w 9 6 6 q q q q w q 6 6 6 6 9 q q 9 9 9 6 6 6 6 9 9 9 6 6 6 6 i w , 1 1 w i R D D D ( D Z Z D D D ( ( ( O.6.6.9.w.6.s.[ ",
"[ Z D g 6 6 6 q 9 6 6 9 6 6 6 6 6 q 9 q 9 9 9 6 9 9 6 3 6 9 6 6 9 6 6 %.w - 1 1 e i z Z Z R D Z Z Z Z D D ( ( [ [ 9.b.F.F.A.A.=.",
"Q z g w 6 3 9 q 6 6 6 6 6 6 6 6 w q 9 w q 6 6 6 9 6 9 3 9 q 6 9 6 9 0 $.9 - 1 1 e b g Z R R Z b g g b D R [ [ [ O.O.s.9.w.9.G.O.",
"D D D 3 5 6 w q q 5 5 6 6 0 5 9 9 q 9 9 9 6 6 9 6 6 6 9 6 6 9 9 6 9 9 >.9 - 1 1 w g q.D Z b Z g g i Z D D ( [ [ ( [ ( Z 6.6.b.w.",
"g g 6 3 6 w q 9 6 3 3 9 6 6 6 q q q q 9 9 6 6 5 6 6 6 9 6 3 9 6 9 9 6 q.9 - < 1 q Z V.g g i i i i g Z D D R ( ( Z R D [ D %.b.9.",
"Z Z q i w w w w 3 3 3 9 5 3 w w w w 9 q 6 9 6 3 9 3 9 9 9 6 6 9 3 6 6 g.9 , 1 1 w 6.c.b i i i i i g Z Z D R R Z Z Z R D R [ v.6.",
"Z i Z r q q w 9 5 3 w w 6 w w w w q q 6 6 6 3 3 3 6 9 6 6 6 6 3 3 3 6 g.6 ; 1 5 i 6.k.i i i i i g z g D D Z g D D D D D D D 9.9.",
"=.z i w i w w 9 6 6 t q t w w w w q 6 9 w 6 6 9 3 9 6 6 6 9 9 6 3 2 6 >.3 , 1 4 e c.[ i t t i g Z D g g g b b Z D Z D D D D w.6.",
"i Z i i w w 6 6 6 w w i 9 w w w q 6 q w 6 6 q 6 3 9 9 9 9 9 9 6 6 3 6 >.< 2 3 5 e z.O.t t i i Z b g i b b g Z D D R D D D R 6.O.",
"D =.g i i r 3 5 9 w w w w w w 9 6 6 9 6 6 q 6 6 9 9 6 q w w 9 6 9 2 9 $.6 , 1 5 w b.[ t e i g Z Z Z g g Z b Z Z D R D D D R R R ",
"[ ( Z ( g 9 q 6 q 9 w q r w 9 6 q q q 6 w 6 6 9 q 9 9 q w 6 6 9 2 3 3 $.5 - < 4 w V.[ i g i g g b b b g i i i Z b D R D D D D D ",
"[ g ( D g i w w 9 9 w w w q 9 q 6 6 3 6 9 6 9 6 9 w w 6 9 6 9 , , 2 9 i - - < 4 w G.%.i i i Z Z g g Z Z g g z Z D b D D D Z D R ",
"g ( ( g r Z g w w w w w w 9 w 9 9 6 6 6 6 6 3 6 9 q 6 9 6 6 , - , 5 3 3 , = > 1 w D.O.i Z b Z Z b D i D D b g g D g D D D M D D ",
"[ ( D i ( D D t r w w w w t w w 9 6 3 3 5 3 6 6 9 9 6 6 6 5 3 3 6 3 3 < , & : 1 e F.O.g Z g D z D Z D D g g b b b Z b b M D Z D ",
"=.D i ( ( q w i i i r w w w w w q 6 3 3 5 5 3 6 6 6 3 6 6 3 , 5 6 3 , , ; = : 1 e G.[ b b g b Z D Z b D g g g b b g g b b M D Z ",
"D ( [ [ ( ( Z i i i r w w w q q 9 6 9 6 6 5 9 6 6 5 3 9 3 3 6 2 5 5 < , , & = 1 e V.D g i g i b R D b g g g g g g g b Z b D D Z ",
"D Z Z ( Z Z r i i w w w w r q q w 9 6 6 9 9 9 6 6 6 6 5 3 3 5 5 6 5 3 < - & = 1 e z.g g i i i b D g p g b g g g g g b M b D b b ",
"D =.[ R g i i i i r w w w w q q q 6 9 9 9 9 9 9 6 6 6 3 2 5 3 9 9 3 , , - = = 1 i 9.=.D i i g g b Z g g p p g g g b b Z D Z b b ",
"=.6.q.D D Z D g i r 9 9 w w 6 q 9 9 6 0 w t u t r w 6 , 3 6 9 6 6 5 , , , % * 4 i 6.9.g b b g g b b i i i g g g g b b Z b Z Z g ",
"=.6.( %.=.k.c.k.v.%.( u w q q 9 9 6 9 r Q g.q.%.Q i 2 2 6 9 3 6 6 3 , 3 - % * 1 i b b g i g g b g g g g g g g g b b b b g g g g ",
"( Q Z g D Q %.%.z t r 0 w 6 6 6 3 9 9 w i z z z %.%.3 6 9 9 6 5 6 , , , , % * 4 i g g g i g b g g g g g g g g g g g g g b g i g ",
"g i i w e q i i w q 9 w 6 w 6 6 9 q i i w 9 9 w $.l.3 6 9 6 6 6 6 , , , < % $ 4 i b b b i i g i g g g g g p b b g g g g b b b g ",
"R i i i i e 7 7 7 7 7 7 6 4 6 6 7 w e t i w q 2 z l.6 6 9 6 9 w , , 2 6 2 & $ 6 i g g D i g g g g g g g g b b b g b b g g g b b ",
"w 4 4 4 4 1 2 1 < < 2 < < < < 1 < 1 4 3 4 w w , w %.2 5 6 9 w 9 6 9 6 q 5 & $ 6 g D b b M g g g b g g g D b b b b b g g b b Z D ",
"w 7 6 7 w q 7 q w q q q 7 8 w w w e w w e w q 4 , q , 6 9 q w 6 9 5 6 q 6 = $ 6 i b b b g i g g b g g g b D b D g b g g b b Z R ",
"Z g b Z Z e i i i t e w w e t i Z ( b i e 6 4 < = , 3 5 6 6 9 6 w w i w 6 = $ 6 i b M g i p b b g g b b M R R b M R g R b D D D ",
"O.O.[ Z i g Z D i i i i g s.d.z.M.z.O.i w < 1 > = < 2 5 6 9 q w w i e w 6 = $ 4 y b O.p i p b g g g p b b Z D D R M R g D D R R ",
"s.O.O.[ D g R b i i g D b [ O.w.[ 6.w.i q < 4 = , 2 2 3 6 q q i 6 6 q q 3 = $ 4 y D c.i i b b i i i g p g b R D b b g b b b b b ",
"R R [ D g R R i t i i i D g D i b %.b.R q < < : , 2 2 4 6 q w q q 9 6 6 , = $ 4 e D w.i i i i i i i i i i i v i i g g b i i D M ",
"w.[ Z g D D D i i w i i g g b i D D b.[ w , < $ : 2 3 6 w r i w q 9 3 2 2 = = 4 w i 9.g b i i i t e w e e i i i i i i v i i i p ",
"D R Z Z R O.g t t t b b i Z i i Z i c.s.e : = $ $ , 6 w w w q 6 5 , , < < = : 4 7 w D w.6.b 8 7 7 7 7 7 8 w w e e i y i y i b g ",
"R D Z R [ R Z Z i i i i D i i Z b i s.6.w = $ # + @ # = : = $ $ $ $ $ # @ @ $ : : > > < 1 > : : : : $ $ : > 1 4 4 4 1 1 1 4 6 8 ",
"( ( R 6.6.g g i D i g R b g Z Z g g D g w # # # w 7 1 4 4 4 4 4 4 1 1 1 1 < 1 4 7 7 7 7 7 6 4 1 1 < $ # > < 1 4 4 1 1 < < < < < ",
"R R s.g D g i R Z O.g D Z Z Z i g b b i q # + w D b i g R i i i i i i i e e e w i i e i e i e w q 7 < : 7 w w i i e e e e w e e ",
"R ( s.O.D g D i D R D Z g b g g Z g Z t 7 # + i O.O.O.R R D D D D D R b b D D b D b i b D b g i e w < < w i g b b Z D D Z [ 9.9.",
"D g D 6.g g b [ [ 6.b i Z b Z D Z Z Z w 7 @ + 4 s.9.9.w.b.G.A.V.9.s.6.O.s.s.[ =.6.6.R O.O.O.R Z i e 1 1 g R ( [ O.O.O.[ [ O.[ O.",
"Z D R i i g D R [ Z b Z i Z D D Z g i t 7 + O i d.c.G.H.c.K.F.b.9.s.w.9.d.d.d.9.9.d.6.6.s.6.6.R b i 4 4 R O.6.6.w.s.s.w.s.6.9.c.",
"s.( D i i g D [ i b D Z g Z ( b g g i t 7 + X b M.P.L.w.9.9.d.d.c.d.d.c.f.d.M.M.M.s.9.d.d.9.6.6.D i 1 6 O.6.9.9.9.w.w.9.9.b.M.z.",
"=.R Z g t e [ g D O.R R i Z i D b g i t 6 O o R A.P.z.d.9.d.s.c.b.d.d.c.d.M.M.O.d.[ c.d.c.d.s.[ ( i 1 q O.9.d.d.9.d.d.d.d.M.b.M.",
"[ R g i w t b i [ i g g i g g b Z g t w 7 + O O.L.L.d.s.9.9.c.c.c.d.c.d.d.M.M.[ =.6.d.M.M.c.9.O.D p 1 w s.9.d.d.z.d.d.d.d.N.b.M.",
"[ w.g i R b t i [ i g g g g g Z Z i w w 6 @ + d.L.K.s.z.z.M.s.M.d.d.M.M.M.M.9.c.c.c.c.N.b.M.M.s.O.i 1 e ;.9.9.M.d.9.d.z.M.M.N.d.",
"6.R g i w t i g R i i g g b g i b i w w w # @ z.L.M.s.M.w.c.c.d.d.c.9.M.M.N.M.M.b.9.c.b.M.9.M.9.O.e < e ;.9.d.d.d.d.M.M.M.M.b.9.",
"s.6.D w i i R D t i i b R M i g i i i w w $ + c.L.c.c.z.c.c.w.9.M.M.d.M.b.b.N.9.d.s.N.M.M.M.c.w.O.y < y s.d.M.c.N.c.M.N.N.M.d.d.",
"d.b i e p D b i g i g b b R i i g i i i q $ + c.F.d.c.M.M.d.9.z.M.d.N.z.F.b.b.c.9.9.9.M.M.b.M.s.O.y < i ;.d.c.F.b.N.N.G.F.N.9.z.",
"6.( i i g Z Z i i b g [ ( g i i i i i t q $ @ f.M.d.N.F.b.M.b.N.N.9.c.b.b.N.M.9.9.s.w.N.A.N.b.M.6.e < b 9.9.d.N.N.G.F.G.N.b.M.z.",
"w w g i b i i i g Z Z ( b i t i i g Z i w # @ d.d.G.G.N.M.c.G.F.N.N.N.N.N.F.6.9.d.M.F.F.b.N.N.c.6.w < b d.w.N.N.M.b.M.N.G.A.b.c.",
"w q t b i t i i b g b D t t w t i D w.w.q + + N.N.N.N.N.b.N.N.N.N.9.F.N.N.N.d.6.M.s.N.N.N.[ s.c.R w 1 b s.d.b.M.N.b.N.G.M.G.N.M.",
"w w i i i i i b b Z b i i w i i i D w.b.w # @ d.F.d.d.s.N.N.N.M.9.G.N.N.N.M.c.N.6.=.d.N.N.A.=.M.s.w 1 b 9.9.9.M.b.N.N.F.M.N.b.c.",
"Z i i i i i g D g i i i i t i i g [ d.z.i @ $ M.b.9.6.d.M.d.d.d.b.N.N.F.F.M.M.M.=.c.F.b.G.M.c.d.R w < g [ w.d.b.M.N.N.N.b.d.c.b.",
"b t D g i b ( D Z i i t w i i i g [ =.d.e + : 9.F.M.b.z.c.z.d.c.N.F.F.F.c.F.N.S.[ z.d.M.b.O.M.d.[ 8 < i O.M.9.d.M.N.N.d.b.d.z.M.",
"i b D i i [ s.R b b O.Z w i i i Z [ O.d.e o * d.K.d.N.9.b.d.d.b.N.F.N.N.N.N.G.N.9.c.d.9.M.c.c.6.) 7 < i s.N.d.N.N.N.c.9.9.9.d.M.",
"D D Z i g ( R b i g i t t t i g R [ O.w.e X * N.P.d.d.w.s.9.M.M.N.N.N.M.M.M.s.w.[ c.6.6.M.6.9.[ R 7 > b 9.M.M.N.b.b.d.d.9.d.M.M.",
"b 6.b g b D Z g b i i i t i g g Z =.[ w.e X : b.P.d.s.9.9.d.M.M.b.M.c.b.M.z.c.d.b.9.b.b.M.d.M.s.R 7 < b z.w.M.M.z.d.d.9.d.d.M.N.",
"O.R i R g R D D D i t t i i i b b D D 6.q X < b.L.9.w.9.d.M.M.c.M.M.M.M.F.c.N.M.N.9.9.d.c.c.M.s.D 7 < b s.s.M.d.d.9.9.9.d.z.M.N.",
"O.Z g i R O.[ D D i t t i D b b g g i ( 7 X 1 M.F.9.9.c.M.M.M.M.c.d.M.F.c.M.b.N.M.[ w.9.s.c.9.s.D 7 < D s.M.z.d.9.9.w.9.M.M.N.N.",
"[ b b R O.O.( D b g t t i Z b b g i t t 5 X 4 M.F.9.d.M.b.b.M.M.c.M.c.M.z.N.M.M.d.6.s.d.c.f.d.6.D 8 < i [ 9.d.d.9.9.d.d.M.N.N.b.",
"R R D =.6.6.g i i t t i i g Z D b g t w 6 . 1 M.F.9.M.M.M.M.M.M.M.c.M.c.d.M.M.M.M.w.c.9.f.c.9.O.D w < i s.L.M.9.9.d.d.M.N.N.b.M.",
"b Z O.s.w.Z g i i i w g Z g Z g i Z i w q . < d.F.9.c.M.c.M.c.M.M.M.c.d.d.M.M.M.c.c.9.M.d.b.c.6.R e 1 i s.L.b.9.9.M.M.M.M.M.N.M.",
"D ( 9.9.9.b g i g t i i g g D g i i g i q   : s.b.d.M.M.M.c.M.s.M.b.M.M.c.b.b.b.b.d.c.M.d.G.b.c.[ e < i 6.L.G.9.M.z.M.M.M.M.M.b.",
"[ R [ d.9.D i s.D w g i g D g i i D g i w X > s.z.d.c.M.M.b.b.b.b.M.b.b.N.N.b.M.b.c.z.d.9.G.b.N.O.w 1 e s.L.F.M.d.c.M.M.M.M.M.N.",
"6.s.=.Z s.b i t w t g i g b i i ( O.g i w X < w.d.d.M.M.c.M.c.N.N.b.b.9.M.M.M.M.M.M.M.d.9.b.G.b.O.e < w 9.L.P.M.c.c.M.M.M.M.b.b.",
"6.s.d.g Z g i g Z R g g b g g i Z ( g t q + 1 s.d.M.c.b.c.M.b.M.M.M.d.M.6.M.=.O.z.M.M.d.d.b.F.N.) e 1 w s.b.P.L.F.b.b.M.M.b.N.N.",
"s.d.d.g g g g g R b g g b i i i D O.b i q @ 4 w.d.M.c.M.z.M.M.M.9.d.9.M.M.M.M.O.M.M.d.d.9.b.F.b.O.i 1 q s.N.N.b.G.F.F.F.F.F.F.F.",
"d.d.w.d.6.Z D ( R g g g b i i i g g i t 5 $ 7 9.d.d.c.c.M.M.M.c.d.d.w.s.s.s.M.=.c.c.9.d.9.c.J.b.R g 4 q d.N.N.F.G.F.F.F.F.F.J.F."
};
