/* XPM */
static char *abf56495937e4db29c768ddd08b24254t878DRFxl9bHd6za[] = {
/* columns rows colors chars-per-pixel */
"64 64 134 2 ",
"   c #0B0A05",
".  c #140F0B",
"X  c #15150D",
"o  c #1A160E",
"O  c #17190D",
"+  c #1B1A0E",
"@  c #171611",
"#  c #1B1711",
"$  c #171810",
"%  c #1D1B14",
"&  c #1E1D18",
"*  c #211D15",
"=  c #231E19",
"-  c #1F2019",
";  c #232016",
":  c #23201B",
">  c #22221A",
",  c #23231B",
"<  c #232019",
"1  c #242118",
"2  c #252118",
"3  c #272018",
"4  c #252219",
"5  c #272318",
"6  c #262219",
"7  c #25201A",
"8  c #24211A",
"9  c #27201A",
"0  c #26211B",
"q  c #25221B",
"w  c #26231A",
"e  c #27231A",
"r  c #27241B",
"t  c #22211D",
"y  c #21221C",
"u  c #25201C",
"i  c #24211C",
"p  c #24201D",
"a  c #25201D",
"s  c #26211D",
"d  c #25221D",
"f  c #27221C",
"g  c #26231C",
"h  c #26211E",
"j  c #24231F",
"k  c #27221E",
"l  c #26231E",
"z  c #26221F",
"x  c #27221F",
"c  c #24241C",
"v  c #25251D",
"b  c #27241D",
"n  c #24251F",
"m  c #27241F",
"M  c #26261E",
"N  c #27271F",
"B  c #23221B",
"V  c #282119",
"C  c #28211B",
"Z  c #282419",
"A  c #29251A",
"S  c #28241B",
"D  c #2A261B",
"F  c #29221C",
"G  c #28231D",
"H  c #2A231D",
"J  c #28231F",
"K  c #29251C",
"L  c #2B271C",
"P  c #2A261D",
"I  c #29241E",
"U  c #28251E",
"Y  c #2B241E",
"T  c #2A251F",
"R  c #29261F",
"E  c #2B271E",
"W  c #2C251F",
"Q  c #29261F",
"!  c #2C281D",
"~  c #2D291E",
"^  c #2C281F",
"/  c #272320",
"(  c #252420",
")  c #292420",
"_  c #282520",
"`  c #282421",
"'  c #292421",
"]  c #2A2521",
"[  c #292621",
"{  c #2B2620",
"}  c #2A2720",
"|  c #2B2622",
" . c #2A2722",
".. c #2D2620",
"X. c #2C2721",
"o. c #2E2721",
"O. c #2C2723",
"+. c #2B2724",
"@. c #2A2721",
"#. c #282820",
"$. c #292921",
"%. c #2B2821",
"&. c #2B2823",
"*. c #2A2A22",
"=. c #2D2920",
"-. c #2D2822",
";. c #2C2922",
":. c #2F2822",
">. c #2E2923",
",. c #2D2A23",
"<. c #2D2824",
"1. c #2C2924",
"2. c #2C2825",
"3. c #2E2925",
"4. c #2D2A25",
"5. c #2F2A24",
"6. c #2E2B24",
"7. c #2D2926",
"8. c #2F2A26",
"9. c #2E2B26",
"0. c #2F2C25",
"q. c #2B2922",
"w. c #302923",
"e. c #302B25",
"r. c #312C26",
"t. c #302D26",
"y. c #322D27",
"u. c #312E27",
"i. c #312C28",
"p. c #332E28",
"a. c #322F28",
"s. c #342F2B",
"d. c #35302A",
"f. c #35322B",
/* pixels */
"# % % % % # % = * h = * = = = * 7 I 7 7 7 7 * 7 ; * * * * ; * ; * 7 7 , 7 I I M , I h h 7 I M %.X.| * h * # * = , , h = # # % # ",
"% * % % % % * / J h I J 7 h J 7 I -.I 7 A 7 7 I A 7 7 * 7 A 7 I 7 7 h h M I | | I 5.-.-.%.5.%.5.| | h | h * = h M h = & # % % # ",
"* * * * * * h | X.* X.X.h I I J | | I J J I J I h h 7 * = I I I I h 7 = 7 7 I -.X.y.5.y.-.y.-.e.5.p.5.X.h * h J | h * % % * * % ",
"* * * * h / / O.X.* X.| 7 X.J | A A A 7 A A A 7 7 A A * * A 7 A h 7 7 7 = * h I e.y.e.y.-.y.5.p.5.p.X.| | | 5.| h * * = = h / = ",
"% = h h / | | | I * J h I -.7 -.| | | X.| | | | | | | h h | h = 7 7 I X.| 7 * 7 X.-.X.y.-.y.5.5.s.i.J | 5.5.| * % & , 7 / | h h ",
"% * = h | | h h h = 7 * h | 7 | I 7 = * 7 h I J = 7 J * = J * 7 7 h J J 7 * * 7 7 h J 5.| -.I I O.5.| | | h h # % h | &.5.+./ h ",
"% = h = h h = = 7 * * * * 7 7 7 7 * % % % * 7 7 * * * * * 7 = h h h 7 = * = 7 7 * * * J = 7 7 = * h h h = * = = * | 5.5.5.%.M M ",
"* h h * * * * * * % % % o % 7 % * * % * * * 7 * J 7 = * = 7 * h 7 h J h J I h = 7 * % = % = 7 h | h % % * % * % = | | | | | h 7 ",
"= h h 7 J J h I h | X.* * 7 = 7 I = * 7 7 7 7 I I | | J h I I h | I I I I I I I I y.e.| | -.I J | J h h = * * * h * t | ( h h * ",
"J | | h I I J I I I | J 7 * % = J * * 7 7 7 J I 7 J h h I I | I I J h h I I I h I -.5.5.-.I J X.| | J h * = h | h * h &.| ( , * ",
"I | | I I J 7 7 * 7 I I I J = I 7 * * 7 J J h I | I I I | I J I | I 7 h I | I J I -.5.5.-.J 7 I 7 I h * * = J | h h h | | h t * ",
"X.-.| X.| J h h * 7 I 7 7 I 7 = J = = C J J J J W J J X.-.X.X.X.| I J J I -.X.I X.e.e.-.| | J = * J h h = J h h , M h h | ( t h ",
"7 = 7 7 = * * * % = 7 * * J = 7 M M , , M M , , M , , M M M , M I I I h 7 7 J | -.-.X.I I | J * * h A 7 | | h h , h , * h h h h ",
"J J I I I J J 7 * * * * h | I -.| J 7 h J J h = 7 7 = = * * * * h J J 7 * * * 7 I * * = 7 * * * = * * * J J * * * , h h h h * % ",
"I h I | I I I J | I J 7 J I 7 | %.I M M | | I h * * 7 , * * 7 M M M h 7 , , 7 M h % % * % # % * * * % % * % # % % * , , * * * % ",
"I h I | I I X.I 7 J J * 7 | J J %.I M I %.-.-.I 7 | %.M , 7 I | I I I I I %.-.5.I M M * % % * * 7 7 * * * o . # % % * * & * h % ",
"h I I I I 7 7 h I X.| 7 I | = J | I I | X.X.X.| X.I h 7 7 J | -.5.I I -.0.5.5.y.I M 7 , , 7 7 7 * = 7 h * o o % * * * 7 7 * * % ",
"-.| h 7 I I I I h I J * J X.h | X.| I I | | X.-.-.-.| I J I | | I , 7 I %.I I -.M h 7 7 7 h I M 7 7 7 * * % = J * * 7 h I I h 7 ",
"I | M M %.%.M I 7 I 7 % 7 | J | I | | I J | -.e.| -.-.| I -.| I M , 7 I | M M | h 7 7 7 7 7 7 M 7 I J * * = h J 7 7 7 h J h 7 * ",
"h | | I I 7 7 h I | J * * I h I h I I | X.I X.-.J I | I | e.-.h h I I | I M M I h I I I M h 7 M h I J 7 * * = 7 h h h J I X.I h ",
"| -.%.M , , * I | I I * = I J I 7 J I | J I I X.7 h J I e.y.5.h | -.-.I h M h * * * M I h 7 h %.X.7 = 7 * % * J h J J J I I J = ",
"-.-.I 7 h , * 7 I h J 7 7 | J I 7 7 7 7 7 h I X.I 7 h J -.y.5.h 5.y.5.M 7 h 7 * * * 7 I 7 * , I | h 7 I h * % = h J J h h h * % ",
"I I M M M 7 * * h = J J I I h h 7 7 = * * 7 I I 7 7 = h | -.| h y.-.I 7 , * * * 7 M I I 7 * * M I 7 h I J * % * * 7 I | X.-.| 7 ",
"7 M h , * % * h 7 * J | | I = 7 * * * = 7 7 7 7 * * * = h J J I 0.h * * % % # % % % * , % o # * = = * * * * * = % 7 I I X.-.I * ",
"7 * 7 I M * * | J I h 7 | * 7 I * h J * * 7 J 7 I 7 = 7 = | h -.d.-.I h * % * , % * % # % % % % * = * # % % % * 7 * * I I J I 7 ",
"h h M I 7 , 7 I I I I I -.* 7 h J h h J J h J I I 7 7 h 7 | 7 | 0.| I I , * 7 I 7 I I M I 7 * * h h = * * * % 7 = = 7 X.-.I I * ",
"7 I %.M h I I I | I | | | * J 7 I J h I I J I | J 7 7 I J X.h I -.| %.%.M , I %.0.%.I | | h , h | J h 7 7 * % I 7 7 h -.5.X.I = ",
"7 | | I M %.| M | J | -.I = | h | | | h J X.| h h h = | J X.J X.-.-.%.5.M , I -.5.I 7 I | 7 * h X.| I h I 7 * | I I I -.-.I I * ",
"7 I -.%.I M M h I 7 J J h = -.I A ~ A A ; ~ I ; A 5 * A 7 A I ~ d.0.| | I , I I %.h I -.5.I 7 , | X.X.h J I = I 5.y.-.-.5.| h = ",
"I | -.-.M * * 7 7 7 7 7 h * X.| X.I I I I I I I | I * I h I I | y.5.M %.h * %.%.| I | -.-.%.I 7 J X.X.h I | h | -.y.5.5.e.| I = ",
"I %.5.| , * * h 7 J J = h * I J I A 7 I I A I I A I * I A I I I 5.5.I -.I * I I %.%.-.I h I I , J I X.I X.X.J -.-.y.-.X.X.I h * ",
"h -.-.M * * 7 | 7 I J = I * 7 7 * 7 A ; ; A I A ; 7 * I I I ~ I -.0.%.y.I % I I M -.y.-.M | I % I I | -.5.X.J y.p.d.X.7 7 * * % ",
", * 7 , # # * * * * * % * * * % * = = * * * J 7 7 * * * * * 7 I I I | I 7 * h -.I h 7 7 7 7 7 7 | | -.| y.-.-.-.I I J 7 7 7 h 7 ",
"M h I h % * 7 7 7 7 * , * , * * = = 7 * * * h 7 * * * * * * * 7 , 7 7 7 * * , I * * * * 7 7 h M h h I M -.| X.I 5.5.X.I | I I h ",
"| M %.%.7 7 I 7 I 7 7 * , = * * = 7 * = * * h 7 7 7 7 I I I J I = * 7 7 7 7 J | 7 7 h 7 7 I I | M I I = | I I 7 | I J = ; ; * * ",
"M h I X.M I %.M , , , , * * 7 * = 7 = 7 * * 7 = = 7 h h I J I I , M M %.%.%.%.%.%.%.%.%.%.M %.N %.-.%.7 X.X.I = | I 7 = * * * % ",
", 7 I %.X.I W J J C 7 * * * = 7 = = * 7 * * J 7 = = * 7 7 J J J = C I X.-.w.X.W X.J J J I w.X.X.%.-.w.J -.-.5.I -.| h 7 * ; * * ",
"7 h | X.%.I I M 7 J 7 7 * 7 h 7 * = * 7 = * 7 7 = 7 7 7 h J | | * h I I I X.I J I J 7 J I X.X.| -.-.5.I -.| -.I I | 7 = = ; * * ",
"* 7 I ~ I A 7 7 C A A = ; 7 C C = = * 7 = * 7 = * 7 7 = 7 J I J 7 h I J I | X.| -.I J J I | | | -.-.-.J | h J I | I 7 ; ; 7 7 * ",
"% 7 I I I 5 7 I 7 A 7 7 = = 7 7 7 = * 7 = * = * * = 7 7 7 I I J h J J 7 h I -.-.I I I J J I | X.X.X.X.J | 7 J I J h ; * ; 7 7 * ",
"; 7 A I I I 7 ; 7 I 7 * = = * * % * * * % % * * % * * 7 7 7 J I I 7 J h J I 7 * I 7 * I J = | | J | 7 * I | 7 * = ; ; = * * * % ",
"* ; 7 7 7 7 7 ; 7 A ; * * * * * % % % % % % * * * * * * * = 7 7 h = 7 * 7 7 * * 7 * * * * 7 J * J I = * | -.| X.A C ; = * ; = * ",
"% * 7 7 , * 7 7 , 7 = % * * * % * * % * * * * * * * % % * = 7 7 h = 7 * * * % * * * 7 * % * * % * * % % * ; * * C ; * * * = * * ",
"% * 7 , = 7 C J 7 J 7 = * = * = = * * = = = = = 7 = * * = h I | | I I h = * % * 7 = | 7 * * * h = = * * = * + % * * % % * * * o ",
"% , h h , 7 M M , M 7 , 7 7 7 7 * = 7 h h 7 J I 7 = 7 7 7 J I I I I X.J J 7 * 7 -.h h 7 J X.7 7 7 7 * 7 ; ; * * * * * = * * * * ",
"* 7 M h 7 I I I 7 h , * 7 7 7 7 7 h h h 7 = 7 h h I J h h 7 h h 7 h I I | h * I X.X.| 7 7 | J 7 7 = * * = * * * * * * * * * * = ",
"* , 7 7 M h M 7 7 7 * * , 7 , , J J h h 7 7 7 7 I h h 7 h 7 7 7 h 7 h 7 I J * I 7 -.I 7 7 * 7 7 = 7 ; * * ; ; * * % * * * * * * ",
"* * 7 7 7 7 7 , h h , * , 7 , * 7 7 = 7 I | | I | J 7 7 h I J 7 I J 7 7 I h * I I I = I I % * * # * * * * * * + * % * * * * % % ",
"& & h n & & n n , , 5 ; * ; * * , % | | | 5.%.| h , h * M h M | 7 7 7 7 J 7 * = I M J J h 7 * % + * % % * * % % * # % * # # % # ",
"& % & t & & , , - - 7 * % ; * ; , * h , t h h | h h h * M , h h 7 7 * 7 h = * * = 7 7 7 7 = * * o * * % * * % * * % % % # # # # ",
"% $ % - % % % % % % % % % ; * * * * * * % * % , 7 h 7 % , * 7 7 * * % % * % # % * * * * * % % % o % % % # # % % * % % % + # # # ",
"% % - , % @ # # % % - % * ; * % 7 * * 7 , 7 * * * 7 7 % * , 7 7 % % % % * # o # * * * % % # # # X # # # # # # % % % + + X + + % ",
"% % - t % # # # % % * & * 7 , 7 I * * | 7 | I * 7 M h % 7 7 I h , * , , * % * * % * * * % % % % % # o # # % # # o o + X + + % % ",
"% % % - * % - % % % , ; * M 7 5 | 7 % %.M -.-.I M I I , I I | I h h I I 7 = 7 7 7 = = * * * * % % # # % % * * % o % % o + + + % ",
"# % % % - , , % % % , % & , ; 7 7 M % I M I 7 I I I I 7 %.I | | h 7 I | h 7 7 , h h 7 7 * * % % & % % & * * * * + * * + + + + * ",
"@ % - % % , , , % % , % % % % * % I # M I M % M 7 7 M 7 -.I | %.M 7 I -.M 7 7 7 , * * * = * * % % # % * * * * * + * * + * ; * ; ",
"# % % - - - , , # # % , % % % , , , % M %.M , M - M %.M M %.%.M , M , , M I 7 7 * * * 7 , % % % @ # # % # % % % % % * * * ; ; * ",
"X X % # % % % % $ $ % , % # # % % # # % , % % % % # % , , , , M % , , % * * % * * * * * % # o o X X # # X o % % % % * * + + % + ",
"X X X $ $ $ # # # # # % % # # % & % % & % & & % # % , t h M t % # % , % % % % , , , % % # # # o X X o # X o + + + % * + + + + + ",
"X X $ $ # # # # , % # # % % % - % % , , , 5 5 ; , , , % % M M ; % , , , , M M M , , , * * * % % + X o o o + % % + * * % + O O O ",
"X X X $ # # % # , % # % % % - , & & t h t ( | * * & & ( t t t & # % , , M M M M M % % % % % * * % % # % + % * * % * * + + + O O ",
"X X $ X X $ % % % % # % % % % & % % & % % & * & , % % % % & t t # % , , % , , , , % % % * % % % % + % % % * * * + * * % + + O O ",
"X X X X X $ # % % # % % % # # % % % # X X X X @ # & , & % t h & # % , , , , n , M , % % % % % % + + + % % * ; * + + % + # % + X ",
"X X $ X X $ # % % % % % # X # & % % X         X & % & & % % & * % % % , , n 7 % M , , % , , , , % + + % * * ; * + + + + + % % + "
};
