/* XPM */
static char *_7a71e39dae34296fbde494750ec596ezKTOLtqPFgvxn7CX[] = {
/* columns rows colors chars-per-pixel */
"64 64 146 2 ",
"   c #16160E",
".  c #1C150E",
"X  c #17190E",
"o  c #1B1A0E",
"O  c #1B1612",
"+  c #171810",
"@  c #1D1C13",
"#  c #1E1E18",
"$  c #21170D",
"%  c #21190F",
"&  c #201710",
"*  c #231D15",
"=  c #291E15",
"-  c #231E19",
";  c #291F18",
":  c #301F15",
">  c #1F2012",
",  c #1F2019",
"<  c #232116",
"1  c #2B2116",
"2  c #25221B",
"3  c #29261F",
"4  c #2A271E",
"5  c #2B271E",
"6  c #2A251E",
"7  c #2D241D",
"8  c #2C251D",
"9  c #2E251C",
"0  c #2F261D",
"q  c #2C251F",
"w  c #2E251E",
"e  c #2D261E",
"r  c #2F261F",
"t  c #2E271F",
"y  c #2A241C",
"u  c #29291F",
"i  c #2D291E",
"p  c #2C281F",
"a  c #2C281F",
"s  c #312114",
"d  c #302215",
"f  c #312016",
"g  c #312316",
"h  c #302217",
"j  c #332316",
"k  c #302217",
"l  c #312318",
"z  c #302219",
"x  c #30231A",
"c  c #31221B",
"v  c #30231B",
"b  c #34231B",
"n  c #312519",
"m  c #322419",
"M  c #31241B",
"N  c #32261A",
"B  c #32251C",
"V  c #31271E",
"C  c #33261E",
"Z  c #31251B",
"A  c #31281F",
"S  c #32281E",
"D  c #272621",
"F  c #292420",
"G  c #282520",
"H  c #282421",
"J  c #2A2521",
"K  c #292621",
"L  c #2B2620",
"P  c #2A2720",
"I  c #2B2622",
"U  c #2A2722",
"Y  c #2E2520",
"T  c #2D2620",
"R  c #2C2721",
"E  c #2F2621",
"W  c #2E2721",
"Q  c #2C2723",
"!  c #2B2720",
"~  c #272821",
"^  c #2B2821",
"/  c #2B2823",
"(  c #2C2920",
")  c #2D2920",
"_  c #2F2820",
"`  c #2E2A21",
"'  c #2D2822",
"]  c #2C2922",
"[  c #2F2822",
"{  c #2E2923",
"}  c #2D2A23",
"|  c #2E2B22",
" . c #2F2B22",
".. c #2D2824",
"X. c #2C2924",
"o. c #2C2825",
"O. c #2E2925",
"+. c #2D2A25",
"@. c #2F2A24",
"#. c #2E2B24",
"$. c #2D2926",
"%. c #2F2A26",
"&. c #2E2B26",
"*. c #2F2C25",
"=. c #2E2E24",
"-. c #2D2922",
";. c #302722",
":. c #302720",
">. c #302921",
",. c #322920",
"<. c #302923",
"1. c #312A22",
"2. c #332A23",
"3. c #322B23",
"4. c #302C23",
"5. c #312A24",
"6. c #302B25",
"7. c #332A25",
"8. c #322B25",
"9. c #302B27",
"0. c #302D24",
"q. c #312D24",
"w. c #332C24",
"e. c #322E25",
"r. c #312C26",
"t. c #322D27",
"y. c #332F26",
"u. c #312C25",
"i. c #312C28",
"p. c #302D28",
"a. c #322D29",
"s. c #312E29",
"d. c #332E28",
"f. c #332E2A",
"g. c #322F2A",
"h. c #352E28",
"j. c #342F29",
"k. c #332E28",
"l. c #35302A",
"z. c #36312B",
"x. c #37322C",
"c. c #36312A",
"v. c #38332D",
"b. c #39342E",
"n. c #39342E",
"m. c #3C3731",
/* pixels */
"@ @ @ @ * @ @ 2 - R 2 2 3 2 6 R R } } 6 q 2 3 y y 2 y < < y 2 3 < 2 2 2 2 3 K 3 K 3 } r.6.} R K } R 6 2 6 6 2 2 K 6 K 2 - - - # ",
"@ @ @ @ - - < K K 2 } R 6 } q R 6.6.<.3 p q q } 3 y 3 < 2 3 3 3 3 3 y 2 3 p #.*.6.d.r.d.z.r.} r.r.r.R 3 K K K K R 6 2 ; - - - # ",
"* * * @ 2 2 6 } } 3 } r.R R j.R 6.6.<.3 <.3 p } q q q 2 2 } p p 3 3 3 3 p } r.r.j.v.z.d.v.j.#.z.z.z.d.#.} R #.d.#.K 2 2 2 2 2 - ",
"< < 2 2 3 K K #.r.* d.} 2 z.6.j.:.:.<.R } q p 3 p } } 2 2 } } } 3 6 p }  .} #.r.z.z.j.z.b.z.j.z.x.z.r.6.6.6.#.6.#.K 6 6 K K K 2 ",
"- 2 6 6 K 3 K ^ K 6 3 R <.#.r.*.} R } K <.} <.p } } } 2 y 4.} p 3 3 q <.<.} p <.d.6.j.v.x.x.x.z.b.d.R R j.j.} K F K K K #.#.K 2 ",
"* < 6 6 3 3 6 2 6 * } 3 R z.6 } R 6 3 2 3 3 } p 3 y y < < p 3 3 y 2 2 2 y y 3 3 } 3 } z.r.r.z.r.r.r.} } 6.#.K K K #.6.9.d.d.#.#.",
"* 2 2 2 3 3 2 2 2 2 * 2 3 6 K 2 6 - - * < 2 3 3 2 2 2 * * 2 2 2 2 2 2 2 < 2 2 2 3 2 6 R R } } K 6 } } K 6 2 2 3 R d.d.d.d.d.#.X.",
"< 3 6 2 3 3 6 6 2 * @ * * - 2 - 2 * - * 2 2 3 2 3 2 2 2 2 y 2 2 2 y 3 y y 3 3 y 3 2 2 6 K K 3 K 3 6 - - 2 2 - - Q 9.#.#.#.#.6 2 ",
"^ } ^ ^ } } ^ #.#.} R 2 2 6 2 6 3 2 2 2 y 3 p 4.<.<.q q p q q q q 3 2 2 <.<.A q p r.r.} } #.} #.r.R 6 2 2 2 2 2 6 2 K #.#.X.D 2 ",
"} } } } } K K } R R #.3 6 3 6 3 3 6 2 3 3 q q p <.q q q p q q q q 2 * 2 q q q q 3 r.r.} } R K #.d.6.K 3 3 3 K R R K R 6.#.X.2 2 ",
"} #.#.} R 3 6 3 2 6 } 3 3 6 2 3 3 2 2 6 } p p p q q q q q q 2 2 2 2 * * 2 q q q q 4.r.4.p 3 3 } 3 3 3 6 K } 6.} K K K #.#.#.K K ",
"6.r.6.r.#.R 3 3 * 2 ^ K 6 ^ 3 ^ K 2 - 2 3 } } A <.q 7 2 2 * * * = * * * < 2 2 q } 4.r.r.} 3 3 p - F 3 R K #.} R } R K R X.X.2 2 ",
"6 2 3 6 2 2 - * < * 2 < 6 K 3 3 } K 6 2 3 3 q 2 2 2 * * & & & & = = & & & & * 2 q q p p 3 3 y y 2 3 } R } } } 3 2 2 K K #.#.#.^ ",
"R 3 R } K K 3 6 2 < 2 2 2 } K ^ } R 3 K q } 2 * * * & & . $ & & = * * & & O O & < * * < < < 2 2 6 3 3 K 3 K K K 3 3 K K K #.K 2 ",
"} K R } } } } 3 } } } 3 ^ #.} #.R } } R p p q 2 * * * * = * ; ; ; ; ; = * = & * * & * * O * * * 2 2 2 2 - - - 2 - 2 2 2 K K K 6 ",
"#.R } 6.} #.6.} 3 3 ^ 6 2 3 3 K r.r.6.R 3 q q 2 2 2 7 7 7 7 7 7 ; 2 2 2 7 7 2 2 2 * < < & O - 2 3 2 2 2 - O O O - - 2 - 2 2 2 - ",
"R #.6.} 3 3 K 3 R } #.3 K } 6 K q } <.q 1 2 9 * 1 1 1 1 z z h s h : 1 z 9 9 7 q 1 1 ; ; * * * 3 2 3 6 6 6 - * @ - 2 2 3 K K 2 O ",
"r.#.} 3 K } 6.} R } } 2 3 R 3 K q <.q 2 7 1 ; 9 M 7 1 1 M h h h h h 7 z 7 7 2 9 1 7 7 1 * * 2 R - 3 K 6 2 - - R 2 3 R K K 3 2 * ",
"} } } R #.6.#.} R R K - - K 3 R q q q 2 < * 1 A V 1 = h M z h M h b z z 2 2 1 y 7 9 9 ; & & < 2 6 R } 3 2 * 2 } 3 } } R K 3 6 2 ",
"3 } 6.#.R K R } K R 3 * 2 K K } q 2 < * & * q V 9 1 = = 1 M z V M h 1 1 6 2 7 2 V 7 1 1 - 6 2 2 3 R K 3 6 6 2 3 R R K 3 K R 3 6 ",
"} r.#.K K 2 2 } R R 3 * - 3 3 R q 2 = & & 2 <.V 7 7 1 ; 7 z M 1 h M 7 7 2 q q q 1 * * 2 2 * 2 K 6 6 6 3 } 6 6 6 3 3 3 3 } #.} 6 ",
"r.6.R R K 3 2 6 K 3 3 2 6 R 6 3 - 2 & . * q q 9 7 V 9 = ; M M 1 M M 9 7 q q V q * * * 7 2 & @ 3 3 3 3 3 3 6 2 R 3 3 3 R r.j.6.R ",
"K } 3 3 #.3 - 2 3 2 3 6 K 3 2 2 * - & & < q 7 7 1 7 7 1 1 7 9 z M M 2 1 6 q y * ; 9 9 V R * O 2 6 3 3 3 6 - - 3 6 6 K } d.j.r.K ",
"2 K 6 2 6 - - R 3 2 3 K R K * 2 - * & * * 2 7 2 * * ; 1 = ; 1 M z 1 ; * 2 2 * O . * * * 6 *   @ * * - 2 6 - - 6 2 6 } 6.r.r.} K ",
"2 2 2 6 6 6 3 } #.K 6 6 R - 2 2 . & * * * 2 2 2 1 2 ; 9 ; * ; 9 A A 9 9 6 * 2 2 = ; ; * * * O O * * * O @ O O 2 3 - 2 } } K K 3 ",
"3 3 3 K K 3 R #.} } R R R * 2 2 & * * * ; 2 2 2 2 9 ; q 1 1 1 7 A V 7 q 6 * 2 q 2 7 7 2 6 - @ @ - - - * * * * 3 3 3 #.z.r.3 - * ",
"K R } R R K } } } } } } R * 2 2 % & ; ; * 1 7 7 7 9 ; 9 9 9 7 1 1 1 1 9 y * 7 q 7 q 7 ; 2 * * @ - 2 2 - 2 2 - } 2 3 r.z.d.} 3 2 ",
"3 } #.} K K K } } K K 3 } 2 3 2 $ & * * ; 1 1 7 7 7 = 7 7 q q ; 1 1 1 q y 2 y 3 2 q 7 ; * = @ O - - 6 2 3 6 2 #.} r.d.r.R R K 3 ",
"3 } r.#.K 6 3 6 R K 6 3 R 2 R 3 & & ; ; ; ; 7 7 1 l * 1 1 1 1 1 h M 1 9 } 6 7 7 z M 1 = 2 - & & * 2 3 2 3 6 2 #.z.z.r.} } } R 6 ",
"3 r.r.#.3 K 3 3 2 3 3 2 3 - 3 R ; ; ; 7 ; 1 1 7 9 9 ; 9 7 9 V 9 M M 7 9 2 2 2 9 9 9 1 ; ; ; * * * 2 3 3 K 3 2 6.r.r.6.6.r.r.} 6 ",
"K r.j.R 2 3 K 3 2 6 3 6 6 * 6 2 & & = ; 1 = 1 7 9 z ; V 9 9 7 7 N M 1 2 2 * 1 2 1 9 1 ; ; ; * & - 2 R 3 } } 3 j.z.z.r.6.j.r.3 2 ",
"R r.r.3 - 2 3 3 2 6 2 2 3 - 2 * $ $ % = = = 1 9 1 1 * M M 9 1 1 M M 9 V 9 * 1 2 9 M z = 2 ; * O - 6 } } 6.6.R x.m.b.r.#.r.} 3 6 ",
"2 6 2 6 @ 2 2 2 2 2 * * < < * O O O O @ O @ 6 - 6 6 2 2 ; * 1 M q <.q < 2 2 6 q 2 6 6 2 6 6 * @ * 2 } } z.6.r.j.r.r.} 3 q q q q ",
"K } ^ } 2 3 2 2 y 2 2 < < 2 < * * @ @ - O @ 2 2 ; - - * * * * 1 ; 7 q 2 * * 2 2 - 2 2 - - - O O - 2 3 3 j.r.#.} r.r.} 3 q R q q ",
"} #.6.d.R K 3 3 y y 2 2 2 2 2 2 2 * * - @ O 6 K q y y 2 9 9 9 9 * 1 V V ; * 7 7 7 7 2 7 6 - * * 2 3 3 2 r.} p y } 4.p 2 2 2 * * ",
"3 ^ 6.r.6.R 3 R 2 y 2 2 * 2 2 2 2 * @ - - * 3 K 6 2 2 2 9 A M 9 7 2 V A z 7 z 7 9 9 7 q q * * 2 6 R } 6 #.} } 3 r.r.p 2 2 2 - - ",
"6 q #.r.#.3 3 K 2 y y 2 * * ; 2 < * O O * 2 3 2 * * 1 1 1 9 9 1 1 9 z M A 7 1 = 1 7 1 9 2 & * y 3 #.#.6 d.r.r.4.4.r.} 3 3 2 1 * ",
"2 ^ #.} } 6 3 K y 3 3 2 2 2 y y < < * O * * 2 * * 1 y 9 9 9 S S 1 M 7 7 C V 1 1 1 1 1 1 = = * 9 r.r.6.K d.r.4.} 4.} 3 2 2 2 1 * ",
"2 3 #.3 R 6 3 R q q q q 2 2 2 2 2 2 * * * O * * * 2 2 9 2 2 9 9 7 9 9 9 M C V z 1 1 1 1 1 1 2 V d.d.6.K 4.} p p } } 3 y 9 9 2 1 ",
"- 3 } 2 K 2 R } q q q 2 2 2 2 < 2 2 * < * O * 2 2 2 9 2 2 7 9 1 1 1 9 9 1 C C z = 1 ; ; 1 7 9 <.K } #.3 #.3 3 4.3 p y 2 y q 1 < ",
"6 2 6 3 ^ K 3 3 q <.q 2 2 * * * * * O @ . O - ; - - 2 6 3 2 2 7 9 1 2 1 7 q 2 2 2 * * * * 2 p } 3 } 6 - p 4.3 3 2 3 3 2 1 2 1 * ",
"- - 6 2 6 6 2 2 2 2 2 * * * * * * * @ @   . - - @ * * * * * ; 2 1 * * & * 2 2 2 2 = & * * 2 2 < 6 3 2 - R r.} } 3 p 3 2 1 y 2 < ",
"O < 2 2 2 2 2 2 2 y 2 * * * * * * * * * O O * @ @ @ * O & * * 2 * * 2 * * * & . 2 * * * * * * - * * * * 2 2 < < 3 2 < * * 1 1 & ",
"@ 2 3 2 2 3 q 3 q q y 2 2 2 2 2 - - - 2 ; - - - - - - - * & * ; * * < O & * & * * 2 6 2 - - 2 2 2 6 < < 2 2 * * * < * * * * * % ",
"* 3 } K 6 K ^ ^ y 3 3 2 3 3 3 3 < * 2 6 6 3 6 3 6 2 2 2 < < 2 2 * * * & & 2 * * 2 2 2 2 6 R ^ 6 3 3 2 3 p 3 2 2 * * < < * * * * ",
"< 6 ^ ^ 3 ^ R R y 3 2 2 y y y y y 2 2 * 2 6 2 3 R 6 6 K 6 2 2 6 2 2 3 2 q 2 & * * q 3 2 6 K K 3 y 6 2 2 2 2 2 2 < < < < * * 1 1 ",
"< 6 6 3 6 3 3 3 3 3 2 < 2 2 < < q 2 2 * 2 6 2 3 6.K 3 3 3 y 1 1 q 2 2 1 7 7 * 7 * q } q 3 < < 3 2 y y < < 2 2 2 * * * * * * * < ",
"< < 6 3 3 6 6 3 y 3 2 2 2 3 2 2 < 1 y 2 3 } 3 r.#.3 2 6 3 3 9 9 A q q 9 A 7 % ; q q q } p < O * O * 2 < * < 2 * < * * * * * * * ",
", @ 6 ~ < 6 ^ ~ 6 u p 2 2 2 2 2 < 6 ^ ^ #.*.r.} 3 6 3 2 6 2 } } 3 3 2 6 3 2 @ @ 3 3 6 6 q q * * & * * * - - * - < @ * * * * * * ",
"< @ < 6 2 2 6 2 < < 2 2 < 2 2 2 6 < K 6 2 3 3 ^ K K 3 - 2 2 R K 2 2 2 6 K 2 * * 2 6 2 6 3 2 * * & = * & * * * - 6 < * < * * * * ",
", @ , 2 , # < , < , < @ * 2 < < 6 @ 6 2 * 2 * 6 3 R 3 @ 2 6 3 6 - - * * - @ O O * - - - * * & * & * * * * - - < 2 < * * @ o < * ",
"@ @ < 2 @ @ @ < < @ < @ * 2 * * 3 2 2 2 6 3 * 6 6 3 6 O 6 3 3 2 - * * * * O . . @ * * * & O & & % O & o O O O O * @ @ o @ @ * * ",
"@ @ < 2 , @ @ , < < < , 2 2 2 2 K 3 * } ^ *.} 2 6 } 3 * 3 R R 3 6 2 6 6 2 - - * * - - - * @ * @ @ @ O @ O @ @ @ @ @ O o o o > < ",
"@ # , < 2 < < # @ @ 2 < 2 3 y 3 } K * r.3 r.x.3 K } } 2 } } #.R R 3 } } 3 2 2 6 2 2 6 6 < * * * < @ < < - * * @ O * @ o o * * 1 ",
"@ , , < 2 u 6 < @ @ < < < 2 2 3 3 3 @ } 3 } ^ 3 3 p } 3 4.} 4.} R R } #.3 2 2 - 6 2 3 3 2 < 2 * @ @ @ < < @ , @ o < < @ < < < < ",
"+ , 2 < 2 6 6 < @ < 2 < * < * < * 3 O 3  .} . ^ 2 y } p } } r.} R K #.r.R 3 3 3 2 < 2 6 < < < * # @ @ 6 < < < @ o > < < < < 1 < ",
"@ @ < 2 2 , < 2 @ @ < 6 2 , @ 2 2 2 < p } } 6 } 2 } p p } 3 z.3 2 K 6 2 } } 2 2 K < 2 6 2 < < < @ @ @ @ @ * < @ o @ < < < < < < ",
"+ @ @ @ @ @ @ , @ @ , 2 2 , @ < < @ @ 2 2 < * * < < * 3 } < } 2 - 2 - * * - 2 6 2 < 2 2 @ @ o o + @ @ @ o @ @ @ o o @ < < < < < ",
"    + + + + @ @ @ @ @ @ @ @ @ @ < < @ 6 @ < # @ @ - 2 3 ^ K ^ O O * 6 6 - < 6 2 2 < 6 < @ O O o     @   o o * @ o * * * @ @ @ @ ",
"  + +   + @ @ @ 2 , @ , < @ < 2 < < < 6 6 X.^ 2 3 ^ 3 * 2 K d.- < < 6 3 3 ^ } K 3 2 6 6 < < < @ @ @ o O o @ < * < * < @ @ o o @ ",
"  + + @ @ @ @ @ 6 < , , , @ < 2 , < , ~ 2 X.X.D 2 2 2 2 D D D # @ 2 < < K ~ ~ X.6 < * - < * 2 < * O o @ @ < < < * 1 * @ @ o o o ",
"  + @ @ @ @ @ @ @ @ @ @ @ @ @ < # , # , 2 ~ D 2 2 2 < @ # 2 D 2   < 2 2 D 6 2 ^ ^ * @ - * @ * < < O @ * * < < < < < < * @ o o X ",
"+ + @ @ @ @ @ @ , @ < < @ @ @ @ @ # # , , 2 # # @ , 6 # 2 2 D # @ < < @ < < 6 X.^ < < 2 < < < < * o O * < < < < * * < * @ @ X   ",
"@ + @ @ @ + @ < < < < @ @ @ @ @ @ # @ , , 2 @ # 6 # < # # # 2 2 @ @ < 2 2 6 2 , 6 2 6 6 2 2 2 2 * O O < < < < < o o @ * @ @ @ @ "
};
