/* XPM */
static char *_943d124f4354408a7034fa7512009baTkTdJ2dGGYFrnGRB[] = {
/* columns rows colors chars-per-pixel */
"64 64 166 2 ",
"   c #060200",
".  c #0D0601",
"X  c #0E0904",
"o  c #0D0D0A",
"O  c #110601",
"+  c #130B05",
"@  c #190D06",
"#  c #140D09",
"$  c #190F09",
"%  c #1A1007",
"&  c #16110B",
"*  c #1A130D",
"=  c #1D190F",
"-  c #131211",
";  c #1C1611",
":  c #1E1B14",
">  c #1E1D19",
",  c #21160D",
"<  c #23190F",
"1  c #211611",
"2  c #221D15",
"3  c #2A1D15",
"4  c #231E19",
"5  c #281F18",
"6  c #252016",
"7  c #292216",
"8  c #25221B",
"9  c #2A251C",
"0  c #2C281E",
"q  c #31261D",
"w  c #31291F",
"e  c #1E1E20",
"r  c #262521",
"t  c #2B2721",
"y  c #272823",
"u  c #2D2926",
"i  c #2F2A26",
"p  c #2E2B26",
"a  c #2F2A27",
"s  c #2E2A24",
"d  c #2F2C25",
"f  c #2F2C27",
"g  c #2F2F25",
"h  c #2D2A22",
"j  c #2E2D28",
"k  c #2F2E29",
"l  c #2E2D28",
"z  c #302720",
"x  c #302722",
"c  c #302921",
"v  c #312821",
"b  c #322920",
"n  c #312A20",
"m  c #332A21",
"M  c #322B21",
"N  c #322922",
"B  c #312A22",
"V  c #322B23",
"C  c #332A23",
"Z  c #342B22",
"A  c #302C23",
"S  c #322E23",
"D  c #342D23",
"F  c #302B25",
"G  c #302B27",
"H  c #342B24",
"J  c #302D24",
"K  c #312D24",
"L  c #332C24",
"P  c #322E25",
"I  c #312C26",
"U  c #302D26",
"Y  c #322D27",
"T  c #332C26",
"R  c #312E27",
"E  c #332F26",
"W  c #342D25",
"Q  c #362D24",
"!  c #362F25",
"~  c #372E25",
"^  c #352E26",
"/  c #362F27",
"(  c #312C24",
")  c #392C25",
"_  c #302D28",
"`  c #302C29",
"'  c #322D29",
"]  c #312E29",
"[  c #332E28",
"{  c #322F28",
"}  c #312D2A",
"|  c #332E2A",
" . c #322F2A",
".. c #342F29",
"X. c #332E29",
"o. c #343027",
"O. c #373026",
"+. c #343027",
"@. c #3A3027",
"#. c #333029",
"$. c #31302B",
"%. c #33302B",
"&. c #32322A",
"*. c #313129",
"=. c #353128",
"-. c #373028",
";. c #363229",
":. c #35302A",
">. c #36312B",
",. c #37332A",
"<. c #34312C",
"1. c #35302C",
"2. c #37322C",
"3. c #37322E",
"4. c #35312A",
"5. c #38312B",
"6. c #383429",
"7. c #38342B",
"8. c #3A362B",
"9. c #38332D",
"0. c #39322C",
"q. c #39352C",
"w. c #3A362D",
"e. c #39342E",
"r. c #3A352F",
"t. c #3B372E",
"y. c #39342C",
"u. c #3C382F",
"i. c #3B3630",
"p. c #3B3632",
"a. c #3C3731",
"s. c #3C3733",
"d. c #3C3732",
"f. c #3E3A31",
"g. c #3D3832",
"h. c #3F3A34",
"j. c #3E3933",
"k. c #41342C",
"l. c #433C35",
"z. c #433F3A",
"x. c #444037",
"c. c #47413A",
"v. c #48443C",
"b. c #4C483F",
"n. c #55483F",
"m. c #4B4642",
"M. c #4E4A45",
"N. c #534C44",
"B. c #59544E",
"V. c #5E5953",
"C. c #625B54",
"Z. c #695D55",
"A. c #655E58",
"S. c #6A6056",
"D. c #66615C",
"F. c #6A655F",
"G. c #6A645E",
"H. c #6C6763",
"J. c #706B65",
"K. c #756C65",
"L. c #75716C",
"P. c #7F7671",
"I. c #81746C",
"U. c #807770",
"Y. c #FAF3E9",
"T. c #FFFAF6",
/* pixels */
": 2 4 2 4 2 2 9 8 h 9 9 h 9 9 h 0 0 w 0 A 9 0 h 9 9 9 8 9 t 9 9 8 9 9 h h h 0 9 t F I ..h ..[ F I s t t 2 h 8 9 t t t 9 4 6 8 4 ",
"2 6 8 4 4 8 8 h I 9 A h 9 h 9 h o.! ! 0 c 9 0 h h 9 t 8 9 h h h h h h h h A A I 9 ..>.<.>.r...9...I h h 4 s t h s s t t 8 8 8 4 ",
"8 2 6 8 9 8 8 [ I 9 h I 0 h >.I ! ! I 0 I c h h c h h 9 8 h A I h A I A A I o.>.8 7.7.r.r.r.I u.>.r.I I 4 9 t s [ s t r 8 t r 8 ",
"4 9 t 8 9 I F I >.6 >.I 0 7.A o.c z c c ! c I d h h h 9 0 I ! I A A I I I I A I 9 r.r.r.a.p.<.p.a.h.>.9.s I ..>.[ s s t s k t 8 ",
"t 6 9 I I F h >.0 9 9 I I o.>.>.I h I h ! c H c c C D 9 9 ! A A h I I I I I I I I >.7.g.7.g.7.7.r.9.t [ ..>.[ t t s s F #.[ t 4 ",
"6 8 t t t I s t A 9 I 9 h I 9 I A 9 0 9 0 0 c h 0 9 w 9 9 c 0 0 h h h h h h 0 0 I h A 7...r.r...>.>.F I ..I h h I [ [ [ <.[ s t ",
"8 : 8 9 t 9 8 9 8 9 6 9 9 8 9 0 9 6 8 2 8 9 c 0 9 9 9 7 7 0 9 9 h h 9 9 9 8 2 2 0 8 9 I 0 o.I 9 4 8 9 8 9 9 9 h h s t 8 8 8 4 4 ",
"9 4 9 9 9 t 9 9 8 2 2 2 : : 6 8 9 2 8 2 8 8 h 0 0 9 0 9 9 0 0 q 8 8 9 9 h 0 8 2 9 8 9 A 0 A h 8 8 : : : 8 9 2 8 h [ [ s t 8 : > ",
"d d h s I s h I A 9 I 9 h h 9 h h 9 8 9 t 9 c ! ! c D D c c ! c s [ F F.I h I A I r.7.o.7.>.I 7.I h t 9 9 9 8 8 t 9 s ..[ s y 8 ",
"I [ d d I s h I I A >.0 h h 9 9 s h 4 t h 9 h 0 c ! w w ! ! C c I F 4 J.2 >.h [ h >.r.>.I h h I o.I I t t t I I 4 8 s [ k s t 9 ",
"I I I d F h t t 8 9 h 9 A h h h h 8 8 9 I >.F I A h I ! ! c c >.<.& # : + * ..9 I >.r.<.I I >.I 9 I h h t h I F 4 t I I [ k s t ",
"[ #.I [ I s t h 8 9 9 9 A 9 h h 9 h 4 h I 9 o.h [ h I 5.h h [ h * * ; t * # ; 9.! >.! D c I I h 9 h 9 h I s F 4 4 t F h [ s t t ",
"9 9 t 9 9 8 8 4 8 2 2 6 h 8 9 h 8 2 8 8 9 s t t s t h t 9 F t * o ; r y k > o ; #.#.#.k d d t t 9 h 0 A [ I F 8 2 9 t t s [ s s ",
"h h h s t t t 9 8 2 6 6 9 9 9 I 2 9 2 h I h I 9 8 9 8 8 t 4 & & 2 t a 4 4 8 ; X ; 8 9 9 9 6 6 9 9 h h 9 9 9 t t 9 t h t s s t t ",
"s h I d h h s t I h I 9 h A h I I s F s I [ s t 8 y t t 6 & o > [ s [ s s s 8 ; & & 2 9 8 4 8 h 9 9 9 2 : 2 : 8 2 2 4 9 t h s t ",
"I I [ I F I [ s h 0 I 8 9 I h h [ <.I I F h #.#.r <.<.8 ; & : 8 4 8 : 8 : t 8 8 ; & : 9 4 : 8 t h 8 0 6 2 2 * : 8 4 8 t t t t 6 ",
"I I h 0 h h h h ..s s t F I t F h 8 2 8 2 4 4 8 2 2 8 ; * = 8 2 2 : 8 : ; : 4 8 5 * O 9 8 6 8 r 9 9 9 t 8 4 2 2 8 9 8 h 0 A 8 2 ",
"h I A h h A h h 9 s I 9 h [ 9 2 t v.9.a.g.r.G.m.B.r.9.* 8 v.x.v.v.b.A.M.M.H.G.D.5.c.5.l.t 8 : y 8 h F s t 9 9 h 8 9 9 A h I 0 9 ",
"h I I h I I I I t I I 8 9 I t 2 ; F.& # + X + # + + + # & # * & & * : * # & ; # # # & * + 2 : ; 8 t s 9 4 2 8 I 8 0 h A h I h h ",
"h I I h A h h A I I h 8 8 s F 9 2 v.+ . # # + + + + + # & & & * * # * & # # X & + * O . & X r ; : 4 9 t I t 9 I 9 h h A A I h 0 ",
"I I A h 0 9 9 h h F t 8 t F h 9 8 I # X X + : . O O * . # 5 * & & & * # X # O X O . + & & . <.8 4 ; 2 8 I t 9 h h h h h I o.I 0 ",
"+.o.I d A 0 9 0 t I h 9 t F F 4 : A.X + + ; * : O * + # # * 2 1 & , # + X X # . + # * $ * &   : ..2 2 2 s 9 t I h h h A >.>.>.h ",
"I A h h h 9 8 9 t h 9 h h s s 4 4 D.& . + + # * * + O $ + * , , $ O + O X + . # + 1 5 5 * # + ; 2 # 4 2 9 8 9 9 0 0 I A 7.>.o.h ",
"9 8 8 9 9 8 2 2 8 2 4 F I t 9 2 : <.# . + . # O # + + $ . + @ + + + . X + . + + # * 5 * * * & ; * # t 8 8 8 t 9 9 0 I A ,.I I 9 ",
"9 8 9 F h 8 8 I h h 9 9 I 9 9 2 4 l.# . + + . + + $ + + $ O + + @ $ . + + + . + + & & + + * ; ; & + ..2 8 4 : 8 9 6 9 I I h h 9 ",
"9 t h I I h t s I I I A I 9 h h h c.* + . + . . O   + + * * + + @ + O O + + + # # O # + + $ ; * + & >.8 8 2 2 h h 0 I >.o.h 9 8 ",
"h F F s F [ I I h h I I h 8 0 h c F.& X # # & X . O + ; 1 C 1 , + @ $ + * ; * X # O O O + # * * # & r.9 4 t 4 I 9 0 o.7.>.I A h ",
"h I I s h s I [ I h A o.I 8 A h [ l.# & O + + # O +   + t.K.U.N.3 @ + 1 M.m.z * @ + O # # * * * & * l.9 4 ..2 I A o.7.7.>.I I 0 ",
"9 F >.[ I s h h I 9 h I A 9 h A z z.2 + # # & X & + . # c C.Y.C.q + ; c H.T.B.: O # $ @ + # * # & & g.9 9 F 4 >.7.r.7.>.>.>.h 9 ",
"t [ >.I t t t s h 9 0 0 9 6 A I I c.& + O + * * * * # # & ! c.z.3 @ # * z.m.l.& O + @ # + # # + + # I 9 I h h ..o.>.>.>.7.>.A 9 ",
"F >...9 8 9 h t 9 0 h h h 8 h I I P.# . # X * ; ; * + # O X 1 1 3 , # # . & * * O O + + + + + . + * z.4 s I I ..r.r.>.>.>.I 0 9 ",
"h >.[ 8 2 9 t 8 2 8 9 9 h 8 9 9 9 A.+ * . * * 2 * # & : & # X * 2 & * O X X . X + . O + + + . . . 2 D.4 2 [ s 9.r.r.>.I I h 0 0 ",
"t 6 4 : : : : : : 6 8 2 6 8 8 8 9 N.X X . # 4 ; * + & O # O O + & & # + + # # + + O O & * # X X . * V.8 4 >.>.>.h o.o.h h A c 9 ",
"s 9 8 4 : : 2 2 9 9 8 8 9 9 8 6 2 L.X   # : 4 * + + & # # & + . # X O # # O O + + . . * 4 * o X X + r.2 8 I o.A 9 h h h h h h h ",
"F F I ..h h 0 h A 0 9 9 9 9 8 4 9 #.X X + # # $ & # # # ; & # X X . . # + + + $ + O + & 1 2 ; # X # D.9 9 [ 8 h 8 6 6 9 9 8 8 8 ",
"t s o.<.>.[ I A 0 h t 9 8 8 8 8 6 N.X X . O + # + * 1 * + + + & X X X . # * 1 2 + + O O $ ; ; + X + v.2 >.h >.9 A h 0 9 9 9 8 8 ",
"t h h I A I I o.9 h h 8 4 9 8 2 : t & + & O O @ * 9 1 * O & - & X + + + + * 5 9 < + O O # # + + X + z.2 h a.>.r.o.o.A h 0 0 9 2 ",
"h s h I [ F A I h F h 8 8 9 8 ; : s . + . $ @ , ) 3 5 O + # X # X X # # # + * 9 q 1 O . O + + O . & l.2 h <.I 8 A A h 9 9 h 9 6 ",
"9 0 c ! ! c 0 c c c h 9 9 9 5 ; ; s # # * @ < , 3 3 + O # # - o # + # & * # & 1 3 2 * O O @ @ O X X h 4 >.9 >.o.A A 0 9 0 w c 0 ",
"9 0 c I c h h ! 0 t h 0 9 9 4 2 ; z.: + * 3 3 q 3 @ $ # # D.o - ; # + # * 2 * $ , 5 9 3 1 , * $ # # 2 2 9 h A I A 0 9 9 0 0 9 9 ",
"9 0 c c c w 0 0 c ! c 9 9 9 4 ; ; [ & : < 7 9 9 9 3 2 # d ; > e : 4 2 : : * 5 9 9 9 9 q 3 3 2 * ; # r.: 2 >.h h 0 0 0 9 9 9 0 2 ",
"2 9 9 9 9 9 9 9 0 0 9 4 9 2 1 ; : 4 D.F S.N.n.) C.) 9 N.: : > > 8 4 8 4 t.l.C.G.N.Z.Z.Z.l.k.3 I.L.a.9 : 9 I 8 9 w 6 2 6 9 9 0 9 ",
"8 9 9 8 6 8 6 6 8 8 8 4 8 4 4 2 : ; : : 9 2 9 2 2 9 2 4 4 t t 9 8 s t h 9 9 2 1 5 2 @.q q 3 3 3 : 2 : 2 2 9 2 1 9 1 * 2 7 9 9 2 ",
"2 9 h 9 9 9 h 0 h I h 8 8 9 8 2 : 4 * : 4 2 0 9 z 5 4 2 8 9 <.| F I s 9 9 2 2 2 1 1 D 9 3 3 C 3 2 8 2 8 8 9 2 = 2 2 2 2 2 6 2 < ",
"4 t I s 0 A A A 9 A h 8 9 h 0 8 2 4 : & : 9 2 8 8 d t 4 t I q c >.A I >.>.8 8 h F @.C w q D q q 8 8 9 8 A 9 7 c 7 9 9 9 6 7 9 2 ",
"9 s F h 9 0 0 0 9 9 8 9 0 h h h t 8 : 8 s 9 8 [ [ t 9 : 9 9 F ! 9 A h >.0 I 9 c 5.5.t.9 q 9 ~ 9 s 9 t 2 9 9 6 9 9 7 7 9 9 7 9 9 ",
"8 9 t t t h d 0 0 0 9 8 9 9 8 8 s t 8 d 8 #.8 s y k 9 2 8 c 7 9 0 A A 9 h I c I z 0 5.0 c c 5 c 9 9 9 t 9 9 6 0 9 2 2 7 6 6 7 7 ",
"8 9 h s s h 0 0 0 d 0 6 9 d h 9 d 9 8 h p y <.k [ k 9 2 2 I 0 q A 0 8 A A A 2 ! H 5.0 I 0 5 0 9 : 9 2 t 2 0 7 2 2 7 9 9 6 7 7 2 ",
"9 6 p k 8 9 d t h 0 h 0 9 9 9 h t t 6 t h #.#.I h s 9 6 8 h I A 9 h h h F h 8 9 ! c c D c 9 7 7 2 7 7 2 9 9 6 2 6 2 6 9 6 6 9 7 ",
"6 : 8 t 9 t d t 9 9 0 8 9 9 9 9 t h 2 6 t h t s t h 9 6 9 h h h s t t 9 h t 8 9 0 h 0 0 9 9 3 3 1 2 6 2 6 6 4 2 9 6 6 6 6 6 7 7 ",
"9 : 6 9 9 9 9 8 8 8 9 8 9 9 9 8 9 h : 2 9 9 4 9 t h 9 2 8 9 0 9 6 2 : : 2 6 : 2 8 9 h 8 9 7 7 3 1 9 9 2 8 4 8 8 9 2 2 6 6 6 7 2 ",
"6 6 9 9 9 6 6 9 8 9 9 8 9 h 8 8 t y 4 t t t 8 8 0 h 9 2 9 9 0 9 5 4 2 : 2 2 : 2 2 8 9 5 2 2 2 1 : 1 2 1 1 2 2 6 6 2 2 2 2 6 7 7 ",
": 6 9 y 9 6 6 9 8 8 h 8 9 h 0 9 I c 9 A D o.A h h h 0 2 9 0 A h 0 0 h 0 9 9 4 9 9 8 8 8 2 1 2 2 2 2 : : : > 2 2 : 2 2 2 6 2 7 7 ",
"6 9 9 r t 9 9 9 8 8 0 9 9 I h h I t 9 [ s [ >.I h h 0 : h h I I h t I s h 9 8 9 h 9 t 0 9 8 6 8 8 4 2 8 8 8 8 8 2 6 6 6 2 6 7 9 ",
"6 9 t y t t t 8 8 8 0 9 9 0 0 h h 9 2 h h I I c h h h 2 I A o.I c c I I h 0 9 9 9 9 9 9 9 8 6 2 6 > 2 8 8 8 8 8 2 9 9 7 7 7 7 9 ",
": 6 y y 9 s d t 8 8 0 9 9 9 9 h 9 0 8 h I I h h 0 h h 2 o.I o.I I h I I c h 9 0 9 0 9 9 9 9 8 2 6 : 8 t 9 9 9 9 6 9 9 9 0 w 9 9 ",
": 9 9 y 9 8 s h 2 8 9 0 9 8 8 9 s t 9 o.>.>.A I h I h h I I r.d 9 h 9 9 I I 9 8 0 9 9 t t 8 4 6 : : 6 8 2 6 9 8 6 8 9 9 9 9 9 9 ",
": 6 6 9 9 8 9 9 2 2 8 9 9 8 2 8 8 8 2 9 9 9 8 8 6 8 2 I h 9 h 9 8 9 9 2 8 8 8 0 6 8 9 8 4 : : 4 ; ; : 2 2 2 6 2 2 6 9 9 9 9 9 9 ",
"; ; ; : 4 4 4 : 6 : : 8 8 2 : 2 8 8 8 r 8 9 8 8 4 8 t t [ t [ 8 2 9 9 9 t 9 9 t 9 9 9 8 6 6 2 : : = = : = 2 6 6 7 7 9 9 7 7 6 6 ",
"; : : > 4 9 8 : 0 8 6 8 9 8 8 9 9 9 9 h y [ y y 9 [ h #.t [ d 9 8 9 9 t d d d d h h 9 8 9 9 8 8 : : : 2 2 2 7 7 9 9 9 9 7 2 2 2 ",
"; > 8 : 2 9 9 6 h 9 8 8 8 8 9 9 8 r r y t [ k k h 9 t t d 8 h 9 6 9 t 9 s d d [ 0 8 9 0 9 2 9 0 6 2 2 2 6 6 9 9 7 7 9 9 9 7 6 2 ",
"; : 6 : : 6 8 6 6 8 8 6 2 2 6 8 4 8 > 8 8 y r 8 9 r 9 h 6 t 9 9 : 9 t t 9 t h d h 9 8 9 8 6 2 9 6 6 6 6 7 9 9 7 7 7 9 9 7 7 2 2 ",
": : 6 : : 6 8 t 8 8 8 8 6 2 2 8 > > : 8 4 r 8 > 8 9 y 8 8 r s 8 8 8 r 9 8 9 s d I t 9 9 0 9 6 6 7 2 6 7 7 7 9 7 7 7 7 7 6 2 2 2 ",
": ; : : : 4 2 t 9 6 2 6 2 : : 8 > > : 6 6 9 > > r 6 8 8 > 8 8 r 4 8 8 r t t t 9 9 h h 0 9 9 0 0 7 2 2 7 7 9 9 7 < < 6 6 6 2 6 4 "
};
